; generated by PrusaSlicer 2.7.1+linux-x64-GTK3 on 2024-02-08 at 11:06:55 UTC


;
;

;
;

;
;
; 

; external perimeters extrusion width = 0.45mm
; perimeters extrusion width = 0.45mm
; infill extrusion width = 0.45mm
; solid infill extrusion width = 0.45mm
; top infill extrusion width = 0.40mm
; first layer extrusion width = 0.50mm

M73 P0 R18
M201 X2500 Y2500 Z200 E2500 ; sets maximum accelerations, mm/sec^2
M203 X200 Y200 Z40 E100 ; sets maximum feedrates, mm / sec
M204 P2000 R1200 T2000 ; sets acceleration (P, T) and retract acceleration (R), mm/sec^2
M205 X8.00 Y8.00 Z2.00 E10.00 ; sets the jerk limits, mm/sec
M205 S0 T0 ; sets the minimum extruding and travel feed rate, mm/sec

; printing object smart-effector-x-carriage-spacer.stl id:0 copy 0
; stop printing object smart-effector-x-carriage-spacer.stl id:0 copy 0
; printing object smart-effector-x-carriage-spacer.stl id:0 copy 1
; stop printing object smart-effector-x-carriage-spacer.stl id:0 copy 1
; printing object smart-effector-x-carriage-spacer.stl id:0 copy 2
; stop printing object smart-effector-x-carriage-spacer.stl id:0 copy 2

;TYPE:Custom
M17 ; enable steppers
M862.3 P "MK4" ; printer model check
M862.1 P0.4 ; nozzle diameter check
M555 X107.165 Y84.419 W35.4751 H37.1759

G90 ; use absolute coordinates
M83 ; extruder relative mode

M140 S60 ; set bed temp

M104 S170 ; set extruder temp for bed leveling
M109 R170 ; wait for temp


M84 E ; turn off E motor

G28 ; home all without mesh bed level

G1 X42 Y-4 Z5 F4800

M302 S160 ; lower cold extrusion limit to 160C


G1 E-2 F2400 ; retraction


M84 E ; turn off E motor

G29 P9 X10 Y-4 W32 H4

M106 S100

G0 Z40 F10000

M190 S60 ; wait for bed temp

M107

;
; MBL
;
M84 E ; turn off E motor
G29 P1 ; invalidate mbl & probe print area
G29 P1 X0 Y0 W50 H20 C ; probe near purge place
G29 P3.2 ; interpolate mbl probes
G29 P3.13 ; extrapolate mbl outside probe area
G29 A ; activate mbl

; prepare for purge
M104 S215
G0 X0 Y-4 Z15 F4800 ; move away and ready for the purge
M109 S215

G92 E0
M569 S0 E ; set spreadcycle mode for extruder

;
; Extrude purge line
;
G92 E0 ; reset extruder position
G1 E2 F2400 ; deretraction after the initial one before nozzle cleaning
G0 E7 X15 Z0.2 F500 ; purge
G0 X25 E4 F500 ; purge
G0 X35 E4 F650 ; purge
G0 X45 E4 F800 ; purge
G0 X48 Z0.05 F8000 ; wipe, move close to the bed
G0 X51 Z0.2 F8000 ; wipe, move quickly away from the bed

G92 E0
M221 S100 ; set flow to 100%
G21 ; set units to millimeters
G90 ; use absolute coordinates
M83 ; use relative distances for extrusion
M900 K0.05 ; Filament gcode



M142 S36 ; set heatbreak target temp
M107
;LAYER_CHANGE
;Z:0.2
;HEIGHT:0.2
;BEFORE_LAYER_CHANGE
G92 E0.0
;0.2


G1 E-.8 F2100
G1 Z.2 F720
;AFTER_LAYER_CHANGE
;0.2
; printing object smart-effector-x-carriage-spacer.stl id:0 copy 0
G1 X116.227 Y98.037 F12000
G1 Z.2 F720
G1 E.8 F1500
M204 P600
;TYPE:Perimeter
;WIDTH:0.499999
G1 F1200
G1 X115.968 Y98.114 E.01027
G1 X115.741 Y98.36 E.01272
G1 X115.657 Y98.688 E.01287
G1 X115.657 Y107.631 E.33989
G1 X115.741 Y107.959 E.01287
G1 X115.968 Y108.206 E.01275
G1 X116.343 Y108.317 E.01486
G1 X120.056 Y108.317 E.14112
G1 X120.056 Y108.91 E.02254
G1 X120.056 Y109.503 E.02254
G1 X108.072 Y109.503 E.45547
G1 X108.072 Y108.317 E.04508
G1 X111.786 Y108.317 E.14116
G1 X112.16 Y108.206 E.01483
M73 P1 R18
G1 X112.388 Y107.959 E.01278
G1 X112.471 Y107.631 E.01286
G1 X112.471 Y98.688 E.33989
G1 X112.388 Y98.36 E.01286
G1 X112.16 Y98.114 E.01275
G1 X111.786 Y98.003 E.01483
G1 X108.072 Y98.003 E.14116
G1 X108.072 Y96.817 E.04508
G1 X120.056 Y96.817 E.45547
G1 X120.056 Y98.003 E.04508
G1 X116.343 Y98.003 E.14112
G1 X116.284 Y98.02 E.00233
M204 P1000
G1 X116.343 Y98.46 F12000
M204 P600
;TYPE:External perimeter
G1 F1200
G1 X116.303 Y98.463 E.00152
G1 X116.142 Y98.579 E.00754
G1 X116.114 Y98.688 E.00428
G1 X116.115 Y107.651 E.34065
G1 X116.218 Y107.823 E.00762
G1 X116.343 Y107.86 E.00495
G1 X120.513 Y107.86 E.15849
G1 X120.513 Y108.91 E.03991
G1 X120.513 Y109.96 E.03991
G1 X107.615 Y109.96 E.4902
G1 X107.615 Y107.86 E.07981
G1 X111.786 Y107.86 E.15852
G1 X111.825 Y107.856 E.00149
G1 X111.986 Y107.741 E.00752
G1 X112.014 Y107.631 E.00431
G1 X112.013 Y98.662 E.34088
G1 X111.91 Y98.497 E.00739
G1 X111.786 Y98.46 E.00492
G1 X107.615 Y98.46 E.15852
G1 X107.615 Y96.36 E.07981
G1 X120.513 Y96.36 E.4902
G1 X120.513 Y98.46 E.07981
G1 X116.403 Y98.46 E.15621
M204 P1000
G1 E-.64 F2100
;WIPE_START
G1 F9600
G1 X116.343 Y98.46 E-.01247
G1 X116.303 Y98.463 E-.00834
G1 X116.142 Y98.579 E-.04124
G1 X116.114 Y98.688 E-.02339
G1 X116.114 Y99.047 E-.07456
;WIPE_END
G1 Z.4 F720
G1 X119.7 Y97.797 F12000
G1 Z.2 F720
G1 E.8 F1500
M204 P600
;TYPE:Solid infill
;WIDTH:0.500395
G1 F1200
G1 X119.131 Y97.228 E.03061
G1 X118.484 Y97.228 E.02461
G1 X118.847 Y97.591 E.01953
G1 X118.2 Y97.591 E.02461
G1 X117.837 Y97.228 E.01953
G1 X117.19 Y97.228 E.02461
G1 X117.553 Y97.591 E.01953
G1 X116.906 Y97.591 E.02461
G1 X116.543 Y97.228 E.01953
G1 X115.896 Y97.228 E.02461
G1 X116.265 Y97.597 E.01985
G1 X116.142 Y97.608 E.0047
G1 X115.774 Y97.753 E.01505
G1 X115.249 Y97.228 E.02824
G1 X114.602 Y97.228 E.02461
G1 X115.451 Y98.078 E.0457
G1 X115.378 Y98.157 E.00409
G1 X115.259 Y98.532 E.01497
G1 X113.955 Y97.228 E.07015
G1 X113.308 Y97.228 E.02461
G1 X115.246 Y99.166 E.10426
G1 X115.246 Y99.813 E.02461
G1 X112.661 Y97.228 E.13906
G1 X112.014 Y97.228 E.02461
G1 X115.247 Y100.461 E.17392
G1 X115.247 Y101.108 E.02461
G1 X112.883 Y98.744 E.12717
G1 X112.875 Y98.55 E.00739
G1 X112.75 Y98.157 E.01569
G1 X112.385 Y97.762 E.02046
G1 X111.812 Y97.591 E.02275
G1 X111.73 Y97.591 E.00312
G1 X111.162 Y97.023 E.03056
M204 P1000
G1 X111.289 Y97.797 F12000
M204 P600
G1 F1200
G1 X110.72 Y97.228 E.03061
G1 X110.073 Y97.228 E.02461
G1 X110.437 Y97.591 E.01955
G1 X109.79 Y97.591 E.02461
G1 X109.426 Y97.228 E.01955
G1 X108.78 Y97.228 E.02457
G1 X109.143 Y97.591 E.01953
G1 X108.496 Y97.591 E.02461
G1 X108.278 Y97.374 E.0117
M204 P1000
G1 E-.64 F2100
;WIPE_START
G1 F9600
G1 X108.496 Y97.591 E-.06392
G1 X108.958 Y97.591 E-.09608
;WIPE_END
G1 Z.4 F720
G1 X112.677 Y99.185 F12000
G1 Z.2 F720
G1 E.8 F1500
M204 P600
G1 F1200
G1 X115.248 Y101.756 E.13831
G1 X115.248 Y102.403 E.02461
M73 P1 R17
G1 X112.883 Y100.037 E.12725
G1 X112.883 Y100.684 E.02461
G1 X115.249 Y103.05 E.12728
G1 X115.249 Y103.698 E.02465
G1 X112.883 Y101.331 E.12731
G1 X112.883 Y101.978 E.02461
G1 X115.249 Y104.345 E.12731
G1 X115.25 Y104.993 E.02465
G1 X112.883 Y102.625 E.12736
G1 X112.883 Y103.272 E.02461
G1 X115.25 Y105.64 E.12736
G1 X115.251 Y106.287 E.02461
G1 X112.883 Y103.919 E.12739
G1 X112.883 Y104.566 E.02461
G1 X115.457 Y107.141 E.1385
M204 P1000
G1 E-.64 F2100
;WIPE_START
G1 F9600
G1 X114.913 Y106.597 E-.16
;WIPE_END
G1 Z.4 F720
G1 X119.427 Y108.523 F12000
G1 Z.2 F720
G1 E.8 F1500
M204 P600
G1 F1200
G1 X119.644 Y108.74 E.01167
G1 X119.644 Y109.091 E.01335
G1 X119.349 Y109.091 E.01122
G1 X118.986 Y108.728 E.01953
G1 X118.339 Y108.728 E.02461
G1 X118.702 Y109.091 E.01953
G1 X118.055 Y109.091 E.02461
G1 X117.692 Y108.728 E.01953
G1 X117.045 Y108.728 E.02461
G1 X117.408 Y109.091 E.01953
G1 X116.761 Y109.091 E.02461
G1 X116.398 Y108.728 E.01953
G1 X116.316 Y108.728 E.00312
G1 X115.743 Y108.558 E.02274
G1 X115.378 Y108.163 E.02046
G1 X115.252 Y107.765 E.01588
G1 X115.252 Y107.582 E.00696
G1 X112.883 Y105.213 E.12744
G1 X112.883 Y105.86 E.02461
M73 P2 R17
G1 X116.114 Y109.091 E.17381
G1 X115.467 Y109.091 E.02461
G1 X112.883 Y106.507 E.13901
G1 X112.883 Y107.154 E.02461
G1 X114.82 Y109.091 E.1042
G1 X114.173 Y109.091 E.02461
G1 X112.869 Y107.788 E.07012
G1 X112.75 Y108.163 E.01497
G1 X112.677 Y108.242 E.00409
G1 X113.526 Y109.091 E.04567
G1 X112.879 Y109.091 E.02461
G1 X112.354 Y108.566 E.02824
G1 X111.986 Y108.712 E.01506
G1 X111.863 Y108.722 E.00469
G1 X112.232 Y109.091 E.01985
G1 X111.585 Y109.091 E.02461
G1 X111.222 Y108.728 E.01953
G1 X110.575 Y108.728 E.02461
G1 X110.938 Y109.091 E.01953
G1 X110.291 Y109.091 E.02461
G1 X109.928 Y108.728 E.01953
G1 X109.281 Y108.728 E.02461
G1 X109.644 Y109.091 E.01953
G1 X108.997 Y109.091 E.02461
G1 X108.428 Y108.523 E.03058
M204 P1000
; stop printing object smart-effector-x-carriage-spacer.stl id:0 copy 0
; printing object smart-effector-x-carriage-spacer.stl id:0 copy 1
G1 E-.64 F2100
;WIPE_START
G1 F9600
G1 X108.973 Y109.067 E-.16
;WIPE_END
G1 Z.4 F720
G1 X137.904 Y90.546 F12000
G1 Z.2 F720
G1 E.8 F1500
M204 P600
;TYPE:Perimeter
;WIDTH:0.499999
G1 F1200
G1 X137.646 Y90.623 E.01023
G1 X137.418 Y90.87 E.01278
G1 X137.335 Y91.198 E.01286
G1 X137.335 Y100.14 E.33985
G1 X137.418 Y100.468 E.01286
G1 X137.646 Y100.715 E.01278
G1 X138.02 Y100.826 E.01483
G1 X141.733 Y100.826 E.14112
G1 X141.733 Y101.419 E.02254
G1 X141.733 Y102.012 E.02254
G1 X129.75 Y102.012 E.45543
G1 X129.75 Y100.826 E.04508
G1 X133.463 Y100.826 E.14112
G1 X133.837 Y100.715 E.01483
G1 X134.065 Y100.468 E.01278
G1 X134.149 Y100.14 E.01287
G1 X134.149 Y91.198 E.33985
G1 X134.065 Y90.87 E.01287
G1 X133.837 Y90.623 E.01278
G1 X133.463 Y90.512 E.01483
G1 X129.75 Y90.512 E.14112
G1 X129.75 Y89.326 E.04508
G1 X141.733 Y89.326 E.45543
G1 X141.733 Y90.512 E.04508
G1 X138.02 Y90.512 E.14112
G1 X137.962 Y90.529 E.0023
M204 P1000
G1 X138.02 Y90.969 F12000
M204 P600
;TYPE:External perimeter
G1 F1200
G1 X137.981 Y90.972 E.00149
G1 X137.82 Y91.088 E.00754
G1 X137.792 Y91.198 E.00431
G1 X137.793 Y100.16 E.34061
G1 X137.896 Y100.332 E.00762
G1 X138.02 Y100.369 E.00492
G1 X142.19 Y100.369 E.15849
G1 X142.19 Y101.419 E.03991
G1 X142.19 Y102.469 E.03991
G1 X129.293 Y102.469 E.49017
G1 X129.293 Y100.369 E.07981
G1 X133.463 Y100.369 E.15849
G1 X133.503 Y100.366 E.00152
G1 X133.664 Y100.25 E.00754
G1 X133.692 Y100.14 E.00431
G1 X133.69 Y91.171 E.34088
G1 X133.588 Y91.006 E.00737
G1 X133.463 Y90.969 E.00495
G1 X129.293 Y90.969 E.15849
G1 X129.293 Y88.869 E.07981
G1 X142.19 Y88.869 E.49017
G1 X142.19 Y90.969 E.07981
G1 X138.08 Y90.969 E.15621
M204 P1000
G1 E-.64 F2100
;WIPE_START
G1 F9600
G1 X138.02 Y90.969 E-.01247
G1 X137.981 Y90.972 E-.00813
G1 X137.82 Y91.088 E-.04124
G1 X137.792 Y91.198 E-.02359
G1 X137.792 Y91.557 E-.07457
;WIPE_END
G1 Z.4 F720
G1 X141.377 Y90.306 F12000
G1 Z.2 F720
G1 E.8 F1500
M204 P600
;TYPE:Solid infill
;WIDTH:0.500395
G1 F1200
G1 X140.809 Y89.737 E.03058
G1 X140.162 Y89.737 E.02461
G1 X140.525 Y90.101 E.01955
G1 X139.878 Y90.101 E.02461
G1 X139.515 Y89.737 E.01955
G1 X138.868 Y89.737 E.02461
G1 X139.231 Y90.101 E.01955
G1 X138.584 Y90.101 E.02461
G1 X138.221 Y89.737 E.01955
G1 X137.574 Y89.737 E.02461
G1 X137.943 Y90.107 E.01988
G1 X137.82 Y90.117 E.00469
G1 X137.452 Y90.262 E.01505
G1 X136.927 Y89.737 E.02824
G1 X136.28 Y89.737 E.02461
G1 X137.129 Y90.587 E.0457
G1 X137.056 Y90.666 E.00409
G1 X136.937 Y91.041 E.01497
G1 X135.633 Y89.737 E.07015
G1 X134.986 Y89.737 E.02461
G1 X136.924 Y91.675 E.10426
G1 X136.924 Y92.323 E.02465
G1 X134.339 Y89.737 E.13909
G1 X133.692 Y89.737 E.02461
G1 X136.924 Y92.97 E.17389
G1 X136.925 Y93.617 E.02461
G1 X134.56 Y91.253 E.1272
G1 X134.553 Y91.059 E.00738
M73 P3 R17
G1 X134.428 Y90.666 E.01569
G1 X134.062 Y90.271 E.02048
G1 X133.49 Y90.101 E.0227
G1 X133.408 Y90.101 E.00312
G1 X132.839 Y89.532 E.03061
M204 P1000
G1 X132.967 Y90.306 F12000
M204 P600
G1 F1200
G1 X132.398 Y89.737 E.03061
G1 X131.751 Y89.737 E.02461
G1 X132.114 Y90.101 E.01955
G1 X131.467 Y90.101 E.02461
G1 X131.104 Y89.737 E.01955
G1 X130.457 Y89.737 E.02461
G1 X130.82 Y90.101 E.01955
G1 X130.173 Y90.101 E.02461
G1 X129.956 Y89.883 E.0117
M204 P1000
G1 E-.64 F2100
;WIPE_START
G1 F9600
G1 X130.173 Y90.101 E-.06392
G1 X130.636 Y90.101 E-.09608
;WIPE_END
G1 Z.4 F720
G1 X134.354 Y91.694 F12000
G1 Z.2 F720
G1 E.8 F1500
M204 P600
G1 F1200
G1 X136.925 Y94.265 E.13831
G1 X136.926 Y94.912 E.02461
G1 X134.56 Y92.547 E.12725
G1 X134.56 Y93.194 E.02461
G1 X136.926 Y95.56 E.12728
G1 X136.927 Y96.207 E.02461
G1 X134.56 Y93.841 E.12731
G1 X134.56 Y94.487 E.02457
G1 X136.927 Y96.854 E.12733
G1 X136.927 Y97.502 E.02465
G1 X134.56 Y95.134 E.12736
G1 X134.56 Y95.781 E.02461
G1 X136.928 Y98.149 E.12739
G1 X136.928 Y98.797 E.02465
G1 X134.56 Y96.428 E.12741
G1 X134.56 Y97.075 E.02461
G1 X137.135 Y99.65 E.13852
M204 P1000
G1 E-.64 F2100
;WIPE_START
G1 F9600
G1 X136.591 Y99.106 E-.16
;WIPE_END
G1 Z.4 F720
G1 X141.104 Y101.032 F12000
G1 Z.2 F720
G1 E.8 F1500
M204 P600
G1 F1200
G1 X141.322 Y101.249 E.0117
G1 X141.322 Y101.601 E.01339
G1 X141.026 Y101.601 E.01126
G1 X140.663 Y101.237 E.01955
G1 X140.016 Y101.237 E.02461
G1 X140.379 Y101.601 E.01955
G1 X139.732 Y101.601 E.02461
G1 X139.369 Y101.237 E.01955
G1 X138.722 Y101.237 E.02461
G1 X139.085 Y101.601 E.01955
G1 X138.438 Y101.601 E.02461
G1 X138.075 Y101.237 E.01955
G1 X137.994 Y101.237 E.00308
G1 X137.421 Y101.067 E.02274
G1 X137.056 Y100.672 E.02046
G1 X136.929 Y100.274 E.01589
G1 X136.929 Y100.091 E.00696
G1 X134.56 Y97.722 E.12744
G1 X134.56 Y98.369 E.02461
G1 X137.791 Y101.601 E.17384
G1 X137.144 Y101.601 E.02461
G1 X134.56 Y99.016 E.13903
G1 X134.56 Y99.663 E.02461
G1 X136.497 Y101.601 E.10423
G1 X135.851 Y101.601 E.02457
G1 X134.547 Y100.297 E.07015
G1 X134.428 Y100.672 E.01497
G1 X134.354 Y100.751 E.00412
G1 X135.204 Y101.601 E.04573
G1 X134.557 Y101.601 E.02461
G1 X134.032 Y101.076 E.02824
G1 X133.663 Y101.221 E.01508
G1 X133.54 Y101.231 E.00469
G1 X133.91 Y101.601 E.0199
G1 X133.263 Y101.601 E.02461
G1 X132.9 Y101.237 E.01955
G1 X132.253 Y101.237 E.02461
G1 X132.616 Y101.601 E.01955
G1 X131.969 Y101.601 E.02461
G1 X131.606 Y101.237 E.01955
G1 X130.959 Y101.237 E.02461
G1 X131.322 Y101.601 E.01955
G1 X130.675 Y101.601 E.02461
G1 X130.106 Y101.032 E.03061
M204 P1000
; stop printing object smart-effector-x-carriage-spacer.stl id:0 copy 1
; printing object smart-effector-x-carriage-spacer.stl id:0 copy 2
G1 E-.64 F2100
;WIPE_START
G1 F9600
G1 X130.65 Y101.576 E-.16
;WIPE_END
G1 Z.4 F720
G1 X137.753 Y109.222 F12000
G1 Z.2 F720
G1 E.8 F1500
M204 P600
;TYPE:Perimeter
;WIDTH:0.499999
G1 F1200
G1 X137.495 Y109.299 E.01023
G1 X137.267 Y109.545 E.01275
G1 X137.183 Y109.873 E.01287
G1 X137.183 Y118.816 E.33989
G1 X137.267 Y119.144 E.01287
G1 X137.495 Y119.391 E.01278
G1 X137.869 Y119.502 E.01483
G1 X141.582 Y119.502 E.14112
G1 X141.582 Y120.095 E.02254
G1 X141.582 Y120.688 E.02254
G1 X129.599 Y120.688 E.45543
G1 X129.599 Y119.502 E.04508
G1 X133.312 Y119.502 E.14112
G1 X133.686 Y119.391 E.01483
G1 X133.914 Y119.144 E.01278
G1 X133.997 Y118.816 E.01286
G1 X133.997 Y109.873 E.33989
G1 X133.914 Y109.545 E.01286
G1 X133.686 Y109.299 E.01275
G1 X133.312 Y109.188 E.01483
G1 X129.599 Y109.188 E.14112
G1 X129.599 Y108.002 E.04508
G1 X141.582 Y108.002 E.45543
G1 X141.582 Y109.188 E.04508
G1 X137.869 Y109.188 E.14112
G1 X137.81 Y109.205 E.00233
M204 P1000
G1 X137.869 Y109.645 F12000
M204 P600
;TYPE:External perimeter
G1 F1200
G1 X137.829 Y109.648 E.00152
G1 X137.668 Y109.764 E.00754
G1 X137.64 Y109.873 E.00428
G1 X137.641 Y118.836 E.34065
G1 X137.744 Y119.008 E.00762
G1 X137.869 Y119.045 E.00495
G1 X142.039 Y119.045 E.15849
G1 X142.039 Y120.095 E.03991
G1 X142.039 Y121.145 E.03991
G1 X129.142 Y121.145 E.49017
G1 X129.142 Y119.045 E.07981
G1 X133.312 Y119.045 E.15849
G1 X133.351 Y119.041 E.00149
G1 X133.512 Y118.926 E.00752
G1 X133.54 Y118.816 E.00431
G1 X133.539 Y109.847 E.34088
G1 X133.436 Y109.682 E.00739
M73 P4 R17
G1 X133.312 Y109.645 E.00492
G1 X129.142 Y109.645 E.15849
G1 X129.142 Y107.545 E.07981
G1 X142.039 Y107.545 E.49017
G1 X142.039 Y109.645 E.07981
G1 X137.929 Y109.645 E.15621
M204 P1000
G1 E-.64 F2100
;WIPE_START
G1 F9600
G1 X137.869 Y109.645 E-.01247
G1 X137.829 Y109.648 E-.00834
G1 X137.668 Y109.764 E-.04124
G1 X137.64 Y109.873 E-.02339
G1 X137.64 Y110.232 E-.07456
;WIPE_END
G1 Z.4 F720
G1 X141.226 Y108.982 F12000
G1 Z.2 F720
G1 E.8 F1500
M204 P600
;TYPE:Solid infill
;WIDTH:0.500395
G1 F1200
G1 X140.657 Y108.413 E.03061
G1 X140.01 Y108.413 E.02461
G1 X140.373 Y108.776 E.01953
G1 X139.726 Y108.776 E.02461
G1 X139.363 Y108.413 E.01953
G1 X138.716 Y108.413 E.02461
G1 X139.079 Y108.776 E.01953
G1 X138.432 Y108.776 E.02461
G1 X138.069 Y108.413 E.01953
G1 X137.422 Y108.413 E.02461
G1 X137.791 Y108.782 E.01985
