; generated by PrusaSlicer 2.7.1+linux-x64-GTK3 on 2024-02-28 at 15:14:46 UTC


;
;

;
;

;
;
; 

; external perimeters extrusion width = 0.45mm
; perimeters extrusion width = 0.45mm
; infill extrusion width = 0.45mm
; solid infill extrusion width = 0.45mm
; top infill extrusion width = 0.40mm
; support material extrusion width = 0.37mm
; first layer extrusion width = 0.50mm

M73 P0 R88
M201 X2500 Y2500 Z200 E2500 ; sets maximum accelerations, mm/sec^2
M203 X200 Y200 Z40 E100 ; sets maximum feedrates, mm / sec
M204 P2000 R1200 T2000 ; sets acceleration (P, T) and retract acceleration (R), mm/sec^2
M205 X8.00 Y8.00 Z2.00 E10.00 ; sets the jerk limits, mm/sec
M205 S0 T0 ; sets the minimum extruding and travel feed rate, mm/sec

; printing object smart-effector-lower-duct.stl id:0 copy 0
; stop printing object smart-effector-lower-duct.stl id:0 copy 0

;TYPE:Custom
M17 ; enable steppers
M862.3 P "MK4" ; printer model check
M862.1 P0.4 ; nozzle diameter check
M555 X101.5 Y74.7612 W47 H53.9786

G90 ; use absolute coordinates
M83 ; extruder relative mode

M140 S60 ; set bed temp

M104 S170 ; set extruder temp for bed leveling
M109 R170 ; wait for temp


M84 E ; turn off E motor

G28 ; home all without mesh bed level

G1 X42 Y-4 Z5 F4800

M302 S160 ; lower cold extrusion limit to 160C


G1 E-2 F2400 ; retraction


M84 E ; turn off E motor

G29 P9 X10 Y-4 W32 H4

M106 S100

G0 Z40 F10000

M190 S60 ; wait for bed temp

M107

;
; MBL
;
M84 E ; turn off E motor
G29 P1 ; invalidate mbl & probe print area
G29 P1 X0 Y0 W50 H20 C ; probe near purge place
G29 P3.2 ; interpolate mbl probes
G29 P3.13 ; extrapolate mbl outside probe area
G29 A ; activate mbl

; prepare for purge
M104 S215
G0 X0 Y-4 Z15 F4800 ; move away and ready for the purge
M109 S215

G92 E0
M569 S0 E ; set spreadcycle mode for extruder

;
; Extrude purge line
;
G92 E0 ; reset extruder position
G1 E2 F2400 ; deretraction after the initial one before nozzle cleaning
M73 P0 R87
G0 E7 X15 Z0.2 F500 ; purge
G0 X25 E4 F500 ; purge
G0 X35 E4 F650 ; purge
G0 X45 E4 F800 ; purge
G0 X48 Z0.05 F8000 ; wipe, move close to the bed
G0 X51 Z0.2 F8000 ; wipe, move quickly away from the bed

G92 E0
M221 S100 ; set flow to 100%
G21 ; set units to millimeters
G90 ; use absolute coordinates
M83 ; use relative distances for extrusion
M900 K0.05 ; Filament gcode



M142 S36 ; set heatbreak target temp
M107
;LAYER_CHANGE
;Z:0.2
;HEIGHT:0.2
;BEFORE_LAYER_CHANGE
G92 E0.0
;0.2


G1 E-.8 F2100
G1 Z.2 F720
;AFTER_LAYER_CHANGE
;0.2
; printing object smart-effector-lower-duct.stl id:0 copy 0
G1 X141.39 Y79.01 F12000
G1 Z.2 F720
G1 E.8 F1500
M204 P600
;TYPE:Support material
;WIDTH:0.5
G1 F1200
G1 X141.652 Y79.09 E.01041
G1 X146.25 Y79.09 E.17475
G1 X146.25 Y83.414 E.16434
G1 X146.15 Y83.743 E.01307
G1 X146.15 Y123.429 E1.50832
G1 X147.851 Y125.13 E.09143
G1 X137.577 Y125.13 E.39048
G1 X137.577 Y89.118 E1.36868
G1 X137.122 Y88.663 E.02446
G1 X112.878 Y88.663 E.92143
G1 X112.423 Y89.118 E.02446
G1 X112.423 Y125.13 E1.36868
G1 X102.149 Y125.13 E.39048
G1 X103.85 Y123.429 E.09143
G1 X103.85 Y83.743 E1.50832
G1 X103.75 Y83.414 E.01307
G1 X103.75 Y79.09 E.16434
G1 X128.685 Y79.09 E.94769
G1 X128.926 Y78.99 E.00992
G1 X141.321 Y79.01 E.47109
M204 P1000
G1 E-.64 F2100
;WIPE_START
G1 F9600
G1 X140.551 Y79.009 E-.16
;WIPE_END
G1 Z.4 F720
G1 X146.711 Y124.924 F12000
G1 Z.2 F720
G1 E.8 F1500
M204 P600
G1 F1200
G1 X146.711 Y124.572 E.01338
G1 X146.14 Y124.001 E.03069
G1 X146.14 Y124.718 E.02725
G1 X145.569 Y124.718 E.0217
G1 X145.569 Y79.501 E1.71853
G1 X144.997 Y79.501 E.02174
G1 X144.997 Y124.718 E1.71853
G1 X144.426 Y124.718 E.0217
G1 X144.426 Y79.501 E1.71853
G1 X143.855 Y79.501 E.0217
G1 X143.855 Y124.718 E1.71853
G1 X143.283 Y124.718 E.02174
G1 X143.283 Y79.501 E1.71853
G1 X142.712 Y79.501 E.0217
G1 X142.712 Y124.718 E1.71853
G1 X142.14 Y124.718 E.02174
G1 X142.14 Y79.501 E1.71853
G1 X141.569 Y79.495 E.0217
G1 X141.569 Y124.718 E1.71876
G1 X140.998 Y124.718 E.0217
G1 X140.998 Y79.421 E1.72157
G1 X140.426 Y79.42 E.02174
G1 X140.426 Y124.718 E1.72161
G1 X139.855 Y124.718 E.0217
G1 X139.855 Y79.419 E1.72165
G1 X139.284 Y79.418 E.0217
G1 X139.284 Y124.718 E1.72169
G1 X138.712 Y124.718 E.02174
G1 X138.712 Y79.417 E1.72172
G1 X138.141 Y79.416 E.0217
M73 P1 R87
G1 X138.141 Y124.718 E1.72176
G1 X137.989 Y124.718 E.00578
G1 X137.989 Y88.948 E1.35949
G1 X137.57 Y88.529 E.02252
G1 X137.57 Y79.415 E.34639
G1 X136.998 Y79.414 E.02174
G1 X136.998 Y88.251 E.33586
G1 X136.427 Y88.251 E.0217
G1 X136.427 Y79.413 E.3359
G1 X135.856 Y79.412 E.0217
G1 X135.856 Y88.251 E.33594
G1 X135.284 Y88.251 E.02174
G1 X135.284 Y79.411 E.33598
G1 X134.713 Y79.41 E.0217
G1 X134.713 Y88.251 E.33601
G1 X134.142 Y88.251 E.0217
G1 X134.142 Y79.409 E.33605
G1 X133.57 Y79.408 E.02174
G1 X133.57 Y88.251 E.33609
G1 X132.999 Y88.251 E.0217
G1 X132.999 Y79.407 E.33613
G1 X132.428 Y79.406 E.0217
G1 X132.428 Y88.251 E.33617
G1 X131.856 Y88.251 E.02174
G1 X131.856 Y79.405 E.3362
G1 X131.285 Y79.404 E.0217
G1 X131.285 Y88.251 E.33624
G1 X130.713 Y88.251 E.02174
M73 P1 R86
G1 X130.713 Y79.403 E.33628
G1 X130.142 Y79.402 E.0217
G1 X130.142 Y88.251 E.33632
G1 X129.571 Y88.251 E.0217
G1 X129.571 Y79.401 E.33636
G1 X128.999 Y79.405 E.02174
G1 X128.999 Y88.251 E.3362
G1 X128.428 Y88.251 E.0217
G1 X128.428 Y79.501 E.33256
G1 X127.857 Y79.501 E.0217
G1 X127.857 Y88.251 E.33256
G1 X127.285 Y88.251 E.02174
G1 X127.285 Y79.501 E.33256
G1 X126.714 Y79.501 E.0217
G1 X126.714 Y88.251 E.33256
G1 X126.143 Y88.251 E.0217
G1 X126.143 Y79.501 E.33256
G1 X125.571 Y79.501 E.02174
G1 X125.571 Y88.251 E.33256
G1 X125 Y88.251 E.0217
G1 X125 Y79.501 E.33256
G1 X124.429 Y79.501 E.0217
G1 X124.429 Y88.251 E.33256
G1 X123.857 Y88.251 E.02174
G1 X123.857 Y79.501 E.33256
G1 X123.286 Y79.501 E.0217
G1 X123.286 Y88.251 E.33256
G1 X122.715 Y88.251 E.0217
G1 X122.715 Y79.501 E.33256
G1 X122.143 Y79.501 E.02174
G1 X122.143 Y88.251 E.33256
G1 X121.572 Y88.251 E.0217
G1 X121.572 Y79.501 E.33256
G1 X121.001 Y79.501 E.0217
G1 X121.001 Y88.251 E.33256
G1 X120.429 Y88.251 E.02174
G1 X120.429 Y79.501 E.33256
G1 X119.858 Y79.501 E.0217
G1 X119.858 Y88.251 E.33256
G1 X119.287 Y88.251 E.0217
G1 X119.287 Y79.501 E.33256
G1 X118.715 Y79.501 E.02174
G1 X118.715 Y88.251 E.33256
G1 X118.144 Y88.251 E.0217
G1 X118.144 Y79.501 E.33256
G1 X117.572 Y79.501 E.02174
G1 X117.572 Y88.251 E.33256
G1 X117.001 Y88.251 E.0217
G1 X117.001 Y79.501 E.33256
G1 X116.43 Y79.501 E.0217
G1 X116.43 Y88.251 E.33256
G1 X115.858 Y88.251 E.02174
G1 X115.858 Y79.501 E.33256
G1 X115.287 Y79.501 E.0217
G1 X115.287 Y88.251 E.33256
G1 X114.716 Y88.251 E.0217
G1 X114.716 Y79.501 E.33256
G1 X114.144 Y79.501 E.02174
G1 X114.144 Y88.251 E.33256
G1 X113.573 Y88.251 E.0217
G1 X113.573 Y79.501 E.33256
G1 X113.002 Y79.501 E.0217
G1 X113.002 Y88.251 E.33256
G1 X112.708 Y88.251 E.01117
G1 X112.43 Y88.529 E.01494
G1 X112.43 Y79.501 E.34312
G1 X111.859 Y79.501 E.0217
G1 X111.859 Y124.718 E1.71853
G1 X111.288 Y124.718 E.0217
G1 X111.288 Y79.501 E1.71853
G1 X110.716 Y79.501 E.02174
G1 X110.716 Y124.718 E1.71853
G1 X110.145 Y124.718 E.0217
G1 X110.145 Y79.501 E1.71853
G1 X109.574 Y79.501 E.0217
G1 X109.574 Y124.718 E1.71853
G1 X109.002 Y124.718 E.02174
G1 X109.002 Y79.501 E1.71853
G1 X108.431 Y79.501 E.0217
G1 X108.431 Y124.718 E1.71853
G1 X107.86 Y124.718 E.0217
G1 X107.86 Y79.501 E1.71853
G1 X107.288 Y79.501 E.02174
G1 X107.288 Y124.718 E1.71853
G1 X106.717 Y124.718 E.0217
G1 X106.717 Y79.501 E1.71853
G1 X106.145 Y79.501 E.02174
G1 X106.145 Y124.718 E1.71853
G1 X105.574 Y124.718 E.0217
G1 X105.574 Y79.501 E1.71853
G1 X105.003 Y79.501 E.0217
M73 P2 R86
G1 X105.003 Y124.718 E1.71853
G1 X104.431 Y124.718 E.02174
G1 X104.431 Y79.501 E1.71853
G1 X104.161 Y79.501 E.01026
G1 X104.161 Y83.353 E.1464
G1 X104.261 Y83.682 E.01307
G1 X104.261 Y123.6 E1.51714
G1 X103.86 Y124.001 E.02155
G1 X103.86 Y124.718 E.02725
G1 X103.289 Y124.718 E.0217
G1 X103.289 Y124.281 E.01661
M204 P1000
G1 E-.64 F2100
;WIPE_START
G1 F9600
G1 X103.289 Y124.718 E-.09081
G1 X103.622 Y124.718 E-.06919
;WIPE_END
G1 Z.4 F720
G1 X112.836 Y125.129 F12000
G1 Z.2 F720
G1 E.8 F1500
M204 P600
;TYPE:Support material interface
;WIDTH:0.37
G1 F1200
G1 X112.924 Y125.216 E.00337
G1 X113.67 Y125.216 E.02029
G1 X112.836 Y124.383 E.03206
G1 X112.836 Y123.638 E.02026
G1 X113.676 Y124.478 E.03231
G1 X113.676 Y123.732 E.02029
G1 X112.836 Y122.892 E.03231
G1 X112.836 Y122.147 E.02026
G1 X113.676 Y122.987 E.03231
G1 X113.676 Y122.242 E.02026
G1 X112.836 Y121.402 E.03231
G1 X112.836 Y120.656 E.02029
G1 X113.676 Y121.496 E.03231
G1 X113.676 Y120.751 E.02026
G1 X112.836 Y119.911 E.03231
G1 X112.836 Y119.165 E.02029
G1 X113.676 Y120.005 E.03231
G1 X113.676 Y119.26 E.02026
G1 X112.836 Y118.42 E.03231
G1 X112.836 Y117.675 E.02026
G1 X113.676 Y118.515 E.03231
G1 X113.676 Y117.769 E.02029
G1 X112.836 Y116.929 E.03231
G1 X112.836 Y116.184 E.02026
G1 X113.676 Y117.024 E.03231
G1 X113.676 Y116.278 E.02029
G1 X112.836 Y115.438 E.03231
G1 X112.836 Y114.693 E.02026
G1 X113.676 Y115.533 E.03231
G1 X113.676 Y114.788 E.02026
G1 X112.836 Y113.948 E.03231
G1 X112.836 Y113.202 E.02029
G1 X113.676 Y114.042 E.03231
G1 X113.676 Y113.297 E.02026
G1 X112.836 Y112.457 E.03231
G1 X112.836 Y111.711 E.02029
G1 X113.676 Y112.551 E.03231
G1 X113.676 Y111.806 E.02026
G1 X112.836 Y110.966 E.03231
G1 X112.836 Y110.221 E.02026
G1 X113.676 Y111.061 E.03231
G1 X113.676 Y110.315 E.02029
G1 X112.836 Y109.475 E.03231
G1 X112.836 Y108.73 E.02026
G1 X113.676 Y109.57 E.03231
G1 X113.676 Y108.824 E.02029
G1 X112.836 Y107.984 E.03231
G1 X112.836 Y107.239 E.02026
G1 X113.676 Y108.079 E.03231
G1 X113.676 Y107.334 E.02026
G1 X112.836 Y106.494 E.03231
G1 X112.836 Y105.748 E.02029
G1 X113.676 Y106.588 E.03231
G1 X113.676 Y105.843 E.02026
G1 X112.836 Y105.003 E.03231
G1 X112.836 Y104.257 E.02029
G1 X113.676 Y105.097 E.03231
G1 X113.676 Y104.352 E.02026
G1 X112.836 Y103.512 E.03231
G1 X112.836 Y102.767 E.02026
G1 X113.676 Y103.607 E.03231
G1 X113.676 Y102.861 E.02029
G1 X112.836 Y102.021 E.03231
G1 X112.836 Y101.276 E.02026
G1 X113.676 Y102.116 E.03231
G1 X113.676 Y101.37 E.02029
G1 X112.836 Y100.53 E.03231
G1 X112.836 Y99.785 E.02026
G1 X113.676 Y100.625 E.03231
G1 X113.676 Y99.88 E.02026
G1 X112.836 Y99.039 E.03233
G1 X112.836 Y98.294 E.02026
G1 X113.676 Y99.134 E.03231
G1 X113.676 Y98.389 E.02026
G1 X112.836 Y97.549 E.03231
G1 X112.836 Y96.803 E.02029
G1 X113.676 Y97.643 E.03231
G1 X113.676 Y96.898 E.02026
G1 X112.836 Y96.058 E.03231
G1 X112.836 Y95.312 E.02029
G1 X113.676 Y96.152 E.03231
G1 X113.676 Y95.407 E.02026
G1 X112.836 Y94.567 E.03231
G1 X112.836 Y93.822 E.02026
G1 X113.676 Y94.662 E.03231
G1 X113.676 Y93.916 E.02029
G1 X112.836 Y93.076 E.03231
G1 X112.836 Y92.331 E.02026
G1 X113.676 Y93.171 E.03231
G1 X113.676 Y92.425 E.02029
G1 X112.836 Y91.585 E.03231
G1 X112.836 Y90.84 E.02026
G1 X113.676 Y91.68 E.03231
G1 X113.676 Y90.935 E.02026
G1 X112.836 Y90.095 E.03231
G1 X112.836 Y89.349 E.02029
G1 X113.693 Y90.206 E.03296
G1 X113.983 Y89.916 E.01115
G1 X114.149 Y89.916 E.00451
G1 X113.309 Y89.076 E.03231
G1 X114.054 Y89.076 E.02026
G1 X114.894 Y89.916 E.03231
G1 X115.64 Y89.916 E.02029
G1 X114.8 Y89.076 E.03231
G1 X115.545 Y89.076 E.02026
G1 X116.385 Y89.916 E.03231
G1 X117.13 Y89.916 E.02026
G1 X116.29 Y89.076 E.03231
G1 X117.036 Y89.076 E.02029
G1 X117.876 Y89.916 E.03231
G1 X118.621 Y89.916 E.02026
G1 X117.781 Y89.076 E.03231
G1 X118.527 Y89.076 E.02029
G1 X119.367 Y89.916 E.03231
G1 X120.112 Y89.916 E.02026
G1 X119.272 Y89.076 E.03231
G1 X120.017 Y89.076 E.02026
G1 X120.858 Y89.916 E.03233
G1 X121.603 Y89.916 E.02026
G1 X120.763 Y89.076 E.03231
G1 X121.508 Y89.076 E.02026
G1 X122.348 Y89.916 E.03231
G1 X123.094 Y89.916 E.02029
G1 X122.254 Y89.076 E.03231
G1 X122.999 Y89.076 E.02026
G1 X123.839 Y89.916 E.03231
G1 X124.585 Y89.916 E.02029
G1 X123.744 Y89.076 E.03233
G1 X124.49 Y89.076 E.02029
G1 X125.33 Y89.916 E.03231
G1 X126.075 Y89.916 E.02026
G1 X125.235 Y89.076 E.03231
G1 X125.981 Y89.076 E.02029
G1 X126.821 Y89.916 E.03231
G1 X127.566 Y89.916 E.02026
G1 X126.726 Y89.076 E.03231
G1 X127.472 Y89.076 E.02029
G1 X128.312 Y89.916 E.03231
G1 X129.057 Y89.916 E.02026
G1 X128.217 Y89.076 E.03231
G1 X128.962 Y89.076 E.02026
G1 X129.802 Y89.916 E.03231
G1 X130.548 Y89.916 E.02029
G1 X129.708 Y89.076 E.03231
G1 X130.453 Y89.076 E.02026
G1 X131.293 Y89.916 E.03231
G1 X132.039 Y89.916 E.02029
G1 X131.199 Y89.076 E.03231
G1 X131.944 Y89.076 E.02026
M73 P2 R85
G1 X132.784 Y89.916 E.03231
G1 X133.529 Y89.916 E.02026
G1 X132.689 Y89.076 E.03231
G1 X133.435 Y89.076 E.02029
G1 X134.275 Y89.916 E.03231
G1 X135.02 Y89.916 E.02026
G1 X134.18 Y89.076 E.03231
G1 X134.762 Y89.076 E.01583
M204 P1000
G1 E-.64 F2100
;WIPE_START
G1 F9600
G1 X134.18 Y89.076 E-.12095
G1 X134.313 Y89.209 E-.03905
;WIPE_END
G1 Z.4 F720
G1 X137.164 Y89.66 F12000
G1 Z.2 F720
G1 E.8 F1500
M204 P600
G1 F1200
G1 X137.164 Y89.289 E.01009
G1 X136.951 Y89.076 E.00819
G1 X136.416 Y89.076 E.01455
G1 X137.164 Y89.823 E.02875
G1 X137.164 Y90.569 E.02029
G1 X135.671 Y89.076 E.05742
G1 X134.926 Y89.076 E.02026
G1 X135.766 Y89.916 E.03231
G1 X136.017 Y89.916 E.00683
G1 X136.324 Y90.223 E.01181
G1 X136.324 Y90.474 E.00683
G1 X137.164 Y91.314 E.03231
G1 X137.164 Y92.06 E.02029
G1 X136.324 Y91.22 E.03231
G1 X136.324 Y91.965 E.02026
G1 X137.164 Y92.805 E.03231
G1 X137.164 Y93.55 E.02026
G1 X136.324 Y92.71 E.03231
G1 X136.324 Y93.456 E.02029
G1 X137.164 Y94.296 E.03231
G1 X137.164 Y95.041 E.02026
G1 X136.324 Y94.201 E.03231
G1 X136.324 Y94.947 E.02029
G1 X137.164 Y95.787 E.03231
G1 X137.164 Y96.532 E.02026
G1 X136.324 Y95.692 E.03231
G1 X136.324 Y96.437 E.02026
G1 X137.164 Y97.278 E.03233
G1 X137.164 Y98.023 E.02026
G1 X136.324 Y97.183 E.03231
G1 X136.324 Y97.928 E.02026
G1 X137.164 Y98.768 E.03231
G1 X137.164 Y99.514 E.02029
G1 X136.324 Y98.674 E.03231
G1 X136.324 Y99.419 E.02026
G1 X137.164 Y100.259 E.03231
G1 X137.164 Y101.005 E.02029
G1 X136.324 Y100.164 E.03233
G1 X136.324 Y100.91 E.02029
G1 X137.164 Y101.75 E.03231
G1 X137.164 Y102.495 E.02026
G1 X136.324 Y101.655 E.03231
G1 X136.324 Y102.401 E.02029
G1 X137.164 Y103.241 E.03231
G1 X137.164 Y103.986 E.02026
G1 X136.324 Y103.146 E.03231
G1 X136.324 Y103.892 E.02029
G1 X137.164 Y104.732 E.03231
G1 X137.164 Y105.477 E.02026
G1 X136.324 Y104.637 E.03231
G1 X136.324 Y105.382 E.02026
G1 X137.164 Y106.222 E.03231
G1 X137.164 Y106.968 E.02029
G1 X136.324 Y106.128 E.03231
G1 X136.324 Y106.873 E.02026
G1 X137.164 Y107.713 E.03231
G1 X137.164 Y108.459 E.02029
G1 X136.324 Y107.619 E.03231
G1 X136.324 Y108.364 E.02026
G1 X137.164 Y109.204 E.03231
G1 X137.164 Y109.949 E.02026
G1 X136.324 Y109.109 E.03231
G1 X136.324 Y109.855 E.02029
G1 X137.164 Y110.695 E.03231
G1 X137.164 Y111.44 E.02026
G1 X136.324 Y110.6 E.03231
G1 X136.324 Y111.346 E.02029
G1 X137.164 Y112.186 E.03231
G1 X137.164 Y112.931 E.02026
G1 X136.324 Y112.091 E.03231
G1 X136.324 Y112.836 E.02026
G1 X137.164 Y113.676 E.03231
G1 X137.164 Y114.422 E.02029
G1 X136.324 Y113.582 E.03231
G1 X136.324 Y114.327 E.02026
G1 X137.164 Y115.167 E.03231
G1 X137.164 Y115.913 E.02029
G1 X136.324 Y115.073 E.03231
G1 X136.324 Y115.818 E.02026
G1 X137.164 Y116.658 E.03231
G1 X137.164 Y117.403 E.02026
G1 X136.324 Y116.563 E.03231
G1 X136.324 Y117.309 E.02029
G1 X137.164 Y118.149 E.03231
G1 X137.164 Y118.894 E.02026
G1 X136.324 Y118.054 E.03231
G1 X136.324 Y118.8 E.02029
G1 X137.164 Y119.64 E.03231
G1 X137.164 Y120.385 E.02026
G1 X136.324 Y119.545 E.03231
G1 X136.324 Y120.29 E.02026
G1 X137.164 Y121.13 E.03231
G1 X137.164 Y121.876 E.02029
G1 X136.324 Y121.036 E.03231
G1 X136.324 Y121.781 E.02026
G1 X137.164 Y122.621 E.03231
G1 X137.164 Y123.367 E.02029
G1 X136.324 Y122.527 E.03231
G1 X136.324 Y123.272 E.02026
G1 X137.164 Y124.112 E.03231
G1 X137.164 Y124.857 E.02026
G1 X136.324 Y124.017 E.03231
G1 X136.324 Y124.763 E.02029
G1 X136.777 Y125.216 E.01742
G1 X136.324 Y125.216 E.01232
G1 X136.324 Y124.926 E.00789
M204 P1000
G1 E-.64 F2100
;WIPE_START
G1 F9600
G1 X136.324 Y125.216 E-.06027
G1 X136.777 Y125.216 E-.09414
G1 X136.758 Y125.197 E-.00559
;WIPE_END
G1 Z.4 F720
G1 X114.672 Y126.643 F12000
