; generated by PrusaSlicer 2.7.1+linux-x64-GTK3 on 2024-02-18 at 17:06:23 UTC


;
;

;
;

;
;
; 

; external perimeters extrusion width = 0.45mm
; perimeters extrusion width = 0.45mm
; infill extrusion width = 0.45mm
; solid infill extrusion width = 0.45mm
; top infill extrusion width = 0.40mm
; first layer extrusion width = 0.50mm

M73 P0 R187
M201 X2500 Y2500 Z200 E2500 ; sets maximum accelerations, mm/sec^2
M203 X200 Y200 Z40 E100 ; sets maximum feedrates, mm / sec
M204 P2000 R1200 T2000 ; sets acceleration (P, T) and retract acceleration (R), mm/sec^2
M205 X8.00 Y8.00 Z2.00 E10.00 ; sets the jerk limits, mm/sec
M205 S0 T0 ; sets the minimum extruding and travel feed rate, mm/sec

; printing object smart-effector-x-carriage-carriage.stl id:0 copy 0
; stop printing object smart-effector-x-carriage-carriage.stl id:0 copy 0

;TYPE:Custom
M17 ; enable steppers
M862.3 P "MK4" ; printer model check
M862.1 P0.4 ; nozzle diameter check
M555 X67.5 Y49.5 W115 H107

G90 ; use absolute coordinates
M83 ; extruder relative mode

M140 S60 ; set bed temp

M104 S170 ; set extruder temp for bed leveling
M109 R170 ; wait for temp


M84 E ; turn off E motor

G28 ; home all without mesh bed level

G1 X42 Y-4 Z5 F4800

M302 S160 ; lower cold extrusion limit to 160C


G1 E-2 F2400 ; retraction


M84 E ; turn off E motor

G29 P9 X10 Y-4 W32 H4

M106 S100

G0 Z40 F10000

M190 S60 ; wait for bed temp

M107

;
; MBL
;
M84 E ; turn off E motor
G29 P1 ; invalidate mbl & probe print area
G29 P1 X0 Y0 W50 H20 C ; probe near purge place
G29 P3.2 ; interpolate mbl probes
G29 P3.13 ; extrapolate mbl outside probe area
G29 A ; activate mbl

; prepare for purge
M104 S215
G0 X0 Y-4 Z15 F4800 ; move away and ready for the purge
M109 S215

G92 E0
M569 S0 E ; set spreadcycle mode for extruder

;
; Extrude purge line
;
G92 E0 ; reset extruder position
G1 E2 F2400 ; deretraction after the initial one before nozzle cleaning
G0 E7 X15 Z0.2 F500 ; purge
G0 X25 E4 F500 ; purge
G0 X35 E4 F650 ; purge
G0 X45 E4 F800 ; purge
G0 X48 Z0.05 F8000 ; wipe, move close to the bed
G0 X51 Z0.2 F8000 ; wipe, move quickly away from the bed

G92 E0
M221 S100 ; set flow to 100%
G21 ; set units to millimeters
G90 ; use absolute coordinates
M83 ; use relative distances for extrusion
M900 K0.05 ; Filament gcode



M142 S36 ; set heatbreak target temp
M107
;LAYER_CHANGE
;Z:0.2
;HEIGHT:0.2
;BEFORE_LAYER_CHANGE
G92 E0.0
;0.2


G1 E-.8 F2100
G1 Z.2 F720
;AFTER_LAYER_CHANGE
;0.2
; printing object smart-effector-x-carriage-carriage.stl id:0 copy 0
G1 X167.2 Y97.606 F12000
G1 Z.2 F720
G1 E.8 F1500
M204 P600
;TYPE:Perimeter
;WIDTH:0.499999
G1 F1200
G1 X167.061 Y97.628 E.00535
G1 X166.839 Y97.753 E.00968
G1 X166.665 Y97.973 E.01066
G1 X166.593 Y98.279 E.01195
G1 X166.593 Y118.104 E.75347
G1 X166.603 Y118.838 E.0279
G1 X166.725 Y119.126 E.01189
G1 X166.966 Y119.332 E.01205
G1 X167.279 Y119.407 E.01223
G1 X181.593 Y119.407 E.54402
G1 X181.593 Y123.5 E.15556
G1 X181.593 Y127.593 E.15556
G1 X167.279 Y127.593 E.54402
G1 X167.057 Y127.63 E.00855
G1 X166.833 Y127.757 E.00979
G1 X166.659 Y127.984 E.01087
G1 X166.593 Y128.279 E.01149
G1 X166.593 Y155.593 E1.0381
G1 X68.407 Y155.593 E3.73168
G1 X68.407 Y88.876 E2.53566
G1 X102.876 Y54.407 E1.85267
G1 X166.593 Y54.407 E2.42165
G1 X166.593 Y88.721 E1.30415
G1 X166.606 Y88.857 E.00519
M73 P0 R186
G1 X166.729 Y89.132 E.01145
G1 X166.971 Y89.334 E.01198
G1 X167.279 Y89.407 E.01203
G1 X181.593 Y89.407 E.54402
G1 X181.593 Y97.593 E.31112
G1 X167.279 Y97.593 E.54402
G1 X167.259 Y97.596 E.00077
M204 P1000
G1 X167.279 Y98.05 F12000
M204 P600
;TYPE:External perimeter
G1 F1200
G1 X167.117 Y98.117 E.00666
G1 X167.05 Y98.279 E.00666
G1 X167.05 Y118.721 E.77692
G1 X167.115 Y118.881 E.00656
G1 X167.279 Y118.95 E.00676
G1 X182.05 Y118.95 E.56139
G1 X182.05 Y123.5 E.17293
G1 X182.05 Y128.05 E.17293
G1 X167.279 Y128.05 E.56139
G1 X167.115 Y128.119 E.00676
G1 X167.05 Y128.279 E.00656
G1 X167.05 Y156.05 E1.05547
G1 X67.95 Y156.05 E3.76642
G1 X67.95 Y88.686 E2.56025
G1 X102.686 Y53.95 E1.86702
G1 X167.05 Y53.95 E2.44624
G1 X167.05 Y88.721 E1.32152
G1 X167.117 Y88.883 E.00666
G1 X167.279 Y88.95 E.00666
G1 X182.05 Y88.95 E.56139
G1 X182.05 Y98.05 E.34586
G1 X167.339 Y98.05 E.55911
M204 P1000
G1 E-.64 F2100
;WIPE_START
G1 F9600
G1 X167.279 Y98.05 E-.01247
G1 X167.117 Y98.117 E-.03643
G1 X167.05 Y98.279 E-.03643
G1 X167.05 Y98.638 E-.07467
;WIPE_END
G1 Z.4 F720
G1 X147.218 Y120.485 F12000
G1 Z.2 F720
G1 E.8 F1500
M204 P600
;TYPE:Perimeter
G1 F1200
G1 X147.163 Y120.448 E.00252
G1 X146.795 Y120.069 E.02008
G1 X146.508 Y119.625 E.02009
G1 X146.315 Y119.132 E.02012
G1 X146.224 Y118.633 E.01928
G1 X146.231 Y118.122 E.01942
G1 X146.333 Y117.629 E.01913
G1 X146.564 Y117.106 E.02173
G1 X146.88 Y116.66 E.02077
G1 X147.267 Y116.3 E.02009
G1 X147.718 Y116.024 E.0201
G1 X148.214 Y115.843 E.02007
G1 X148.737 Y115.764 E.0201
G1 X149.265 Y115.79 E.02009
G1 X149.777 Y115.92 E.02008
G1 X150.254 Y116.149 E.02011
G1 X150.669 Y116.462 E.01976
G1 X151.089 Y116.959 E.02473
G1 X151.342 Y117.443 E.02076
G1 X151.485 Y117.952 E.02009
G1 X151.525 Y118.479 E.02009
G1 X151.46 Y119.004 E.02011
G1 X151.292 Y119.505 E.02008
G1 X151.028 Y119.963 E.02009
G1 X150.678 Y120.36 E.02011
G1 X150.257 Y120.679 E.02008
G1 X149.781 Y120.909 E.02009
G1 X149.269 Y121.04 E.02009
G1 X149.097 Y121.058 E.00657
G1 X148.535 Y121.044 E.02137
G1 X148.004 Y120.919 E.02073
G1 X147.6 Y120.746 E.0167
G1 X147.268 Y120.519 E.01529
M204 P1000
G1 X147.361 Y120 F12000
M204 P600
;TYPE:External perimeter
G1 F1200
G1 X147.172 Y119.811 E.01016
G1 X146.929 Y119.447 E.01663
G1 X146.763 Y119.042 E.01664
G1 X146.681 Y118.612 E.01664
G1 X146.686 Y118.174 E.01665
G1 X146.779 Y117.74 E.01687
G1 X146.991 Y117.273 E.01949
G1 X147.275 Y116.903 E.01773
G1 X147.606 Y116.617 E.01663
G1 X147.988 Y116.402 E.01666
G1 X148.404 Y116.266 E.01663
G1 X148.839 Y116.216 E.01664
G1 X149.276 Y116.254 E.01667
G1 X149.696 Y116.377 E.01663
G1 X150.083 Y116.58 E.01661
G1 X150.421 Y116.856 E.01658
G1 X150.742 Y117.258 E.01955
G1 X150.945 Y117.685 E.01797
G1 X151.049 Y118.11 E.01663
G1 X151.066 Y118.548 E.01666
G1 X150.997 Y118.98 E.01663
G1 X150.843 Y119.39 E.01665
G1 X150.61 Y119.761 E.01665
G1 X150.309 Y120.079 E.01664
G1 X149.951 Y120.331 E.01664
G1 X149.55 Y120.507 E.01664
G1 X149.086 Y120.601 E.01799
G1 X148.614 Y120.594 E.01794
G1 X148.171 Y120.493 E.01727
G1 X147.848 Y120.362 E.01325
G1 X147.483 Y120.12 E.01664
G1 X147.404 Y120.042 E.00422
M204 P1000
G1 E-.64 F2100
;WIPE_START
G1 F9600
G1 X147.361 Y120 E-.01249
G1 X147.172 Y119.811 E-.05555
G1 X146.929 Y119.447 E-.09095
G1 X146.927 Y119.442 E-.00101
;WIPE_END
G1 Z.4 F720
G1 X142.806 Y126.162 F12000
G1 Z.2 F720
G1 E.8 F1500
M204 P600
;TYPE:Perimeter
G1 F1200
G1 X142.872 Y126.155 E.00252
G1 X143.398 Y126.208 E.02009
G1 X143.903 Y126.364 E.02009
G1 X144.349 Y126.607 E.0193
G1 X144.769 Y126.955 E.02073
G1 X145.099 Y127.368 E.02009
G1 X145.34 Y127.838 E.02007
G1 X145.484 Y128.347 E.0201
G1 X145.524 Y128.874 E.02009
G1 X145.459 Y129.398 E.02007
G1 X145.291 Y129.9 E.02012
G1 X145.027 Y130.358 E.02009
G1 X144.677 Y130.754 E.02009
G1 X144.256 Y131.074 E.0201
G1 X143.78 Y131.304 E.02009
G1 X143.268 Y131.434 E.02008
G1 X142.74 Y131.461 E.02009
G1 X142.217 Y131.383 E.0201
G1 X141.72 Y131.202 E.0201
G1 X141.269 Y130.927 E.02008
G1 X140.881 Y130.568 E.02009
G1 X140.572 Y130.139 E.02009
G1 X140.354 Y129.657 E.02011
G1 X140.225 Y129.018 E.02478
G1 X140.236 Y128.481 E.02041
G1 X140.353 Y127.966 E.02007
G1 X140.57 Y127.484 E.02009
G1 X140.641 Y127.368 E.00517
G1 X140.971 Y126.955 E.02009
G1 X141.376 Y126.615 E.0201
G1 X141.841 Y126.363 E.0201
G1 X142.346 Y126.207 E.02009
G1 X142.746 Y126.168 E.01527
M204 P1000
G1 X142.622 Y126.636 F12000
M204 P600
;TYPE:External perimeter
G1 F1200
G1 X142.838 Y126.611 E.00826
G1 X143.274 Y126.648 E.01663
G1 X143.7 Y126.774 E.01688
G1 X144.145 Y127.017 E.01927
G1 X144.541 Y127.387 E.0206
G1 X144.774 Y127.715 E.01529
G1 X144.944 Y128.079 E.01527
G1 X145.048 Y128.504 E.01663
G1 X145.065 Y128.942 E.01666
G1 X144.995 Y129.374 E.01663
G1 X144.841 Y129.784 E.01665
G1 X144.609 Y130.156 E.01666
G1 X144.308 Y130.474 E.01664
G1 X143.95 Y130.725 E.01662
G1 X143.549 Y130.901 E.01664
G1 X143.121 Y130.994 E.01665
G1 X142.683 Y131.001 E.01665
G1 X142.253 Y130.92 E.01663
G1 X141.847 Y130.756 E.01664
G1 X141.481 Y130.515 E.01666
G1 X141.159 Y130.188 E.01744
G1 X140.928 Y129.841 E.01584
G1 X140.752 Y129.381 E.01872
G1 X140.673 Y128.888 E.01898
G1 X140.699 Y128.459 E.01633
G1 X140.814 Y128.03 E.01688
G1 X141.006 Y127.644 E.01639
G1 X141.352 Y127.228 E.02056
G1 X141.605 Y127.011 E.01267
G1 X141.986 Y126.796 E.01663
G1 X142.403 Y126.661 E.01666
G1 X142.562 Y126.643 E.00608
M204 P1000
G1 E-.64 F2100
;WIPE_START
G1 F9600
G1 X142.622 Y126.636 E-.01255
G1 X142.838 Y126.611 E-.04519
G1 X143.274 Y126.648 E-.09093
G1 X143.326 Y126.663 E-.01133
;WIPE_END
G1 Z.4 F720
G1 X116.08 Y141.798 F12000
G1 Z.2 F720
G1 E.8 F1500
M204 P600
;TYPE:Perimeter
G1 F1200
G1 X116.34 Y141.231 E.02371
G1 X116.75 Y140.667 E.0265
G1 X117.264 Y140.195 E.02652
G1 X117.736 Y139.907 E.02101
G1 X118.101 Y139.74 E.01526
G1 X118.613 Y139.575 E.02044
G1 X119.209 Y139.499 E.02284
G1 X119.906 Y139.538 E.02653
G1 X120.582 Y139.713 E.02654
G1 X121.209 Y140.02 E.02653
G1 X121.763 Y140.444 E.02651
G1 X122.221 Y140.97 E.02651
G1 X122.567 Y141.576 E.02652
G1 X122.742 Y142.098 E.02092
G1 X122.838 Y142.618 E.0201
G1 X122.867 Y143.077 E.01748
G1 X122.78 Y143.78 E.02692
G1 X122.551 Y144.459 E.02723
G1 X122.199 Y145.061 E.0265
G1 X121.735 Y145.582 E.02652
G1 X121.176 Y146 E.02653
G1 X120.546 Y146.3 E.02652
G1 X119.868 Y146.468 E.02655
G1 X119.171 Y146.499 E.02652
G1 X118.482 Y146.391 E.02651
G1 X117.827 Y146.149 E.02654
G1 X117.234 Y145.782 E.0265
G1 X116.738 Y145.317 E.02584
G1 X116.374 Y144.814 E.0236
G1 X116.09 Y144.225 E.02485
G1 X115.967 Y143.82 E.01609
G1 X115.872 Y143.264 E.02144
G1 X115.89 Y142.563 E.02665
G1 X116.049 Y141.866 E.02717
G1 X116.055 Y141.853 E.00054
M204 P1000
G1 X116.446 Y142.161 F12000
M204 P600
;TYPE:External perimeter
G1 F1200
G1 X116.492 Y141.979 E.00713
G1 X116.751 Y141.43 E.02307
G1 X117.114 Y140.943 E.02309
G1 X117.567 Y140.538 E.02309
G1 X118.09 Y140.23 E.02307
G1 X118.664 Y140.033 E.02306
G1 X119.266 Y139.953 E.02308
G1 X119.872 Y139.993 E.02308
G1 X120.458 Y140.153 E.02309
G1 X121 Y140.426 E.02306
G1 X121.478 Y140.801 E.02309
G1 X121.871 Y141.264 E.02308
G1 X122.166 Y141.795 E.02309
G1 X122.349 Y142.374 E.02308
G1 X122.414 Y142.97 E.02279
G1 X122.326 Y143.724 E.02885
G1 X122.122 Y144.302 E.0233
G1 X121.809 Y144.823 E.0231
G1 X121.4 Y145.271 E.02306
G1 X120.909 Y145.629 E.02309
G1 X120.358 Y145.883 E.02306
G1 X119.767 Y146.022 E.02307
G1 X119.16 Y146.042 E.02308
G1 X118.561 Y145.941 E.02309
G1 X117.994 Y145.724 E.02307
G1 X117.482 Y145.398 E.02307
G1 X117.057 Y144.99 E.02239
G1 X116.751 Y144.556 E.02018
G1 X116.512 Y144.047 E.02137
G1 X116.365 Y143.482 E.02219
G1 X116.335 Y143.053 E.01634
G1 X116.352 Y142.531 E.01985
G1 X116.431 Y142.219 E.01223
M204 P1000
G1 E-.64 F2100
;WIPE_START
G1 F9600
G1 X116.446 Y142.161 E-.01245
G1 X116.492 Y141.979 E-.03901
G1 X116.715 Y141.506 E-.10854
;WIPE_END
G1 Z.4 F720
G1 X107.884 Y143.343 F12000
G1 Z.2 F720
G1 E.8 F1500
M204 P600
;TYPE:Perimeter
G1 F1200
G1 X107.872 Y142.719 E.02372
G1 X107.997 Y142.032 E.02654
G1 X108.255 Y141.384 E.02651
G1 X108.637 Y140.8 E.02652
G1 X109.258 Y140.202 E.03277
G1 X109.862 Y139.834 E.02688
G1 X110.519 Y139.599 E.02652
G1 X111.209 Y139.499 E.0265
G1 X111.906 Y139.538 E.02653
G1 X112.513 Y139.694 E.02382
G1 X113.08 Y139.954 E.02371
G1 X113.323 Y140.094 E.01066
G1 X113.763 Y140.444 E.02137
G1 X114.222 Y140.97 E.02653
G1 X114.567 Y141.576 E.0265
G1 X114.786 Y142.239 E.02654
G1 X114.869 Y142.932 E.02653
G1 X114.829 Y143.47 E.0205
G1 X114.786 Y143.761 E.01118
G1 X114.62 Y144.298 E.02136
G1 X114.344 Y144.834 E.02291
G1 X113.872 Y145.447 E.0294
G1 X113.323 Y145.906 E.0272
G1 X112.709 Y146.237 E.02651
G1 X112.04 Y146.439 E.02656
G1 X111.188 Y146.498 E.03246
G1 X110.482 Y146.391 E.02714
G1 X109.827 Y146.149 E.02654
G1 X109.234 Y145.782 E.0265
G1 X108.725 Y145.304 E.02654
G1 X108.321 Y144.736 E.02649
G1 X108.037 Y144.098 E.02654
G1 X107.885 Y143.417 E.02652
G1 X107.885 Y143.403 E.00053
M204 P1000
G1 X108.339 Y143.354 F12000
M204 P600
;TYPE:External perimeter
G1 F1200
G1 X108.333 Y143.326 E.00109
G1 X108.329 Y142.719 E.02307
G1 X108.445 Y142.123 E.02308
G1 X108.676 Y141.562 E.02306
G1 X109.015 Y141.058 E.02309
G1 X109.569 Y140.537 E.0289
G1 X110.09 Y140.23 E.02298
G1 X110.664 Y140.033 E.02306
G1 X111.266 Y139.953 E.02308
G1 X111.872 Y139.993 E.02308
G1 X112.39 Y140.134 E.0204
G1 X112.871 Y140.36 E.0202
G1 X113.281 Y140.645 E.01898
G1 X113.51 Y140.833 E.01126
G1 X113.871 Y141.264 E.02137
G1 X114.166 Y141.795 E.02309
G1 X114.349 Y142.374 E.02308
G1 X114.414 Y142.977 E.02305
G1 X114.349 Y143.626 E.02479
G1 X114.183 Y144.163 E.02136
G1 X113.942 Y144.616 E.0195
G1 X113.522 Y145.153 E.02591
G1 X113.038 Y145.549 E.02377
G1 X112.5 Y145.83 E.02307
G1 X111.917 Y145.999 E.02307
G1 X111.166 Y146.042 E.02859
G1 X110.561 Y145.941 E.02331
G1 X109.994 Y145.724 E.02307
G1 X109.482 Y145.398 E.02307
G1 X109.044 Y144.977 E.02309
G1 X108.698 Y144.478 E.02308
G1 X108.458 Y143.92 E.02309
G1 X108.352 Y143.413 E.01969
M204 P1000
G1 E-.64 F2100
;WIPE_START
G1 F9600
G1 X108.339 Y143.354 E-.01256
G1 X108.333 Y143.326 E-.00595
G1 X108.329 Y142.719 E-.12614
G1 X108.343 Y142.647 E-.01535
;WIPE_END
G1 Z.4 F720
G1 X117.954 Y124.299 F12000
G1 Z.2 F720
G1 E.8 F1500
M204 P600
;TYPE:Perimeter
G1 F1200
G1 X117.721 Y124.699 E.01759
G1 X117.338 Y125.132 E.02197
G1 X116.876 Y125.481 E.02201
G1 X116.355 Y125.731 E.02196
G1 X115.794 Y125.873 E.02199
G1 X115.216 Y125.901 E.02199
G1 X114.644 Y125.814 E.02199
G1 X114.101 Y125.615 E.02198
G1 X113.608 Y125.313 E.02197
G1 X113.184 Y124.919 E.022
G1 X112.848 Y124.449 E.02196
G1 X112.61 Y123.921 E.02201
G1 X112.482 Y123.357 E.02198
G1 X112.469 Y122.779 E.02197
G1 X112.61 Y122.086 E.02688
G1 X112.852 Y121.544 E.02256
G1 X113.192 Y121.073 E.02208
G1 X113.615 Y120.682 E.02189
G1 X114.048 Y120.416 E.01931
G1 X114.536 Y120.223 E.01994
G1 X115.072 Y120.118 E.02076
G1 X115.361 Y120.095 E.01102
G1 X115.936 Y120.152 E.02196
G1 X116.489 Y120.322 E.02199
G1 X116.998 Y120.598 E.02201
G1 X117.429 Y120.954 E.02125
G1 X117.762 Y121.354 E.01978
G1 X118.01 Y121.802 E.01946
G1 X118.198 Y122.358 E.02231
G1 X118.269 Y122.93 E.02191
G1 X118.198 Y123.633 E.02685
G1 X118.179 Y123.73 E.00376
G1 X118.008 Y124.207 E.01926
G1 X117.984 Y124.247 E.00177
M204 P1000
G1 X117.579 Y124.04 F12000
M204 P600
;TYPE:External perimeter
G1 F1200
G1 X117.564 Y124.079 E.00159
G1 X117.303 Y124.497 E.01873
G1 X116.968 Y124.851 E.01852
G1 X116.57 Y125.132 E.01852
G1 X116.118 Y125.33 E.01875
G1 X115.526 Y125.436 E.02286
G1 X115.159 Y125.44 E.01395
G1 X114.647 Y125.338 E.01984
G1 X114.115 Y125.096 E.02221
G1 X113.82 Y124.9 E.01346
G1 X113.474 Y124.557 E.01852
G1 X113.203 Y124.151 E.01855
G1 X113.018 Y123.7 E.01853
G1 X112.926 Y123.149 E.02123
G1 X112.954 Y122.629 E.01979
G1 X113.072 Y122.139 E.01916
G1 X113.295 Y121.694 E.01892
G1 X113.587 Y121.316 E.01815
G1 X113.954 Y120.998 E.01846
G1 X114.379 Y120.758 E.01855
G1 X114.842 Y120.607 E.01851
G1 X115.327 Y120.551 E.01856
G1 X115.813 Y120.592 E.01854
G1 X116.281 Y120.729 E.01853
G1 X116.784 Y121.012 E.02194
G1 X117.122 Y121.299 E.01685
G1 X117.401 Y121.639 E.01672
G1 X117.65 Y122.134 E.02106
G1 X117.77 Y122.537 E.01598
G1 X117.813 Y123.027 E.01869
G1 X117.738 Y123.609 E.0223
G1 X117.599 Y123.983 E.01516
M204 P1000
G1 E-.64 F2100
;WIPE_START
G1 F9600
G1 X117.579 Y124.04 E-.01255
G1 X117.564 Y124.079 E-.00868
G1 X117.303 Y124.497 E-.10241
G1 X117.183 Y124.624 E-.03636
;WIPE_END
G1 Z.4 F720
G1 X125.249 Y114.3 F12000
G1 Z.2 F720
G1 E.8 F1500
M204 P600
;TYPE:Perimeter
G1 F1200
G1 X124.838 Y114.766 E.02362
G1 X124.389 Y115.228 E.02449
G1 X123.918 Y115.666 E.02445
G1 X123.426 Y116.08 E.02444
G1 X122.968 Y116.428 E.02186
G1 X122.382 Y116.833 E.02707
G1 X121.833 Y117.169 E.02446
G1 X121.268 Y117.478 E.02448
G1 X120.689 Y117.758 E.02444
G1 X120.096 Y118.008 E.02446
