; generated by PrusaSlicer 2.7.1+linux-x64-GTK3 on 2024-03-04 at 12:13:28 UTC


;
;

;
;

;
;
; 

; external perimeters extrusion width = 0.45mm
; perimeters extrusion width = 0.45mm
; infill extrusion width = 0.45mm
; solid infill extrusion width = 0.45mm
; top infill extrusion width = 0.40mm
; support material extrusion width = 0.37mm
; first layer extrusion width = 0.50mm

M73 P0 R72
M201 X2500 Y2500 Z200 E2500 ; sets maximum accelerations, mm/sec^2
M203 X200 Y200 Z40 E100 ; sets maximum feedrates, mm / sec
M204 P2000 R1200 T2000 ; sets acceleration (P, T) and retract acceleration (R), mm/sec^2
M205 X8.00 Y8.00 Z2.00 E10.00 ; sets the jerk limits, mm/sec
M205 S0 T0 ; sets the minimum extruding and travel feed rate, mm/sec

; printing object smart-effector-lower-duct.stl id:0 copy 0
; stop printing object smart-effector-lower-duct.stl id:0 copy 0

;TYPE:Custom
M17 ; enable steppers
M862.3 P "MK4" ; printer model check
M862.1 P0.4 ; nozzle diameter check
M555 X103.5 Y80.8468 W43 H45.7744

G90 ; use absolute coordinates
M83 ; extruder relative mode

M140 S60 ; set bed temp

M104 S170 ; set extruder temp for bed leveling
M109 R170 ; wait for temp


M84 E ; turn off E motor

G28 ; home all without mesh bed level

G1 X42 Y-4 Z5 F4800

M302 S160 ; lower cold extrusion limit to 160C


G1 E-2 F2400 ; retraction


M84 E ; turn off E motor

G29 P9 X10 Y-4 W32 H4

M106 S100

G0 Z40 F10000

M190 S60 ; wait for bed temp

M107

;
; MBL
;
M84 E ; turn off E motor
G29 P1 ; invalidate mbl & probe print area
G29 P1 X0 Y0 W50 H20 C ; probe near purge place
G29 P3.2 ; interpolate mbl probes
G29 P3.13 ; extrapolate mbl outside probe area
G29 A ; activate mbl

; prepare for purge
M104 S215
G0 X0 Y-4 Z15 F4800 ; move away and ready for the purge
M109 S215

G92 E0
M569 S0 E ; set spreadcycle mode for extruder

;
; Extrude purge line
;
G92 E0 ; reset extruder position
G1 E2 F2400 ; deretraction after the initial one before nozzle cleaning
G0 E7 X15 Z0.2 F500 ; purge
G0 X25 E4 F500 ; purge
G0 X35 E4 F650 ; purge
G0 X45 E4 F800 ; purge
G0 X48 Z0.05 F8000 ; wipe, move close to the bed
G0 X51 Z0.2 F8000 ; wipe, move quickly away from the bed

G92 E0
M221 S100 ; set flow to 100%
G21 ; set units to millimeters
G90 ; use absolute coordinates
M83 ; use relative distances for extrusion
M900 K0.05 ; Filament gcode



M142 S36 ; set heatbreak target temp
M107
;LAYER_CHANGE
;Z:0.2
;HEIGHT:0.2
;BEFORE_LAYER_CHANGE
G92 E0.0
;0.2


G1 E-.8 F2100
G1 Z.2 F720
;AFTER_LAYER_CHANGE
;0.2
; printing object smart-effector-lower-duct.stl id:0 copy 0
G1 X131.934 Y118.358 F12000
G1 Z.2 F720
M73 P0 R71
G1 E.8 F1500
M204 P600
;TYPE:Support material
;WIDTH:0.5
G1 F1200
G1 X132.249 Y119.117 E.03123
G1 X132.251 Y126.392 E.2765
G1 X116.773 Y126.39 E.58826
G1 X116.515 Y124.497 E.07261
G1 X118.911 Y123.973 E.09322
G1 X120.925 Y123.413 E.07945
G1 X122.919 Y122.751 E.07985
G1 X124.863 Y121.998 E.07923
G1 X126.779 Y121.144 E.07973
G1 X128.641 Y120.204 E.07927
G1 X130.467 Y119.166 E.07983
G1 X131.877 Y118.27 E.06349
G1 X131.896 Y118.3 E.00135
M204 P1000
G1 X131.285 Y126.186 F12000
M204 P600
G1 F1200
G1 X131.285 Y119.133 E.26806
G1 X130.713 Y119.497 E.02577
G1 X130.713 Y125.981 E.24643
G1 X130.142 Y125.981 E.0217
G1 X130.142 Y119.824 E.234
G1 X129.571 Y120.149 E.02497
G1 X129.571 Y125.981 E.22165
G1 X128.999 Y125.981 E.02174
G1 X128.999 Y120.474 E.2093
G1 X128.428 Y120.772 E.02448
G1 X128.428 Y125.981 E.19797
G1 X127.857 Y125.981 E.0217
G1 X127.857 Y121.061 E.18699
G1 X127.285 Y121.35 E.02436
G1 X127.285 Y125.981 E.17601
G1 X126.714 Y125.981 E.0217
G1 X126.714 Y121.624 E.16559
G1 X126.143 Y121.878 E.02375
G1 X126.143 Y125.981 E.15594
G1 X125.571 Y125.981 E.02174
G1 X125.571 Y122.133 E.14625
G1 X125 Y122.386 E.02374
G1 X125 Y125.981 E.13663
G1 X124.429 Y125.981 E.0217
G1 X124.429 Y122.607 E.12823
G1 X123.857 Y122.828 E.02331
G1 X123.857 Y125.981 E.11983
G1 X123.286 Y125.98 E.0217
G1 X123.286 Y123.05 E.11136
G1 X122.715 Y123.252 E.02302
G1 X122.715 Y125.98 E.10368
G1 X122.143 Y125.98 E.02174
G1 X122.143 Y123.442 E.09646
G1 X121.572 Y123.632 E.02287
G1 X121.572 Y125.98 E.08924
G1 X121.001 Y125.98 E.0217
G1 X121.001 Y123.819 E.08213
G1 X120.429 Y123.978 E.02256
G1 X120.429 Y125.98 E.07609
G1 X119.858 Y125.98 E.0217
G1 X119.858 Y124.137 E.07005
G1 X119.287 Y124.296 E.02253
G1 X119.287 Y125.98 E.064
G1 X118.715 Y125.979 E.02174
G1 X118.715 Y124.439 E.05853
G1 X118.144 Y124.568 E.02225
G1 X118.144 Y125.979 E.05363
G1 X117.572 Y125.979 E.02174
G1 X117.572 Y124.698 E.04869
G1 X117.001 Y124.827 E.02225
G1 X117.001 Y126.185 E.05161
M204 P1000
G1 E-.64 F2100
;WIPE_START
G1 F9600
G1 X117.001 Y125.415 E-.16
;WIPE_END
G1 Z.4 F720
G1 X109.337 Y101.427 F12000
G1 Z.2 F720
G1 E.8 F1500
M204 P600
;TYPE:Support material interface
;WIDTH:0.37
G1 F1200
G1 X109.337 Y101.463 E.00098
G1 X109.054 Y101.468 E.0077
G1 X108.252 Y100.666 E.03085
G1 X108.726 Y100.653 E.0129
G1 X109.337 Y101.263 E.02348
G1 X109.337 Y100.636 E.01705
G1 X108.89 Y100.648 E.01216
M204 P1000
G1 E-.64 F2100
;WIPE_START
G1 F9600
G1 X109.337 Y100.636 E-.09293
G1 X109.337 Y100.959 E-.06707
;WIPE_END
G1 Z.4 F720
G1 X109.337 Y98.118 F12000
G1 Z.2 F720
G1 E.8 F1500
M204 P600
G1 F1200
G1 X109.336 Y97.846 E.0074
G1 X108.898 Y97.842 E.01191
G1 X109.337 Y98.281 E.01688
G1 X109.337 Y98.674 E.01069
G1 X108.976 Y98.666 E.00982
G1 X108.148 Y97.838 E.03185
G1 X107.399 Y97.835 E.02037
G1 X108.212 Y98.648 E.03127
G1 X107.449 Y98.63 E.02076
G1 X107.024 Y98.205 E.01635
G1 X107.024 Y98.62 E.01129
G1 X107.286 Y98.626 E.00713
M204 P1000
G1 E-.64 F2100
;WIPE_START
G1 F9600
G1 X107.024 Y98.62 E-.05446
G1 X107.024 Y98.205 E-.08624
G1 X107.09 Y98.271 E-.0193
;WIPE_END
G1 Z.4 F720
G1 X105.74 Y100.128 F12000
G1 Z.2 F720
G1 E.8 F1500
M204 P600
;TYPE:Perimeter
;WIDTH:0.499999
G1 F1200
G1 X105.794 Y100.231 E.00442
G1 X110.923 Y105.361 E.27571
G1 X111.094 Y105.485 E.00803
G1 X111.408 Y105.562 E.01229
G1 X128.503 Y105.562 E.64972
G1 X128.722 Y105.526 E.00844
G1 X128.952 Y105.394 E.01008
G1 X130.454 Y104.083 E.07577
G1 X131.82 Y102.771 E.07198
G1 X133.128 Y101.389 E.07232
G1 X134.378 Y99.935 E.07288
G1 X135.522 Y98.469 E.07067
G1 X136.61 Y96.931 E.0716
G1 X137.648 Y95.306 E.07328
G1 X138.61 Y93.624 E.07364
G1 X139.476 Y91.926 E.07244
G1 X140.246 Y90.22 E.07114
G1 X140.935 Y88.479 E.07116
G1 X141.284 Y87.745 E.03089
G1 X141.621 Y87.265 E.02229
G1 X142.012 Y86.848 E.02173
G1 X142.599 Y86.394 E.0282
G1 X143.103 Y86.12 E.0218
G1 X143.612 Y85.929 E.02066
G1 X144.353 Y85.785 E.02869
G1 X144.761 Y85.76 E.01554
G1 X145.593 Y85.844 E.03178
G1 X145.593 Y85.968 E.00471
G1 X145.593 Y100.329 E.54581
G1 X144.775 Y101.96 E.06935
G1 X143.784 Y103.717 E.07667
G1 X142.708 Y105.424 E.07669
G1 X141.549 Y107.075 E.07667
G1 X140.311 Y108.668 E.07668
G1 X138.995 Y110.198 E.0767
G1 X137.607 Y111.661 E.07665
G1 X136.148 Y113.055 E.07669
G1 X134.623 Y114.375 E.07666
G1 X133.034 Y115.619 E.0767
G1 X131.385 Y116.785 E.07676
G1 X129.684 Y117.866 E.0766
G1 X127.931 Y118.863 E.07665
G1 X126.13 Y119.773 E.07669
G1 X124.287 Y120.594 E.07668
G1 X122.405 Y121.323 E.07671
G1 X120.491 Y121.959 E.07665
G1 X118.545 Y122.5 E.07677
G1 X116.579 Y122.945 E.07661
G1 X114.592 Y123.293 E.07667
G1 X112.591 Y123.543 E.07664
G1 X110.577 Y123.695 E.07676
G1 X108.56 Y123.747 E.07668
G1 X106.294 Y123.695 E.08614
G1 X106.029 Y123.742 E.01023
G1 X105.737 Y123.96 E.01385
G1 X105.638 Y124.247 E.01154
G1 X104.407 Y124.247 E.04679
G1 X104.407 Y97.562 E1.0142
G1 X105.593 Y97.562 E.04508
G1 X105.593 Y99.746 E.08301
G1 X105.603 Y99.865 E.00454
G1 X105.712 Y100.075 E.00899
M204 P1000
G1 X106.05 Y99.509 F12000
M204 P600
;TYPE:External perimeter
G1 F1200
G1 X106.05 Y99.746 E.00901
G1 X106.117 Y99.908 E.00666
G1 X111.247 Y105.038 E.27573
G1 X111.408 Y105.105 E.00663
G1 X128.503 Y105.105 E.64972
G1 X128.652 Y105.049 E.00605
G1 X130.137 Y103.753 E.07491
G1 X131.488 Y102.457 E.07115
G1 X132.781 Y101.091 E.07149
G1 X134.017 Y99.654 E.07204
G1 X135.162 Y98.188 E.0707
G1 X136.237 Y96.667 E.07079
G1 X137.262 Y95.06 E.07244
G1 X138.203 Y93.416 E.07199
G1 X139.059 Y91.738 E.07159
G1 X139.83 Y90.031 E.07119
G1 X140.516 Y88.297 E.07087
G1 X140.888 Y87.514 E.03295
G1 X141.265 Y86.976 E.02497
G1 X141.704 Y86.508 E.02439
G1 X142.349 Y86.009 E.03099
G1 X142.913 Y85.704 E.02437
G1 X143.488 Y85.488 E.02334
G1 X144.266 Y85.336 E.03013
G1 X144.706 Y85.297 E.01679
G1 X145.532 Y85.358 E.03148
G1 X146.05 Y85.486 E.02028
G1 X146.05 Y85.968 E.01832
G1 X146.05 Y100.437 E.54991
G1 X145.179 Y102.175 E.07389
G1 X144.177 Y103.952 E.07753
G1 X143.088 Y105.677 E.07753
G1 X141.917 Y107.347 E.07752
G1 X140.664 Y108.957 E.07754
G1 X139.335 Y110.504 E.07751
G1 X137.931 Y111.984 E.07753
G1 X136.456 Y113.393 E.07753
G1 X134.913 Y114.728 E.07755
G1 X133.307 Y115.986 E.07753
G1 X131.639 Y117.165 E.07763
G1 X129.92 Y118.258 E.07742
G1 X128.147 Y119.266 E.07751
G1 X126.326 Y120.186 E.07754
G1 X124.462 Y121.016 E.07755
G1 X122.56 Y121.753 E.07753
G1 X120.624 Y122.396 E.07753
G1 X118.657 Y122.944 E.07761
G1 X116.669 Y123.393 E.07746
G1 X114.66 Y123.745 E.07752
G1 X112.636 Y123.998 E.07752
G1 X110.6 Y124.151 E.0776
G1 X108.561 Y124.204 E.07752
G1 X106.284 Y124.152 E.08656
G1 X106.098 Y124.24 E.00782
G1 X106.05 Y124.38 E.00562
G1 X106.05 Y124.705 E.01235
G1 X103.95 Y124.705 E.07981
G1 X103.95 Y97.105 E1.04897
G1 X106.05 Y97.105 E.07981
G1 X106.05 Y99.449 E.08909
M204 P1000
G1 E-.64 F2100
;WIPE_START
G1 F9600
G1 X106.05 Y99.509 E-.01247
G1 X106.05 Y99.746 E-.04925
G1 X106.117 Y99.908 E-.03643
G1 X106.327 Y100.118 E-.06185
;WIPE_END
G1 Z.4 F720
G1 X144.429 Y85.98 F12000
G1 Z.2 F720
G1 E.8 F1500
M204 P600
;TYPE:Solid infill
;WIDTH:0.500184
G1 F1200
G1 X145.182 Y86.733 E.04049
G1 X145.182 Y87.379 E.02456
G1 X144.063 Y86.261 E.06014
G1 X143.725 Y86.327 E.01309
G1 X143.548 Y86.393 E.00718
G1 X145.182 Y88.026 E.08783
G1 X145.182 Y88.673 E.0246
G1 X143.099 Y86.59 E.112
G1 X142.825 Y86.739 E.01186
G1 X142.699 Y86.837 E.00607
G1 X145.182 Y89.319 E.13349
G1 X145.182 Y89.966 E.0246
G1 X142.334 Y87.119 E.15311
G1 X142.015 Y87.446 E.01737
G1 X145.182 Y90.613 E.17029
G1 X145.182 Y91.259 E.02456
G1 X141.738 Y87.815 E.18519
G1 X141.641 Y87.953 E.00641
G1 X141.508 Y88.232 E.01175
G1 X145.182 Y91.906 E.19755
G1 X145.182 Y92.553 E.0246
G1 X141.301 Y88.672 E.20868
G1 X141.118 Y89.135 E.01893
G1 X145.182 Y93.199 E.21852
G1 X145.182 Y93.846 E.0246
G1 X140.934 Y89.599 E.22839
G1 X140.751 Y90.062 E.01893
G1 X145.182 Y94.493 E.23826
G1 X145.182 Y95.139 E.02456
G1 X140.562 Y90.52 E.24839
G1 X140.361 Y90.965 E.01857
G1 X145.182 Y95.786 E.25923
G1 X145.182 Y96.433 E.0246
G1 X140.16 Y91.411 E.27004
G1 X139.959 Y91.856 E.01857
G1 X145.182 Y97.079 E.28084
G1 X145.182 Y97.726 E.0246
G1 X139.75 Y92.294 E.29208
G1 X139.531 Y92.722 E.01828
G1 X145.182 Y98.373 E.30386
G1 X145.182 Y99.019 E.02456
G1 X139.313 Y93.15 E.31558
G1 X139.094 Y93.578 E.01828
G1 X145.182 Y99.666 E.32736
G1 X145.182 Y100.231 E.02148
G1 X145.154 Y100.285 E.00231
G1 X138.869 Y94.001 E.33792
G1 X138.634 Y94.412 E.018
G1 X144.938 Y100.716 E.33897
G1 X144.723 Y101.147 E.01831
G1 X138.398 Y94.823 E.34007
G1 X138.163 Y95.234 E.018
G1 X144.507 Y101.578 E.34112
G1 X144.281 Y101.999 E.01817
M73 P1 R71
G1 X137.923 Y95.64 E.3419
G1 X137.671 Y96.035 E.01781
G1 X144.048 Y102.412 E.3429
G1 X143.815 Y102.826 E.01806
G1 X137.419 Y96.43 E.34392
G1 X137.167 Y96.825 E.01781
G1 X143.581 Y103.239 E.34489
G1 X143.342 Y103.647 E.01798
G1 X136.912 Y97.217 E.34575
G1 X136.644 Y97.595 E.01762
G1 X143.092 Y104.043 E.34671
G1 X142.842 Y104.44 E.01784
G1 X136.377 Y97.974 E.34765
G1 X136.109 Y98.353 E.01765
G1 X142.592 Y104.836 E.3486
G1 X142.34 Y105.231 E.01781
G1 X135.839 Y98.73 E.34956
G1 X135.556 Y99.093 E.0175
G1 X142.074 Y105.611 E.35048
G1 X141.807 Y105.991 E.01766
G1 X135.272 Y99.456 E.35139
G1 X134.989 Y99.82 E.01753
G1 X141.54 Y106.371 E.35225
G1 X141.274 Y106.751 E.01764
G1 X134.705 Y100.183 E.35319
G1 X134.408 Y100.532 E.01742
G1 X140.994 Y107.119 E.35416
G1 X140.711 Y107.482 E.0175
G1 X134.109 Y100.88 E.35499
G1 X133.81 Y101.228 E.01744
G1 X140.428 Y107.846 E.35585
G1 X140.146 Y108.21 E.01751
G1 X133.511 Y101.575 E.35677
G1 X133.2 Y101.911 E.01741
G1 X139.855 Y108.566 E.35784
G1 X139.556 Y108.914 E.01744
G1 X132.886 Y102.243 E.35868
G1 X132.571 Y102.576 E.01743
G1 X139.257 Y109.262 E.35951
G1 X138.959 Y109.61 E.01742
G1 X132.257 Y102.908 E.36037
G1 X131.934 Y103.232 E.01739
G1 X138.658 Y109.956 E.36155
G1 X138.343 Y110.288 E.0174
G1 X131.604 Y103.548 E.36239
G1 X131.274 Y103.865 E.0174
G1 X138.028 Y110.619 E.36317
G1 X137.713 Y110.951 E.0174
G1 X130.944 Y104.182 E.36397
G1 X130.61 Y104.494 E.01738
G1 X137.399 Y111.283 E.36505
G1 X137.315 Y111.371 E.00463
G1 X137.072 Y111.603 E.01277
G1 X130.264 Y104.795 E.36607
G1 X129.919 Y105.097 E.01743
G1 X136.741 Y111.919 E.36682
G1 X136.411 Y112.235 E.01737
G1 X129.573 Y105.398 E.36766
G1 X129.228 Y105.699 E.01741
G1 X136.08 Y112.551 E.36844
G1 X135.743 Y112.861 E.01741
G1 X128.81 Y105.927 E.37282
G1 X128.703 Y105.955 E.00421
G1 X128.511 Y105.973 E.00733
G1 X128.208 Y105.973 E.01152
G1 X135.397 Y113.161 E.38653
G1 X135.05 Y113.461 E.01744
G1 X127.562 Y105.973 E.40264
G1 X126.915 Y105.973 E.0246
G1 X134.703 Y113.761 E.41877
G1 X134.357 Y114.061 E.01741
G1 X126.268 Y105.973 E.43492
G1 X125.622 Y105.973 E.02456
G1 X133.994 Y114.345 E.45017
G1 X133.631 Y114.629 E.01752
G1 X124.975 Y105.973 E.46544
G1 X124.328 Y105.973 E.0246
G1 X133.269 Y114.913 E.48074
G1 X132.906 Y115.197 E.01752
G1 X123.682 Y105.973 E.49598
G1 X123.035 Y105.973 E.0246
G1 X132.532 Y115.47 E.51066
G1 X132.153 Y115.738 E.01765
G1 X122.388 Y105.973 E.52507
G1 X121.742 Y105.973 E.02456
G1 X131.775 Y116.006 E.53948
G1 X131.396 Y116.274 E.01765
G1 X121.095 Y105.973 E.55389
G1 X120.448 Y105.973 E.0246
G1 X131.011 Y116.535 E.56795
G1 X130.615 Y116.787 E.01785
G1 X119.802 Y105.973 E.58145
G1 X119.155 Y105.973 E.0246
G1 X130.22 Y117.038 E.59497
G1 X129.825 Y117.289 E.01779
M73 P1 R70
G1 X118.508 Y105.973 E.6085
G1 X117.862 Y105.973 E.02456
G1 X129.427 Y117.539 E.62189
G1 X129.015 Y117.773 E.01802
G1 X117.215 Y105.973 E.63449
G1 X116.568 Y105.973 E.0246
G1 X128.603 Y118.007 E.6471
G1 X128.191 Y118.242 E.01803
G1 X115.922 Y105.973 E.65971
G1 X115.275 Y105.973 E.0246
G1 X127.778 Y118.476 E.6723
G1 X127.351 Y118.695 E.01825
G1 X114.628 Y105.973 E.6841
G1 X113.982 Y105.973 E.02456
G1 X126.921 Y118.912 E.69574
G1 X126.492 Y119.129 E.01828
G1 X113.335 Y105.973 E.70743
G1 X112.688 Y105.973 E.0246
G1 X126.062 Y119.347 E.71913
G1 X125.619 Y119.55 E.01853
G1 X111.836 Y105.767 E.74112
M204 P1000
G1 E-.64 F2100
;WIPE_START
G1 F9600
G1 X112.38 Y106.311 E-.16
;WIPE_END
G1 Z.4 F720
G1 X105.387 Y98.672 F12000
G1 Z.2 F720
G1 E.8 F1500
M204 P600
G1 F1200
G1 X104.818 Y98.103 E.0306
G1 X104.818 Y98.75 E.0246
G1 X105.387 Y99.318 E.03057
M204 P1000
G1 X104.613 Y99.191 F12000
M204 P600
G1 F1200
G1 X105.182 Y99.76 E.0306
G1 X105.199 Y99.956 E.00748
G1 X105.483 Y100.502 E.0234
G1 X110.638 Y105.657 E.27719
G1 X110.766 Y105.766 E.00639
G1 X110.905 Y105.851 E.00619
G1 X111.042 Y105.91 E.00567
G1 X111.178 Y105.949 E.00538
G1 X111.395 Y105.973 E.0083
G1 X125.172 Y119.749 E.74077
G1 X124.724 Y119.949 E.01865
G1 X104.818 Y100.043 E1.07036
G1 X104.818 Y100.69 E.0246
G1 X124.277 Y120.148 E1.0463
G1 X123.817 Y120.335 E.01888
G1 X104.818 Y101.336 E1.02159
G1 X104.818 Y101.983 E.0246
G1 X123.351 Y120.515 E.99651
G1 X122.885 Y120.696 E.01901
M73 P2 R70
G1 X104.818 Y102.63 E.97145
G1 X104.818 Y103.276 E.02456
G1 X122.419 Y120.877 E.94642
G1 X121.94 Y121.044 E.01929
G1 X104.818 Y103.923 E.92064
G1 X104.818 Y104.57 E.0246
G1 X121.454 Y121.205 E.8945
G1 X120.969 Y121.367 E.01944
G1 X104.818 Y105.216 E.86845
G1 X104.818 Y105.863 E.0246
G1 X120.483 Y121.528 E.84232
G1 X119.982 Y121.673 E.01983
G1 X104.818 Y106.51 E.81535
G1 X104.818 Y107.156 E.02456
G1 X119.476 Y121.814 E.78817
G1 X118.97 Y121.955 E.01997
G1 X104.818 Y107.803 E.76096
G1 X104.818 Y108.45 E.0246
G1 X118.465 Y122.096 E.73378
G1 X117.938 Y122.216 E.02055
G1 X104.818 Y109.096 E.70547
G1 X104.818 Y109.743 E.0246
G1 X117.411 Y122.335 E.67711
G1 X116.883 Y122.455 E.02059
G1 X104.818 Y110.39 E.64874
