; generated by PrusaSlicer 2.7.2+linux-x64-GTK3 on 2024-05-10 at 11:11:04 UTC


;
;

;
;

;
;
; 

; external perimeters extrusion width = 0.45mm
; perimeters extrusion width = 0.45mm
; infill extrusion width = 0.45mm
; solid infill extrusion width = 0.45mm
; top infill extrusion width = 0.40mm
; first layer extrusion width = 0.50mm

M73 P0 R52
M201 X2500 Y2500 Z200 E2500 ; sets maximum accelerations, mm/sec^2
M203 X200 Y200 Z40 E100 ; sets maximum feedrates, mm / sec
M204 P2000 R1200 T2000 ; sets acceleration (P, T) and retract acceleration (R), mm/sec^2
M205 X8.00 Y8.00 Z2.00 E10.00 ; sets the jerk limits, mm/sec
M205 S0 T0 ; sets the minimum extruding and travel feed rate, mm/sec

; printing object switch-probe-x-carriage-lever.stl id:0 copy 0
; stop printing object switch-probe-x-carriage-lever.stl id:0 copy 0

;TYPE:Custom
M17 ; enable steppers
M862.3 P "MK4" ; printer model check
M862.1 P0.4 ; nozzle diameter check
M555 X83.5 Y86 W83 H34

G90 ; use absolute coordinates
M83 ; extruder relative mode

M140 S60 ; set bed temp

M104 S170 ; set extruder temp for bed leveling
M109 R170 ; wait for temp


M84 E ; turn off E motor

G28 ; home all without mesh bed level

G1 X42 Y-4 Z5 F4800

M302 S160 ; lower cold extrusion limit to 160C


G1 E-2 F2400 ; retraction


M84 E ; turn off E motor

G29 P9 X10 Y-4 W32 H4

M106 S100

G0 Z40 F10000

M190 S60 ; wait for bed temp

M107

;
; MBL
;
M84 E ; turn off E motor
G29 P1 ; invalidate mbl & probe print area
G29 P1 X0 Y0 W50 H20 C ; probe near purge place
G29 P3.2 ; interpolate mbl probes
G29 P3.13 ; extrapolate mbl outside probe area
G29 A ; activate mbl

; prepare for purge
M104 S215
G0 X0 Y-4 Z15 F4800 ; move away and ready for the purge
M109 S215

G92 E0
M569 S0 E ; set spreadcycle mode for extruder

;
; Extrude purge line
;
G92 E0 ; reset extruder position
G1 E2 F2400 ; deretraction after the initial one before nozzle cleaning
G0 E7 X15 Z0.2 F500 ; purge
G0 X25 E4 F500 ; purge
G0 X35 E4 F650 ; purge
M73 P0 R51
G0 X45 E4 F800 ; purge
G0 X48 Z0.05 F8000 ; wipe, move close to the bed
G0 X51 Z0.2 F8000 ; wipe, move quickly away from the bed

G92 E0
M221 S100 ; set flow to 100%
G21 ; set units to millimeters
G90 ; use absolute coordinates
M83 ; use relative distances for extrusion
M900 K0.05 ; Filament gcode



M142 S36 ; set heatbreak target temp
M107
;LAYER_CHANGE
;Z:0.2
;HEIGHT:0.2
G1 E-.8 F2100
; printing object switch-probe-x-carriage-lever.stl id:0 copy 0
G1 Z.4 F720
G1 X147.407 Y119.093 F12000
G1 Z.2 F720
G1 E.8 F1500
M204 P600
;TYPE:Perimeter
;WIDTH:0.499999
G1 F1200
G1 X147.407 Y90.907 E1.07124
G1 X165.593 Y90.907 E.69118
G1 X165.593 Y95.355 E.16905
G1 X165.593 Y119.093 E.90219
G1 X147.467 Y119.093 E.6889
M204 P1000
G1 X146.95 Y119.55 F12000
M204 P600
;TYPE:External perimeter
G1 F1200
G1 X146.95 Y90.45 E1.10598
G1 X166.05 Y90.45 E.72592
G1 X166.05 Y95.355 E.18642
G1 X166.05 Y119.55 E.91956
G1 X147.01 Y119.55 E.72364
M204 P1000
G1 E-.64 F2100
;WIPE_START
G1 F9600
G1 X146.95 Y119.55 E-.01247
G1 X146.95 Y118.84 E-.14753
;WIPE_END
G1 Z.4 F720
G1 X159.474 Y101.146 F12000
G1 Z.2 F720
G1 E.8 F1500
M204 P600
;TYPE:Perimeter
G1 F1200
G1 X159.496 Y101.081 E.00261
G1 X159.752 Y100.664 E.0186
G1 X160.121 Y100.286 E.02008
G1 X160.531 Y100.019 E.0186
G1 X161.043 Y99.841 E.0206
G1 X161.513 Y99.795 E.01795
G1 X161.95 Y99.841 E.0167
G1 X162.369 Y99.973 E.0167
G1 X162.753 Y100.186 E.01669
G1 X163.088 Y100.47 E.01669
G1 X163.359 Y100.815 E.01667
G1 X163.557 Y101.207 E.01669
G1 X163.674 Y101.63 E.01668
G1 X163.704 Y102.068 E.01669
G1 X163.647 Y102.504 E.01671
G1 X163.478 Y102.963 E.01859
G1 X163.191 Y103.407 E.02009
G1 X162.842 Y103.75 E.0186
G1 X162.344 Y104.037 E.02185
G1 X161.91 Y104.166 E.01721
G1 X161.475 Y104.204 E.0166
G1 X161.04 Y104.156 E.01663
G1 X160.622 Y104.022 E.01668
G1 X160.239 Y103.808 E.01667
G1 X159.906 Y103.522 E.01668
G1 X159.636 Y103.176 E.01668
G1 X159.439 Y102.782 E.01674
G1 X159.326 Y102.37 E.01624
G1 X159.298 Y101.914 E.01736
G1 X159.353 Y101.496 E.01602
G1 X159.454 Y101.203 E.01178
M204 P1000
G1 X159.454 Y101.203 F12000
G1 X159.89 Y101.321
M204 P600
;TYPE:External perimeter
G1 F1200
G1 X159.897 Y101.3 E.00084
G1 X160.079 Y100.983 E.01389
G1 X160.448 Y100.605 E.02008
G1 X160.801 Y100.396 E.01559
G1 X161.133 Y100.29 E.01325
G1 X161.479 Y100.251 E.01323
G1 X161.826 Y100.281 E.01324
G1 X162.16 Y100.38 E.01324
G1 X162.468 Y100.543 E.01324
G1 X162.738 Y100.764 E.01326
G1 X162.958 Y101.034 E.01324
G1 X163.121 Y101.342 E.01324
G1 X163.219 Y101.676 E.01323
G1 X163.249 Y102.023 E.01324
G1 X163.21 Y102.369 E.01323
G1 X163.094 Y102.715 E.01387
G1 X162.807 Y103.159 E.02009
G1 X162.503 Y103.433 E.01555
G1 X162.199 Y103.604 E.01326
G1 X161.853 Y103.712 E.01378
G1 X161.509 Y103.748 E.01315
G1 X161.164 Y103.716 E.01317
G1 X160.831 Y103.615 E.01323
G1 X160.524 Y103.451 E.01323
G1 X160.256 Y103.228 E.01325
G1 X160.037 Y102.957 E.01324
G1 X159.876 Y102.647 E.01328
G1 X159.781 Y102.324 E.0128
G1 X159.753 Y101.959 E.01391
G1 X159.79 Y101.631 E.01255
G1 X159.872 Y101.378 E.01011
M204 P1000
G1 E-.64 F2100
;WIPE_START
G1 F9600
G1 X159.89 Y101.321 E-.01242
G1 X159.897 Y101.3 E-.0046
G1 X160.079 Y100.983 E-.07596
G1 X160.304 Y100.752 E-.06702
;WIPE_END
G1 Z.4 F720
G1 X159.125 Y108.471 F12000
G1 Z.2 F720
G1 E.8 F1500
M204 P600
;TYPE:Perimeter
G1 F1200
G1 X158.813 Y108.774 E.01653
G1 X158.344 Y109.037 E.02044
G1 X157.84 Y109.174 E.01985
G1 X157.391 Y109.198 E.01709
G1 X156.938 Y109.127 E.01743
G1 X156.587 Y109.002 E.01416
G1 X156.136 Y108.726 E.0201
G1 X155.784 Y108.385 E.01863
G1 X155.485 Y107.895 E.02182
G1 X155.347 Y107.478 E.01669
G1 X155.302 Y107.178 E.01153
G1 X155.331 Y106.604 E.02184
G1 X155.452 Y106.182 E.01668
G1 X155.655 Y105.793 E.01668
G1 X155.931 Y105.451 E.0167
G1 X156.269 Y105.171 E.01668
G1 X156.673 Y104.957 E.01738
G1 X157.09 Y104.834 E.01652
G1 X157.525 Y104.796 E.0166
G1 X157.96 Y104.844 E.01663
G1 X158.378 Y104.978 E.01668
G1 X158.761 Y105.192 E.01667
G1 X159.094 Y105.478 E.01668
G1 X159.364 Y105.824 E.01668
G1 X159.561 Y106.218 E.01674
G1 X159.675 Y106.644 E.01676
G1 X159.704 Y107.068 E.01615
G1 X159.618 Y107.595 E.02029
G1 X159.478 Y107.963 E.01496
G1 X159.191 Y108.407 E.02009
G1 X159.168 Y108.429 E.00121
M204 P1000
G1 X159.168 Y108.429 F12000
G1 X158.898 Y108.019
M204 P600
;TYPE:External perimeter
G1 F1200
G1 X158.807 Y108.159 E.00635
G1 X158.437 Y108.471 E.01839
G1 X158.125 Y108.628 E.01327
G1 X157.783 Y108.721 E.01347
G1 X157.425 Y108.742 E.01363
G1 X157.062 Y108.687 E.01395
G1 X156.825 Y108.612 E.00945
G1 X156.374 Y108.336 E.0201
G1 X156.092 Y108.038 E.01559
G1 X155.914 Y107.738 E.01326
G1 X155.799 Y107.41 E.01321
G1 X155.754 Y107.11 E.01153
G1 X155.774 Y106.717 E.01496
G1 X155.864 Y106.38 E.01326
G1 X156.019 Y106.069 E.01321
G1 X156.233 Y105.794 E.01324
G1 X156.497 Y105.567 E.01323
G1 X156.818 Y105.391 E.01391
G1 X157.147 Y105.288 E.0131
G1 X157.491 Y105.252 E.01315
G1 X157.836 Y105.284 E.01317
G1 X158.169 Y105.385 E.01323
G1 X158.476 Y105.549 E.01323
G1 X158.744 Y105.772 E.01325
G1 X158.963 Y106.043 E.01324
G1 X159.124 Y106.353 E.01328
G1 X159.22 Y106.69 E.01332
G1 X159.249 Y107.023 E.0127
G1 X159.182 Y107.46 E.0168
G1 X159.094 Y107.715 E.01025
G1 X158.93 Y107.969 E.01149
M204 P1000
G1 E-.64 F2100
;WIPE_START
G1 F9600
G1 X158.898 Y108.019 E-.01234
G1 X158.807 Y108.159 E-.0347
G1 X158.437 Y108.471 E-.10058
G1 X158.384 Y108.498 E-.01238
;WIPE_END
G1 Z.4 F720
G1 X159.518 Y112.054 F12000
G1 Z.2 F720
G1 E.8 F1500
M204 P600
;TYPE:Perimeter
G1 F1200
G1 X159.536 Y112.007 E.00191
G1 X159.768 Y111.643 E.01641
G1 X160.069 Y111.328 E.01656
G1 X160.408 Y111.09 E.01574
G1 X160.895 Y110.885 E.02008
G1 X161.449 Y110.793 E.02134
G1 X161.95 Y110.841 E.01913
G1 X162.369 Y110.973 E.0167
G1 X162.753 Y111.186 E.01669
G1 X163.088 Y111.47 E.01669
G1 X163.359 Y111.815 E.01667
G1 X163.557 Y112.207 E.01669
G1 X163.674 Y112.63 E.01668
G1 X163.704 Y113.068 E.01669
G1 X163.647 Y113.504 E.01671
G1 X163.504 Y113.919 E.01668
G1 X163.282 Y114.298 E.01669
G1 X162.99 Y114.625 E.01666
G1 X162.575 Y114.917 E.01929
G1 X162.105 Y115.115 E.01938
G1 X161.538 Y115.207 E.02183
G1 X161.05 Y115.159 E.01864
G1 X160.631 Y115.027 E.0167
G1 X160.247 Y114.814 E.01669
G1 X159.912 Y114.53 E.01669
G1 X159.641 Y114.185 E.01667
G1 X159.443 Y113.793 E.01669
G1 X159.326 Y113.37 E.01668
G1 X159.308 Y112.815 E.0211
G1 X159.382 Y112.405 E.01583
G1 X159.496 Y112.11 E.01202
M204 P1000
G1 X159.909 Y112.301 F12000
M204 P600
;TYPE:External perimeter
G1 F1200
G1 X159.937 Y112.226 E.00304
G1 X160.118 Y111.936 E.01299
G1 X160.354 Y111.685 E.01309
G1 X160.585 Y111.511 E.01099
G1 X161.073 Y111.306 E.02012
G1 X161.479 Y111.251 E.01557
G1 X161.826 Y111.281 E.01324
G1 X162.16 Y111.38 E.01324
G1 X162.468 Y111.543 E.01324
G1 X162.738 Y111.764 E.01326
G1 X162.958 Y112.034 E.01324
G1 X163.121 Y112.342 E.01324
G1 X163.219 Y112.676 E.01323
G1 X163.249 Y113.023 E.01324
G1 X163.21 Y113.369 E.01323
G1 X163.103 Y113.7 E.01322
G1 X162.932 Y114.004 E.01326
G1 X162.705 Y114.268 E.01323
G1 X162.398 Y114.496 E.01453
G1 X161.927 Y114.694 E.01942
G1 X161.521 Y114.749 E.01557
G1 X161.174 Y114.719 E.01324
G1 X160.84 Y114.62 E.01324
G1 X160.532 Y114.457 E.01324
G1 X160.262 Y114.236 E.01326
G1 X160.042 Y113.966 E.01324
G1 X159.879 Y113.658 E.01324
G1 X159.781 Y113.324 E.01323
G1 X159.763 Y112.861 E.01761
G1 X159.818 Y112.54 E.01238
G1 X159.888 Y112.357 E.00745
M204 P1000
G1 E-.64 F2100
;WIPE_START
G1 F9600
G1 X159.909 Y112.301 E-.01243
G1 X159.937 Y112.226 E-.01664
G1 X160.118 Y111.936 E-.07104
G1 X160.315 Y111.726 E-.05989
;WIPE_END
G1 Z.4 F720
G1 X164.455 Y91.113 F12000
G1 Z.2 F720
G1 E.8 F1500
M204 P600
;TYPE:Solid infill
;WIDTH:0.503957
G1 F1200
G1 X165.182 Y91.839 E.03939
G1 X165.182 Y92.491 E.02499
G1 X164.009 Y91.318 E.06359
G1 X163.357 Y91.318 E.02499
G1 X165.182 Y93.143 E.09894
G1 X165.182 Y93.795 E.02499
G1 X162.705 Y91.318 E.13429
G1 X162.053 Y91.318 E.02499
G1 X165.182 Y94.447 E.16964
G1 X165.182 Y95.099 E.02499
G1 X161.401 Y91.318 E.20498
G1 X160.749 Y91.318 E.02499
G1 X165.182 Y95.751 E.24033
G1 X165.182 Y96.403 E.02499
G1 X160.097 Y91.318 E.27568
G1 X159.445 Y91.318 E.02499
G1 X165.182 Y97.055 E.31103
G1 X165.182 Y97.707 E.02499
G1 X158.793 Y91.318 E.34638
G1 X158.141 Y91.318 E.02499
G1 X165.182 Y98.359 E.38172
G1 X165.182 Y99.011 E.02499
G1 X157.489 Y91.318 E.41707
G1 X156.837 Y91.318 E.02499
G1 X165.182 Y99.663 E.45242
G1 X165.182 Y100.316 E.02503
G1 X156.185 Y91.318 E.48779
G1 X155.532 Y91.318 E.02503
G1 X165.182 Y100.968 E.52317
G1 X165.182 Y101.62 E.02499
G1 X154.88 Y91.318 E.55852
G1 X154.228 Y91.318 E.02499
M73 P1 R51
G1 X165.182 Y102.272 E.59386
G1 X165.182 Y102.924 E.02499
G1 X164.106 Y101.848 E.05833
G1 X164.119 Y102.001 E.00589
G1 X164.075 Y102.469 E.01802
G1 X165.182 Y103.576 E.06002
G1 X165.182 Y104.228 E.02499
G1 X163.926 Y102.972 E.06809
G1 X163.831 Y103.175 E.00859
G1 X163.692 Y103.39 E.00981
G1 X165.182 Y104.88 E.08078
G1 X165.182 Y105.532 E.02499
G1 X163.419 Y103.769 E.09558
G1 X163.351 Y103.849 E.00403
G1 X163.081 Y104.083 E.0137
G1 X165.182 Y106.184 E.1139
G1 X165.182 Y106.836 E.02499
G1 X162.68 Y104.334 E.13564
G1 X162.483 Y104.424 E.0083
G1 X162.207 Y104.513 E.01112
G1 X165.182 Y107.488 E.16129
G1 X165.182 Y108.14 E.02499
G1 X161.445 Y104.403 E.2026
M204 P1000
G1 E-.64 F2100
;WIPE_START
G1 F9600
G1 X161.989 Y104.947 E-.16
;WIPE_END
G1 Z.4 F720
G1 X161.879 Y99.621 F12000
G1 Z.2 F720
G1 E.8 F1500
M204 P600
G1 F1200
G1 X153.576 Y91.318 E.45014
G1 X152.924 Y91.318 E.02499
G1 X161.034 Y99.428 E.43968
G1 X160.819 Y99.474 E.00843
G1 X160.527 Y99.573 E.01182
G1 X152.272 Y91.318 E.44754
G1 X151.62 Y91.318 E.02499
G1 X160.101 Y99.799 E.45979
G1 X159.935 Y99.9 E.00745
G1 X159.742 Y100.092 E.01044
G1 X150.968 Y91.318 E.47568
G1 X150.316 Y91.318 E.02499
G1 X159.421 Y100.423 E.49362
G1 X159.3 Y100.582 E.00766
G1 X159.168 Y100.822 E.0105
G1 X149.664 Y91.318 E.51525
G1 X149.012 Y91.318 E.02499
G1 X158.989 Y101.295 E.5409
G1 X158.927 Y101.511 E.00861
G1 X158.891 Y101.849 E.01303
G1 X148.36 Y91.318 E.57093
G1 X147.818 Y91.318 E.02078
G1 X147.818 Y91.428 E.00422
G1 X158.944 Y102.554 E.60319
G1 X159.083 Y103.009 E.01824
G1 X159.283 Y103.389 E.01646
G1 X159.393 Y103.551 E.00751
G1 X159.603 Y103.801 E.01252
G1 X159.743 Y103.938 E.00751
G1 X160.067 Y104.192 E.01578
G1 X160.45 Y104.396 E.01664
G1 X160.634 Y104.469 E.00759
G1 X160.941 Y104.551 E.01218
G1 X165.182 Y108.792 E.22992
G1 X165.182 Y109.444 E.02499
G1 X147.818 Y92.08 E.94138
G1 X147.818 Y92.732 E.02499
G1 X165.182 Y110.096 E.94138
G1 X165.182 Y110.748 E.02499
G1 X147.818 Y93.384 E.94138
G1 X147.818 Y94.036 E.02499
G1 X158.294 Y104.512 E.56795
G1 X158.548 Y104.603 E.01034
G1 X158.839 Y104.752 E.01253
G1 X159.003 Y104.859 E.00751
G1 X159.322 Y105.119 E.01578
G1 X159.606 Y105.448 E.01666
G1 X159.717 Y105.611 E.00756
G1 X159.917 Y105.99 E.01643
G1 X159.98 Y106.198 E.00833
G1 X165.182 Y111.4 E.28202
G1 X165.182 Y112.052 E.02499
G1 X160.116 Y106.986 E.27465
G1 X160.073 Y107.492 E.01947
G1 X160.049 Y107.571 E.00317
G1 X165.182 Y112.704 E.27828
G1 X165.182 Y113.356 E.02499
G1 X163.968 Y112.142 E.06582
G1 X163.87 Y111.892 E.01029
G1 X163.716 Y111.61 E.01232
G1 X163.603 Y111.445 E.00767
G1 X163.397 Y111.199 E.0123
G1 X163.254 Y111.059 E.00767
G1 X163.002 Y110.858 E.01236
G1 X162.834 Y110.75 E.00766
G1 X162.548 Y110.603 E.01233
G1 X162.354 Y110.528 E.00797
G1 X159.888 Y108.062 E.13369
G1 X159.851 Y108.143 E.00341
G1 X159.638 Y108.464 E.01477
G1 X161.56 Y110.386 E.1042
G1 X161.333 Y110.389 E.0087
G1 X160.965 Y110.443 E.01426
G1 X159.356 Y108.834 E.08723
G1 X159.009 Y109.139 E.01771
G1 X160.485 Y110.615 E.08002
G1 X160.205 Y110.73 E.0116
G1 X160.044 Y110.826 E.00719
G1 X158.594 Y109.376 E.07861
G1 X158.481 Y109.425 E.00472
G1 X158.109 Y109.543 E.01496
G1 X159.684 Y111.118 E.08539
G1 X159.625 Y111.173 E.00309
G1 X159.381 Y111.467 E.01465
G1 X157.307 Y109.393 E.11244
M204 P1000
G1 E-.64 F2100
;WIPE_START
G1 F9600
G1 X157.852 Y109.938 E-.16
;WIPE_END
G1 Z.4 F720
G1 X157.738 Y104.608 F12000
G1 Z.2 F720
G1 E.8 F1500
M204 P600
G1 F1200
G1 X147.818 Y94.688 E.53781
G1 X147.818 Y95.34 E.02499
G1 X156.924 Y104.446 E.49368
G1 X156.436 Y104.61 E.01974
G1 X147.818 Y95.992 E.46722
G1 X147.818 Y96.644 E.02499
G1 X156.019 Y104.845 E.44461
G1 X155.973 Y104.872 E.00204
G1 X155.662 Y105.14 E.01574
G1 X147.818 Y97.296 E.42526
G1 X147.818 Y97.948 E.02499
G1 X155.365 Y105.495 E.40916
G1 X155.217 Y105.722 E.01039
G1 X155.127 Y105.909 E.00796
G1 X147.818 Y98.6 E.39625
G1 X147.818 Y99.253 E.02503
G1 X154.96 Y106.394 E.38717
G1 X154.9 Y106.71 E.01233
G1 X154.888 Y106.974 E.01013
G1 X147.818 Y99.905 E.38327
G1 X147.818 Y100.557 E.02499
G1 X154.987 Y107.725 E.38864
G1 X155.101 Y108.044 E.01299
G1 X155.188 Y108.224 E.00766
G1 X155.356 Y108.499 E.01235
G1 X155.477 Y108.658 E.00766
G1 X155.697 Y108.895 E.0124
G1 X155.889 Y109.057 E.00963
G1 X156.501 Y109.421 E.0273
G1 X156.76 Y109.498 E.01036
G1 X159.142 Y111.88 E.12914
G1 X159.091 Y111.972 E.00403
G1 X158.97 Y112.36 E.01558
G1 X147.818 Y101.209 E.60457
G1 X147.818 Y101.861 E.02499
G1 X159.099 Y113.141 E.61157
M204 P1000
G1 E-.64 F2100
;WIPE_START
G1 F9600
G1 X158.555 Y112.597 E-.16
;WIPE_END
G1 Z.4 F720
G1 X163.887 Y112.714 F12000
G1 Z.2 F720
G1 E.8 F1500
M204 P600
G1 F1200
G1 X165.182 Y114.008 E.07018
G1 X165.182 Y114.66 E.02499
G1 X164.06 Y113.538 E.06083
G1 X163.948 Y113.922 E.01533
G1 X163.902 Y114.032 E.00457
G1 X165.182 Y115.312 E.06939
G1 X165.182 Y115.964 E.02499
G1 X163.672 Y114.454 E.08186
G1 X163.603 Y114.555 E.00469
G1 X163.382 Y114.816 E.01311
G1 X165.182 Y116.616 E.09759
G1 X165.182 Y117.268 E.02499
G1 X163.032 Y115.118 E.11656
G1 X162.764 Y115.284 E.01209
G1 X162.61 Y115.349 E.00641
G1 X165.182 Y117.92 E.13941
G1 X165.182 Y118.572 E.02499
G1 X162.142 Y115.532 E.16481
G1 X162.033 Y115.564 E.00435
G1 X161.573 Y115.615 E.01774
G1 X164.639 Y118.682 E.16625
G1 X163.987 Y118.682 E.02499
G1 X160.83 Y115.524 E.17118
G1 X160.638 Y115.47 E.00765
G1 X160.452 Y115.397 E.00766
G1 X160.166 Y115.25 E.01233
G1 X159.998 Y115.142 E.00766
G1 X159.746 Y114.941 E.01236
G1 X159.603 Y114.801 E.00767
G1 X159.397 Y114.555 E.0123
G1 X159.284 Y114.39 E.00767
