; generated by PrusaSlicer 2.7.2+linux-x64-GTK3 on 2024-05-09 at 15:46:54 UTC


;
;

;
;

;
;
; 

; external perimeters extrusion width = 0.45mm
; perimeters extrusion width = 0.45mm
; infill extrusion width = 0.45mm
; solid infill extrusion width = 0.45mm
; top infill extrusion width = 0.40mm
; first layer extrusion width = 0.50mm

M73 P0 R29
M201 X2500 Y2500 Z200 E2500 ; sets maximum accelerations, mm/sec^2
M203 X200 Y200 Z40 E100 ; sets maximum feedrates, mm / sec
M204 P2000 R1200 T2000 ; sets acceleration (P, T) and retract acceleration (R), mm/sec^2
M205 X8.00 Y8.00 Z2.00 E10.00 ; sets the jerk limits, mm/sec
M205 S0 T0 ; sets the minimum extruding and travel feed rate, mm/sec

; printing object switch-probe-x-carriage-spring-test.stl id:0 copy 0
; stop printing object switch-probe-x-carriage-spring-test.stl id:0 copy 0

;TYPE:Custom
M17 ; enable steppers
M862.3 P "MK4" ; printer model check
M862.1 P0.4 ; nozzle diameter check
M555 X105 Y86 W40 H34

G90 ; use absolute coordinates
M83 ; extruder relative mode

M140 S60 ; set bed temp

M104 S170 ; set extruder temp for bed leveling
M109 R170 ; wait for temp


M84 E ; turn off E motor

G28 ; home all without mesh bed level

G1 X42 Y-4 Z5 F4800

M302 S160 ; lower cold extrusion limit to 160C


G1 E-2 F2400 ; retraction


M84 E ; turn off E motor

G29 P9 X10 Y-4 W32 H4

M106 S100

G0 Z40 F10000

M190 S60 ; wait for bed temp

M107

;
; MBL
;
M84 E ; turn off E motor
G29 P1 ; invalidate mbl & probe print area
G29 P1 X0 Y0 W50 H20 C ; probe near purge place
G29 P3.2 ; interpolate mbl probes
G29 P3.13 ; extrapolate mbl outside probe area
G29 A ; activate mbl

; prepare for purge
M104 S215
G0 X0 Y-4 Z15 F4800 ; move away and ready for the purge
M109 S215

G92 E0
M569 S0 E ; set spreadcycle mode for extruder

;
; Extrude purge line
;
G92 E0 ; reset extruder position
G1 E2 F2400 ; deretraction after the initial one before nozzle cleaning
G0 E7 X15 Z0.2 F500 ; purge
G0 X25 E4 F500 ; purge
G0 X35 E4 F650 ; purge
G0 X45 E4 F800 ; purge
G0 X48 Z0.05 F8000 ; wipe, move close to the bed
G0 X51 Z0.2 F8000 ; wipe, move quickly away from the bed

G92 E0
M221 S100 ; set flow to 100%
G21 ; set units to millimeters
G90 ; use absolute coordinates
M83 ; use relative distances for extrusion
M900 K0.05 ; Filament gcode



M142 S36 ; set heatbreak target temp
M107
;LAYER_CHANGE
;Z:0.2
;HEIGHT:0.2
G1 E-.8 F2100
; printing object switch-probe-x-carriage-spring-test.stl id:0 copy 0
G1 Z.4 F720
G1 X144.093 Y119.093 F12000
G1 Z.2 F720
G1 E.8 F1500
M204 P600
;TYPE:Perimeter
;WIDTH:0.499999
G1 F1200
G1 X105.907 Y119.093 E1.45131
G1 X105.907 Y90.907 E1.07124
G1 X144.093 Y90.907 E1.45131
G1 X144.093 Y105 E.53562
G1 X144.093 Y119.033 E.53334
M204 P1000
G1 X144.55 Y119.55 F12000
M204 P600
;TYPE:External perimeter
G1 F1200
G1 X105.45 Y119.55 E1.48605
G1 X105.45 Y90.45 E1.10598
M73 P1 R29
G1 X144.55 Y90.45 E1.48605
G1 X144.55 Y105 E.55299
G1 X144.55 Y119.49 E.55071
M204 P1000
G1 E-.64 F2100
;WIPE_START
G1 F9600
G1 X144.55 Y119.55 E-.01247
G1 X143.84 Y119.55 E-.14753
;WIPE_END
G1 Z.4 F720
G1 X143.887 Y92.042 F12000
G1 Z.2 F720
G1 E.8 F1500
M204 P600
;TYPE:Solid infill
;WIDTH:0.502471
G1 F1200
G1 X143.164 Y91.318 E.0391
G1 X142.514 Y91.318 E.02484
G1 X143.682 Y92.486 E.06312
G1 X143.682 Y93.136 E.02484
G1 X141.864 Y91.318 E.09824
G1 X141.214 Y91.318 E.02484
G1 X143.682 Y93.786 E.13337
G1 X143.682 Y94.436 E.02484
G1 X140.564 Y91.318 E.1685
G1 X139.914 Y91.318 E.02484
G1 X143.682 Y95.086 E.20362
G1 X143.682 Y95.736 E.02484
G1 X139.264 Y91.318 E.23875
G1 X138.614 Y91.318 E.02484
G1 X143.682 Y96.386 E.27387
G1 X143.682 Y97.036 E.02484
G1 X137.964 Y91.318 E.309
G1 X137.315 Y91.318 E.0248
G1 X143.682 Y97.685 E.34407
G1 X143.682 Y98.335 E.02484
G1 X136.665 Y91.318 E.3792
G1 X136.015 Y91.318 E.02484
G1 X143.682 Y98.985 E.41432
G1 X143.682 Y99.635 E.02484
G1 X135.365 Y91.318 E.44945
G1 X134.715 Y91.318 E.02484
G1 X143.682 Y100.285 E.48457
G1 X143.682 Y100.935 E.02484
G1 X134.065 Y91.318 E.5197
G1 X133.415 Y91.318 E.02484
G1 X143.682 Y101.585 E.55483
G1 X143.682 Y102.235 E.02484
G1 X132.765 Y91.318 E.58995
G1 X132.115 Y91.318 E.02484
M73 P1 R28
G1 X143.682 Y102.885 E.62508
G1 X143.682 Y103.535 E.02484
G1 X131.465 Y91.318 E.6602
G1 X130.816 Y91.318 E.0248
G1 X143.682 Y104.184 E.69527
G1 X143.682 Y104.834 E.02484
G1 X130.166 Y91.318 E.7304
G1 X129.516 Y91.318 E.02484
G1 X143.682 Y105.484 E.76553
G1 X143.682 Y106.134 E.02484
M73 P2 R28
G1 X128.866 Y91.318 E.80065
G1 X128.216 Y91.318 E.02484
G1 X143.682 Y106.784 E.83578
G1 X143.682 Y107.434 E.02484
G1 X127.566 Y91.318 E.8709
G1 X126.916 Y91.318 E.02484
G1 X143.682 Y108.084 E.90603
G1 X143.682 Y108.734 E.02484
G1 X126.266 Y91.318 E.94115
G1 X125.616 Y91.318 E.02484
G1 X143.682 Y109.384 E.97628
G1 X143.682 Y110.034 E.02484
G1 X124.966 Y91.318 E1.01141
G1 X124.317 Y91.318 E.0248
G1 X143.682 Y110.683 E1.04648
G1 X143.682 Y111.333 E.02484
G1 X123.667 Y91.318 E1.0816
G1 X123.017 Y91.318 E.02484
G1 X143.682 Y111.983 E1.11673
G1 X143.682 Y112.633 E.02484
G1 X122.367 Y91.318 E1.15186
G1 X121.717 Y91.318 E.02484
G1 X143.682 Y113.283 E1.18698
G1 X143.682 Y113.933 E.02484
G1 X121.067 Y91.318 E1.22211
G1 X120.417 Y91.318 E.02484
M73 P3 R28
G1 X143.682 Y114.583 E1.25723
G1 X143.682 Y115.233 E.02484
G1 X119.767 Y91.318 E1.29236
G1 X119.117 Y91.318 E.02484
G1 X143.682 Y115.883 E1.32748
G1 X143.682 Y116.533 E.02484
G1 X118.467 Y91.318 E1.36261
G1 X117.817 Y91.318 E.02484
G1 X143.682 Y117.183 E1.39774
G1 X143.682 Y117.832 E.0248
G1 X117.168 Y91.318 E1.43281
G1 X116.518 Y91.318 E.02484
G1 X143.682 Y118.482 E1.46793
G1 X143.682 Y118.682 E.00764
G1 X143.231 Y118.682 E.01723
G1 X115.868 Y91.318 E1.47871
G1 X115.218 Y91.318 E.02484
G1 X142.581 Y118.682 E1.47871
G1 X141.931 Y118.682 E.02484
G1 X114.568 Y91.318 E1.47871
M73 P4 R28
G1 X113.918 Y91.318 E.02484
G1 X141.281 Y118.682 E1.47871
G1 X140.631 Y118.682 E.02484
G1 X113.268 Y91.318 E1.47871
G1 X112.618 Y91.318 E.02484
G1 X139.981 Y118.682 E1.47871
G1 X139.331 Y118.682 E.02484
G1 X111.968 Y91.318 E1.47871
G1 X111.318 Y91.318 E.02484
G1 X138.682 Y118.682 E1.47874
G1 X138.032 Y118.682 E.02484
G1 X110.669 Y91.318 E1.47871
G1 X110.019 Y91.318 E.02484
G1 X137.382 Y118.682 E1.47871
G1 X136.732 Y118.682 E.02484
G1 X109.369 Y91.318 E1.47871
G1 X108.719 Y91.318 E.02484
M73 P5 R28
G1 X136.082 Y118.682 E1.47871
G1 X135.432 Y118.682 E.02484
G1 X108.069 Y91.318 E1.47871
G1 X107.419 Y91.318 E.02484
M73 P5 R27
G1 X134.782 Y118.682 E1.47871
G1 X134.132 Y118.682 E.02484
G1 X106.769 Y91.318 E1.47871
G1 X106.318 Y91.318 E.01723
G1 X106.318 Y91.518 E.00764
G1 X133.482 Y118.682 E1.46793
G1 X132.832 Y118.682 E.02484
G1 X106.318 Y92.168 E1.43281
G1 X106.318 Y92.817 E.0248
G1 X132.183 Y118.682 E1.39774
G1 X131.533 Y118.682 E.02484
G1 X106.318 Y93.467 E1.36261
G1 X106.318 Y94.117 E.02484
G1 X130.883 Y118.682 E1.32748
G1 X130.233 Y118.682 E.02484
G1 X106.318 Y94.767 E1.29236
G1 X106.318 Y95.417 E.02484
M73 P6 R27
G1 X129.583 Y118.682 E1.25723
G1 X128.933 Y118.682 E.02484
G1 X106.318 Y96.067 E1.22211
G1 X106.318 Y96.717 E.02484
G1 X128.283 Y118.682 E1.18698
G1 X127.633 Y118.682 E.02484
G1 X106.318 Y97.367 E1.15186
G1 X106.318 Y98.017 E.02484
G1 X126.983 Y118.682 E1.11673
G1 X126.333 Y118.682 E.02484
G1 X106.318 Y98.667 E1.0816
G1 X106.318 Y99.317 E.02484
G1 X125.683 Y118.682 E1.04648
G1 X125.034 Y118.682 E.0248
G1 X106.318 Y99.966 E1.01141
G1 X106.318 Y100.616 E.02484
G1 X124.384 Y118.682 E.97628
G1 X123.734 Y118.682 E.02484
G1 X106.318 Y101.266 E.94115
G1 X106.318 Y101.916 E.02484
G1 X123.084 Y118.682 E.90603
G1 X122.434 Y118.682 E.02484
G1 X106.318 Y102.566 E.8709
M73 P7 R27
G1 X106.318 Y103.216 E.02484
G1 X121.784 Y118.682 E.83578
G1 X121.134 Y118.682 E.02484
G1 X106.318 Y103.866 E.80065
G1 X106.318 Y104.516 E.02484
G1 X120.484 Y118.682 E.76553
G1 X119.834 Y118.682 E.02484
G1 X106.318 Y105.166 E.7304
G1 X106.318 Y105.816 E.02484
G1 X119.184 Y118.682 E.69527
G1 X118.535 Y118.682 E.0248
G1 X106.318 Y106.465 E.6602
G1 X106.318 Y107.115 E.02484
G1 X117.885 Y118.682 E.62508
G1 X117.235 Y118.682 E.02484
G1 X106.318 Y107.765 E.58995
G1 X106.318 Y108.415 E.02484
G1 X116.585 Y118.682 E.55483
G1 X115.935 Y118.682 E.02484
G1 X106.318 Y109.065 E.5197
G1 X106.318 Y109.715 E.02484
G1 X115.285 Y118.682 E.48457
G1 X114.635 Y118.682 E.02484
G1 X106.318 Y110.365 E.44945
G1 X106.318 Y111.015 E.02484
G1 X113.985 Y118.682 E.41432
G1 X113.335 Y118.682 E.02484
G1 X106.318 Y111.665 E.3792
G1 X106.318 Y112.315 E.02484
G1 X112.685 Y118.682 E.34407
G1 X112.036 Y118.682 E.0248
G1 X106.318 Y112.964 E.309
G1 X106.318 Y113.614 E.02484
G1 X111.386 Y118.682 E.27387
G1 X110.736 Y118.682 E.02484
G1 X106.318 Y114.264 E.23875
G1 X106.318 Y114.914 E.02484
G1 X110.086 Y118.682 E.20362
G1 X109.436 Y118.682 E.02484
G1 X106.318 Y115.564 E.1685
G1 X106.318 Y116.214 E.02484
G1 X108.786 Y118.682 E.13337
G1 X108.136 Y118.682 E.02484
G1 X106.318 Y116.864 E.09824
G1 X106.318 Y117.514 E.02484
G1 X107.486 Y118.682 E.06312
G1 X106.836 Y118.682 E.02484
G1 X106.113 Y117.958 E.0391
M204 P1000
; stop printing object switch-probe-x-carriage-spring-test.stl id:0 copy 0
M106 S127.5
;LAYER_CHANGE
;Z:0.4
;HEIGHT:0.2
;BEFORE_LAYER_CHANGE
G92 E0.0
;0.4


G1 E-.64 F2100
;WIPE_START
G1 F9600
G1 X106.657 Y118.502 E-.16
;WIPE_END
G1 Z.4 F720
;AFTER_LAYER_CHANGE
;0.4
M104 S210 ; set temperature
; printing object switch-probe-x-carriage-spring-test.stl id:0 copy 0
G1 Z.6
G1 X144.368 Y119.368 F12000
G1 Z.4 F720
G1 E.8 F1500
M204 P900
;TYPE:Perimeter
;WIDTH:0.449999
G1 F2687.5
G1 X105.632 Y119.368 E1.31117
G1 F2276.287
G1 X105.632 Y90.632 E.97268
G1 F2687.5
M73 P8 R27
G1 X144.368 Y90.632 E1.31117
G1 F2276.411
G1 X144.368 Y105 E.48634
G1 X144.368 Y119.308 E.48431
M204 P1000
G1 X144.775 Y119.775 F12000
M204 P700
;TYPE:External perimeter
G1 F1500
G1 X144.1 Y119.775 E.02285
G1 X105.9 Y119.775 E1.29302
G1 X105.225 Y119.775 E.02285
G1 X105.225 Y90.225 E1.00023
G1 X105.9 Y90.225 E.02285
G1 X144.1 Y90.225 E1.29302
G1 X144.775 Y90.225 E.02285
G1 X144.775 Y105 E.50012
G1 X144.775 Y119.715 E.49808
M204 P1000
G1 E-.64 F2100
;WIPE_START
G1 F9600
G1 X144.775 Y119.775 E-.01247
G1 X144.1 Y119.775 E-.14027
G1 X144.065 Y119.775 E-.00726
;WIPE_END
G1 Z.6 F720
G1 X106.109 Y91.031 F12000
G1 Z.4 F720
G1 E.8 F1500
M204 P1500
;TYPE:Solid infill
;WIDTH:0.548766
G1 F5400
G1 X106.064 Y90.987 E.00265
G1 X106.003 Y91.003 E.00265
G1 X105.987 Y91.064 E.00265
G1 X106.031 Y91.109 E.00265
G1 X106.093 Y91.093 E.00269
;WIDTH:0.449999
G1 X105.998 Y91.743 E.02224
G1 X106.743 Y90.998 E.03566
G1 X107.318 Y90.998 E.01946
G1 X105.998 Y92.318 E.06319
G1 X105.998 Y92.894 E.0195
G1 X107.894 Y90.998 E.09076
G1 X108.47 Y90.998 E.0195
G1 X105.998 Y93.47 E.11833
G1 X105.998 Y94.046 E.0195
G1 X109.046 Y90.998 E.14591
G1 X109.621 Y90.998 E.01946
G1 X105.998 Y94.621 E.17343
G1 X105.998 Y95.197 E.0195
G1 X110.197 Y90.998 E.201
G1 X110.773 Y90.998 E.0195
G1 X105.998 Y95.773 E.22858
G1 X105.998 Y96.348 E.01946
G1 X111.348 Y90.998 E.2561
G1 X111.924 Y90.998 E.0195
G1 X105.998 Y96.924 E.28367
G1 X105.998 Y97.5 E.0195
M73 P8 R26
G1 X112.5 Y90.998 E.31125
G1 X113.075 Y90.998 E.01946
G1 X105.998 Y98.075 E.33877
G1 X105.998 Y98.651 E.0195
G1 X113.651 Y90.998 E.36634
G1 X114.227 Y90.998 E.0195
G1 X105.998 Y99.227 E.39392
G1 X105.998 Y99.803 E.0195
G1 X114.803 Y90.998 E.42149
G1 X115.378 Y90.998 E.01946
G1 X105.998 Y100.378 E.44901
G1 X105.998 Y100.954 E.0195
G1 X115.954 Y90.998 E.47659
G1 X116.53 Y90.998 E.0195
G1 X105.998 Y101.53 E.50416
G1 X105.998 Y102.105 E.01946
G1 X117.105 Y90.998 E.53169
G1 X117.681 Y90.998 E.0195
G1 X105.998 Y102.681 E.55926
G1 X105.998 Y103.257 E.0195
G1 X118.257 Y90.998 E.58683
G1 X118.832 Y90.998 E.01946
G1 X105.998 Y103.832 E.61436
G1 X105.998 Y104.408 E.0195
G1 X119.408 Y90.998 E.64193
G1 X119.984 Y90.998 E.0195
G1 X105.998 Y104.984 E.6695
G1 X105.998 Y105.559 E.01946
G1 X120.559 Y90.998 E.69703
G1 X121.135 Y90.998 E.0195
G1 X105.998 Y106.135 E.7246
G1 X105.998 Y106.711 E.0195
G1 X121.711 Y90.998 E.75217
G1 X122.287 Y90.998 E.0195
G1 X105.998 Y107.287 E.77974
G1 X105.998 Y107.862 E.01946
G1 X122.862 Y90.998 E.80727
G1 X123.438 Y90.998 E.0195
G1 X105.998 Y108.438 E.83484
G1 X105.998 Y109.014 E.0195
G1 X124.014 Y90.998 E.86241
G1 X124.589 Y90.998 E.01946
G1 X105.998 Y109.589 E.88994
G1 X105.998 Y110.165 E.0195
G1 X125.165 Y90.998 E.91751
G1 X125.741 Y90.998 E.0195
G1 X105.998 Y110.741 E.94509
G1 X105.998 Y111.316 E.01946
G1 X126.316 Y90.998 E.97261
G1 X126.892 Y90.998 E.0195
G1 X105.998 Y111.892 E1.00018
G1 X105.998 Y112.468 E.0195
G1 X127.468 Y90.998 E1.02776
G1 X128.044 Y90.998 E.0195
G1 X105.998 Y113.044 E1.05533
G1 X105.998 Y113.619 E.01946
M73 P9 R26
G1 X128.619 Y90.998 E1.08285
G1 X129.195 Y90.998 E.0195
G1 X105.998 Y114.195 E1.11043
G1 X105.998 Y114.771 E.0195
G1 X129.771 Y90.998 E1.138
G1 X130.346 Y90.998 E.01946
G1 X105.998 Y115.346 E1.16552
G1 X105.998 Y115.922 E.0195
G1 X130.922 Y90.998 E1.1931
G1 X131.498 Y90.998 E.0195
G1 X105.998 Y116.498 E1.22067
G1 X105.998 Y117.073 E.01946
G1 X132.073 Y90.998 E1.24819
G1 X132.649 Y90.998 E.0195
G1 X105.998 Y117.649 E1.27577
G1 X105.998 Y118.225 E.0195
G1 X133.225 Y90.998 E1.30334
G1 X133.801 Y90.998 E.0195
G1 X105.998 Y118.801 E1.33091
G1 X105.972 Y118.943 E.00489
;WIDTH:0.41646
G1 X105.946 Y119.085 E.00448
;WIDTH:0.38292
G1 X105.874 Y119.065 E.00211
G1 X105.893 Y119.137 E.00211
G1 X105.935 Y119.126 E.00123
;WIDTH:0.449999
G1 X106.373 Y119.002 E.01541
G1 X134.376 Y90.998 E1.34051
G1 X134.952 Y90.998 E.0195
G1 X106.949 Y119.002 E1.34051
G1 X107.524 Y119.002 E.01946
G1 X135.528 Y90.998 E1.34053
G1 X136.103 Y90.998 E.01946
G1 X108.1 Y119.002 E1.34051
G1 X108.676 Y119.002 E.0195
G1 X136.679 Y90.998 E1.34051
G1 X137.255 Y90.998 E.0195
G1 X109.252 Y119.002 E1.34051
G1 X109.827 Y119.002 E.01946
G1 X137.83 Y90.998 E1.34051
G1 X138.406 Y90.998 E.0195
G1 X110.403 Y119.002 E1.34051
G1 X110.979 Y119.002 E.0195
G1 X138.982 Y90.998 E1.34051
G1 X139.557 Y90.998 E.01946
G1 X111.554 Y119.002 E1.34051
G1 X112.13 Y119.002 E.0195
G1 X140.133 Y90.998 E1.34051
G1 X140.709 Y90.998 E.0195
G1 X112.706 Y119.002 E1.34051
G1 X113.281 Y119.002 E.01946
G1 X141.285 Y90.998 E1.34053
G1 X141.86 Y90.998 E.01946
G1 X113.857 Y119.002 E1.34051
G1 X114.433 Y119.002 E.0195
G1 X142.436 Y90.998 E1.34051
G1 X143.012 Y90.998 E.0195
G1 X115.009 Y119.002 E1.34051
G1 X115.584 Y119.002 E.01946
G1 X143.587 Y90.998 E1.34051
G1 X144.147 Y90.883 E.01935
;WIDTH:0.38292
G1 X144.076 Y90.864 E.00208
G1 X144.095 Y90.935 E.00208
G1 X144.136 Y90.924 E.0012
;WIDTH:0.41646
G1 X144.069 Y91.042 E.00421
;WIDTH:0.449999
G1 X144.002 Y91.16 E.00459
G1 X116.16 Y119.002 E1.33278
G1 X116.736 Y119.002 E.0195
G1 X144.002 Y91.736 E1.30521
G1 X144.002 Y92.311 E.01946
G1 X117.311 Y119.002 E1.27768
G1 X117.887 Y119.002 E.0195
G1 X144.002 Y92.887 E1.25011
G1 X144.002 Y93.463 E.0195
G1 X118.463 Y119.002 E1.22254
G1 X119.038 Y119.002 E.01946
G1 X144.002 Y94.038 E1.19501
G1 X144.002 Y94.614 E.0195
G1 X119.614 Y119.002 E1.16744
G1 X120.19 Y119.002 E.0195
G1 X144.002 Y95.19 E1.13987
G1 X144.002 Y95.766 E.0195
G1 X120.766 Y119.002 E1.11229
G1 X121.341 Y119.002 E.01946
M73 P10 R26
G1 X144.002 Y96.341 E1.08477
G1 X144.002 Y96.917 E.0195
G1 X121.917 Y119.002 E1.0572
G1 X122.493 Y119.002 E.0195
G1 X144.002 Y97.493 E1.02962
G1 X144.002 Y98.068 E.01946
G1 X123.068 Y119.002 E1.0021
G1 X123.644 Y119.002 E.0195
G1 X144.002 Y98.644 E.97452
G1 X144.002 Y99.22 E.0195
G1 X124.22 Y119.002 E.94695
G1 X124.795 Y119.002 E.01946
G1 X144.002 Y99.795 E.91943
G1 X144.002 Y100.371 E.0195
G1 X125.371 Y119.002 E.89185
G1 X125.947 Y119.002 E.0195
G1 X144.002 Y100.947 E.86428
G1 X144.002 Y101.522 E.01946
G1 X126.522 Y119.002 E.83676
G1 X127.098 Y119.002 E.0195
G1 X144.002 Y102.098 E.80918
G1 X144.002 Y102.674 E.0195
G1 X127.674 Y119.002 E.78161
G1 X128.25 Y119.002 E.0195
G1 X144.002 Y103.25 E.75404
G1 X144.002 Y103.825 E.01946
G1 X128.825 Y119.002 E.72651
G1 X129.401 Y119.002 E.0195
G1 X144.002 Y104.401 E.69894
G1 X144.002 Y104.977 E.0195
G1 X129.977 Y119.002 E.67137
G1 X130.552 Y119.002 E.01946
G1 X144.002 Y105.552 E.64384
G1 X144.002 Y106.128 E.0195
G1 X131.128 Y119.002 E.61627
