; generated by PrusaSlicer 2.7.1+linux-x64-GTK3 on 2024-03-06 at 17:09:21 UTC


;
;

;
;

;
;
; 

; external perimeters extrusion width = 0.45mm
; perimeters extrusion width = 0.45mm
; infill extrusion width = 0.45mm
; solid infill extrusion width = 0.45mm
; top infill extrusion width = 0.40mm
; first layer extrusion width = 0.50mm

M73 P0 R13
M201 X2500 Y2500 Z200 E2500 ; sets maximum accelerations, mm/sec^2
M203 X200 Y200 Z40 E100 ; sets maximum feedrates, mm / sec
M204 P2000 R1200 T2000 ; sets acceleration (P, T) and retract acceleration (R), mm/sec^2
M205 X8.00 Y8.00 Z2.00 E10.00 ; sets the jerk limits, mm/sec
M205 S0 T0 ; sets the minimum extruding and travel feed rate, mm/sec

; printing object x-belt-clamp-2off.stl id:0 copy 0
; stop printing object x-belt-clamp-2off.stl id:0 copy 0
; printing object x-belt-clamp-2off.stl id:0 copy 1
; stop printing object x-belt-clamp-2off.stl id:0 copy 1

;TYPE:Custom
M17 ; enable steppers
M862.3 P "MK4" ; printer model check
M862.1 P0.4 ; nozzle diameter check
M555 X113 Y96 W32 H27.1536

G90 ; use absolute coordinates
M83 ; extruder relative mode

M140 S60 ; set bed temp

M104 S170 ; set extruder temp for bed leveling
M109 R170 ; wait for temp


M84 E ; turn off E motor

G28 ; home all without mesh bed level

G1 X42 Y-4 Z5 F4800

M302 S160 ; lower cold extrusion limit to 160C


G1 E-2 F2400 ; retraction


M84 E ; turn off E motor

G29 P9 X10 Y-4 W32 H4

M106 S100

G0 Z40 F10000

M190 S60 ; wait for bed temp

M107

;
; MBL
;
M84 E ; turn off E motor
G29 P1 ; invalidate mbl & probe print area
G29 P1 X0 Y0 W50 H20 C ; probe near purge place
G29 P3.2 ; interpolate mbl probes
G29 P3.13 ; extrapolate mbl outside probe area
G29 A ; activate mbl

; prepare for purge
M104 S215
G0 X0 Y-4 Z15 F4800 ; move away and ready for the purge
M109 S215

G92 E0
M569 S0 E ; set spreadcycle mode for extruder

;
; Extrude purge line
;
G92 E0 ; reset extruder position
G1 E2 F2400 ; deretraction after the initial one before nozzle cleaning
G0 E7 X15 Z0.2 F500 ; purge
G0 X25 E4 F500 ; purge
G0 X35 E4 F650 ; purge
G0 X45 E4 F800 ; purge
G0 X48 Z0.05 F8000 ; wipe, move close to the bed
M73 P1 R13
G0 X51 Z0.2 F8000 ; wipe, move quickly away from the bed

G92 E0
M221 S100 ; set flow to 100%
G21 ; set units to millimeters
G90 ; use absolute coordinates
M83 ; use relative distances for extrusion
M900 K0.05 ; Filament gcode



M142 S36 ; set heatbreak target temp
M107
;LAYER_CHANGE
;Z:0.2
;HEIGHT:0.2
;BEFORE_LAYER_CHANGE
G92 E0.0
;0.2


G1 E-.8 F2100
G1 Z.2 F720
;AFTER_LAYER_CHANGE
;0.2
; printing object x-belt-clamp-2off.stl id:0 copy 0
G1 X129.299 Y101.032 F12000
G1 Z.2 F720
G1 E.8 F1500
M204 P600
;TYPE:Perimeter
;WIDTH:0.499999
G1 F1200
G1 X129.333 Y100.904 E.00503
G1 X131.91 Y100.907 E.09794
G1 X133.559 Y101.235 E.0639
G1 X134.882 Y102.118 E.06045
G1 X135.765 Y103.441 E.06045
G1 X136.075 Y105 E.06041
G1 X136.046 Y105.147 E.00569
G1 X135.765 Y106.559 E.05472
G1 X134.882 Y107.882 E.06045
G1 X133.559 Y108.765 E.06045
G1 X131.91 Y109.093 E.0639
G1 X129.333 Y109.097 E.09794
G1 X129.281 Y108.903 E.00763
G1 X129.172 Y108.75 E.00714
G1 X129.281 Y108.597 E.00714
G1 X129.351 Y108.333 E.01038
G1 X129.386 Y107.686 E.02463
G1 X129.366 Y107.099 E.02232
;WIDTH:0.529136
G1 X129.341 Y106.517 E.02355
G1 X129.181 Y106.25 E.01258
;WIDTH:0.522909
G1 X129.275 Y106.133 E.00599
G1 X129.363 Y105.834 E.01244
G1 X129.383 Y105.485 E.01395
G1 X129.534 Y105.8 E.01394
;WIDTH:0.529136
G1 X129.794 Y106.345 E.02441
G1 X130.087 Y106.921 E.02613
;WIDTH:0.499999
G1 X130.311 Y107.185 E.01316
G1 X130.552 Y107.292 E.01002
G1 X132.31 Y107.694 E.06854
G1 X132.596 Y107.698 E.01087
G1 X132.89 Y107.561 E.01233
G1 X134.367 Y106.375 E.07199
G1 X134.525 Y106.108 E.01179
G1 X134.557 Y105.901 E.00796
G1 X134.557 Y104.099 E.06849
G1 X134.499 Y103.822 E.01076
G1 X134.299 Y103.563 E.01244
G1 X132.89 Y102.439 E.0685
G1 X132.596 Y102.302 E.01233
G1 X132.31 Y102.306 E.01087
G1 X130.552 Y102.708 E.06854
G1 X130.17 Y102.947 E.01713
G1 X130.087 Y103.079 E.00593
;WIDTH:0.522909
G1 X129.375 Y104.531 E.06454
G1 X129.363 Y104.183 E.0139
G1 X129.275 Y103.867 E.01309
G1 X129.181 Y103.75 E.00599
G1 X129.275 Y103.633 E.00599
G1 X129.352 Y103.333 E.01236
;WIDTH:0.501537
G1 X129.386 Y102.686 E.02471
;WIDTH:0.499999
G1 X129.358 Y101.858 E.03149
G1 X129.281 Y101.403 E.01754
G1 X129.172 Y101.25 E.00714
G1 X129.281 Y101.097 E.00714
G1 X129.283 Y101.089 E.00031
M204 P1000
G1 E-.64 F2100
;WIPE_START
G1 F9600
G1 X129.299 Y101.032 E-.0123
G1 X129.333 Y100.904 E-.02752
G1 X129.911 Y100.905 E-.12018
;WIPE_END
G1 Z.4 F720
G1 X132.619 Y102.807 F12000
G1 Z.2 F720
G1 E.8 F1500
M204 P600
;TYPE:External perimeter
G1 F1200
G1 X134.014 Y103.92 E.06783
G1 X134.096 Y104.054 E.00597
G1 X134.1 Y105.901 E.0702
G1 X134.037 Y106.059 E.00646
G1 X132.605 Y107.204 E.06968
G1 X132.507 Y107.249 E.0041
G1 X132.104 Y107.178 E.01555
G1 X130.654 Y106.847 E.05653
G1 X130.499 Y106.723 E.00754
G1 X129.956 Y105.596 E.04755
G1 X129.717 Y105.099 E.02096
G1 X129.694 Y105.008 E.00357
G1 X129.948 Y104.421 E.02431
G1 X130.499 Y103.277 E.04826
G1 X130.654 Y103.153 E.00754
G1 X132.411 Y102.752 E.06849
G1 X132.565 Y102.785 E.00599
M204 P1000
G1 E-.64 F2100
;WIPE_START
G1 F9600
G1 X132.619 Y102.807 E-.01212
G1 X133.175 Y103.251 E-.14788
;WIPE_END
G1 Z.4 F720
G1 X120.643 Y102.968 F12000
G1 Z.2 F720
G1 E.8 F1500
M204 P600
;TYPE:Perimeter
G1 F1200
G1 X120.658 Y103.316 E.01324
;WIDTH:0.479846
G1 X120.718 Y103.507 E.00727
;WIDTH:0.432526
G1 X120.887 Y103.75 E.00959
;WIDTH:0.422743
G1 X120.791 Y103.854 E.00447
G1 X120.774 Y103.96 E.00339
;WIDTH:0.387622
G1 X120.757 Y104.066 E.00308
;WIDTH:0.352501
G1 X120.74 Y104.172 E.00276
;WIDTH:0.317379
G1 X120.714 Y104.811 E.01459
;WIDTH:0.316969
G1 X120.74 Y105.813 E.02284
;WIDTH:0.352227
G1 X120.757 Y105.924 E.00289
;WIDTH:0.387485
G1 X120.774 Y106.035 E.00322
;WIDTH:0.422743
G1 X120.791 Y106.146 E.00355
G1 X120.887 Y106.25 E.00447
G1 X120.791 Y106.354 E.00447
;WIDTH:0.45423
G1 X120.724 Y106.511 E.00584
;WIDTH:0.485717
G1 X120.656 Y106.668 E.0063
;WIDTH:0.499999
G1 X120.614 Y107.314 E.0246
G1 X120.648 Y108.316 E.0381
G1 X120.719 Y108.597 E.01102
G1 X120.828 Y108.75 E.00714
G1 X120.719 Y108.903 E.00714
G1 X120.667 Y109.097 E.00763
G1 X118.09 Y109.093 E.09794
G1 X116.441 Y108.765 E.0639
G1 X115.118 Y107.882 E.06045
G1 X114.235 Y106.559 E.06045
G1 X113.925 Y105 E.06041
G1 X114.235 Y103.441 E.06041
G1 X115.118 Y102.118 E.06045
G1 X116.441 Y101.235 E.06045
G1 X118.09 Y100.907 E.0639
G1 X120.667 Y100.903 E.09794
G1 X120.719 Y101.097 E.00763
G1 X120.828 Y101.25 E.00714
G1 X120.719 Y101.403 E.00714
G1 X120.649 Y101.667 E.01038
G1 X120.614 Y102.314 E.02463
G1 X120.64 Y102.909 E.02264
M204 P1000
G1 X121.106 Y103.318 F12000
M204 P600
;TYPE:External perimeter
G1 F1200
G1 X121.071 Y102.299 E.03875
G1 X121.105 Y101.694 E.02303
G1 X121.171 Y101.546 E.00616
G1 X121.333 Y101.479 E.00666
G1 X128.667 Y101.479 E.27874
G1 X128.829 Y101.546 E.00666
G1 X128.895 Y101.699 E.00633
G1 X128.929 Y102.701 E.0381
G1 X128.895 Y103.306 E.02303
G1 X128.819 Y103.463 E.00663
G1 X128.667 Y103.521 E.00618
G1 X121.333 Y103.521 E.27874
;WIDTH:0.500389
G1 X121.194 Y103.474 E.00558
G1 X121.136 Y103.37 E.00453
M204 P1000
G1 E-.64 F2100
;WIPE_START
G1 F9600
G1 X121.106 Y103.318 E-.01248
G1 X121.081 Y102.608 E-.14752
;WIPE_END
G1 Z.4 F720
G1 X120.464 Y105.935 F12000
G1 Z.2 F720
G1 E.8 F1500
M204 P600
;TYPE:Perimeter
;WIDTH:0.387485
G1 F1200
G1 X120.462 Y106.053 E.00338
;WIDTH:0.422743
G1 X120.46 Y106.171 E.00373
;WIDTH:0.45423
G1 X120.359 Y106.316 E.00604
;WIDTH:0.485717
G1 X120.258 Y106.461 E.00651
;WIDTH:0.499999
G1 X118.89 Y107.561 E.06672
G1 X118.58 Y107.701 E.01293
G1 X118.31 Y107.694 E.01027
G1 X116.552 Y107.292 E.06854
G1 X116.324 Y107.194 E.00943
G1 X116.087 Y106.921 E.01374
G1 X115.305 Y105.297 E.06851
G1 X115.237 Y104.984 E.01217
G1 X115.305 Y104.703 E.01099
G1 X116.087 Y103.079 E.06851
G1 X116.231 Y102.88 E.00934
G1 X116.552 Y102.708 E.01384
G1 X118.314 Y102.306 E.06869
G1 X118.625 Y102.309 E.01182
M73 P2 R13
G1 X118.89 Y102.439 E.01122
G1 X120.238 Y103.527 E.06584
;WIDTH:0.479846
G1 X120.349 Y103.678 E.00681
;WIDTH:0.451295
G1 X120.46 Y103.829 E.00636
;WIDTH:0.422743
G1 X120.459 Y104.136 E.0097
;WIDTH:0.381935
G1 X120.458 Y104.443 E.00865
;WIDTH:0.341127
G1 X120.457 Y104.749 E.00759
;WIDTH:0.300318
G1 X120.457 Y104.815 E.00141
;WIDTH:0.316969
G1 X120.466 Y105.818 E.02286
;WIDTH:0.352227
G1 X120.465 Y105.875 E.00147
M204 P1000
G1 X119.972 Y106.107 F12000
M204 P600
;TYPE:External perimeter
;WIDTH:0.499999
G1 F1200
G1 X118.605 Y107.204 E.06662
G1 X118.422 Y107.25 E.00717
G1 X116.654 Y106.847 E.06892
G1 X116.515 Y106.751 E.00642
G1 X115.717 Y105.099 E.06973
G1 X115.699 Y104.955 E.00552
G1 X116.499 Y103.277 E.07065
G1 X116.578 Y103.186 E.00458
G1 X116.988 Y103.077 E.01612
G1 X118.413 Y102.752 E.05555
G1 X118.516 Y102.753 E.00391
G1 X119.073 Y103.169 E.02642
G1 X120.014 Y103.92 E.04576
G1 X120.079 Y104.004 E.00404
G1 X120.1 Y104.749 E.02833
G1 X120.1 Y105.904 E.0439
G1 X120.05 Y106.044 E.00565
G1 X120.018 Y106.069 E.00154
M204 P1000
G1 X121.105 Y105.801 F12000
M204 P600
G1 F1200
G1 X121.071 Y104.799 E.0381
G1 X121.105 Y104.194 E.02303
;WIDTH:0.500389
G1 X121.194 Y104.026 E.00723
G1 X121.333 Y103.979 E.00558
;WIDTH:0.5
G1 X128.667 Y103.979 E.27874
G1 X128.819 Y104.037 E.00618
G1 X128.895 Y104.199 E.0068
G1 X128.924 Y105.034 E.03175
;WIDTH:0.499999
G1 X128.895 Y105.806 E.02936
G1 X128.819 Y105.963 E.00663
G1 X128.667 Y106.021 E.00618
G1 X121.333 Y106.021 E.27874
;WIDTH:0.500389
G1 X121.194 Y105.974 E.00558
G1 X121.132 Y105.854 E.00514
M204 P1000
G1 E-.64 F2100
;WIPE_START
G1 F9600
G1 X121.105 Y105.801 E-.01236
G1 X121.081 Y105.091 E-.14764
;WIPE_END
G1 Z.4 F720
G1 X129.317 Y105.128 F12000
G1 Z.2 F720
G1 E.8 F1500
M204 P600
;TYPE:Perimeter
;WIDTH:0.366508
G1 F1200
G1 X129.309 Y105.021 E.00289
M204 P1000
G1 E-.64 F2100
;WIPE_START
G1 F9600
G1 X129.317 Y105.128 E-.0223
;WIPE_END
G1 E-.1377 F2100
G1 Z.4 F720
G1 X121.105 Y108.301 F12000
G1 Z.2 F720
G1 E.8 F1500
M204 P600
;TYPE:External perimeter
;WIDTH:0.499999
G1 F1200
G1 X121.071 Y107.299 E.0381
G1 X121.105 Y106.694 E.02303
G1 X121.142 Y106.582 E.00448
;WIDTH:0.501744
G1 X121.313 Y106.479 E.00762
G1 X121.333 Y106.479 E.00076
;WIDTH:0.499999
G1 X128.667 Y106.479 E.27874
G1 X128.819 Y106.537 E.00618
G1 X128.895 Y106.699 E.0068
G1 X128.929 Y107.701 E.0381
G1 X128.895 Y108.306 E.02303
G1 X128.829 Y108.454 E.00616
;WIDTH:0.501744
G1 X128.687 Y108.521 E.00599
G1 X128.667 Y108.521 E.00076
;WIDTH:0.499999
G1 X121.333 Y108.521 E.27874
G1 X121.171 Y108.454 E.00666
G1 X121.129 Y108.356 E.00405
M204 P1000
G1 E-.64 F2100
;WIPE_START
G1 F9600
G1 X121.105 Y108.301 E-.01247
G1 X121.081 Y107.591 E-.14753
;WIPE_END
G1 Z.4 F720
G1 X128.871 Y100.894 F12000
G1 Z.2 F720
G1 E.8 F1500
M204 P600
G1 F1200
G1 X128.919 Y100.446 E.01712
G1 X131.956 Y100.45 E.11543
G1 X133.738 Y100.804 E.06905
G1 X135.211 Y101.789 E.06735
G1 X136.196 Y103.262 E.06735
G1 X136.541 Y105 E.06734
G1 X136.494 Y105.236 E.00915
G1 X136.196 Y106.738 E.0582
G1 X135.211 Y108.211 E.06735
G1 X133.738 Y109.196 E.06735
G1 X131.956 Y109.55 E.06905
G1 X128.919 Y109.554 E.11543
G1 X128.895 Y109.191 E.01383
G1 X128.829 Y109.046 E.00605
G1 X128.667 Y108.979 E.00666
G1 X121.333 Y108.979 E.27874
;WIDTH:0.501745
G1 X121.313 Y108.979 E.00076
G1 X121.129 Y109.106 E.00853
;WIDTH:0.499999
G1 X121.081 Y109.554 E.01712
G1 X118.044 Y109.55 E.11543
G1 X116.262 Y109.196 E.06905
G1 X114.789 Y108.211 E.06735
G1 X113.804 Y106.738 E.06735
G1 X113.459 Y105 E.06734
G1 X113.804 Y103.262 E.06734
G1 X114.789 Y101.789 E.06735
G1 X116.262 Y100.804 E.06735
G1 X118.044 Y100.45 E.06905
G1 X121.081 Y100.446 E.11543
G1 X121.105 Y100.809 E.01383
G1 X121.171 Y100.954 E.00605
G1 X121.333 Y101.021 E.00666
G1 X128.667 Y101.021 E.27874
G1 X128.829 Y100.954 E.00666
G1 X128.837 Y100.943 E.00052
M204 P1000
G1 E-.64 F2100
;WIPE_START
G1 F9600
G1 X128.871 Y100.894 E-.01239
G1 X128.919 Y100.446 E-.09363
G1 X129.179 Y100.446 E-.05398
;WIPE_END
G1 Z.4 F720
G1 X135.34 Y103.175 F12000
G1 Z.2 F720
G1 E.8 F1500
M204 P600
;TYPE:Solid infill
;WIDTH:0.515555
G1 F1200
G1 X134.571 Y102.405 E.04277
G1 X133.399 Y101.623 E.05537
G1 X133.05 Y101.553 E.01399
G1 X135.447 Y103.95 E.13322
G1 X135.613 Y104.784 E.03342
G1 X134.968 Y104.14 E.03582
G1 X134.948 Y103.888 E.00993
G1 X134.874 Y103.653 E.00968
G1 X134.781 Y103.483 E.00762
G1 X134.566 Y103.25 E.01246
G1 X133.111 Y102.089 E.07315
G1 X132.76 Y101.932 E.01511
G1 X131.954 Y101.125 E.04482
M204 P1000
G1 X132.266 Y102.106 F12000
M204 P600
G1 F1200
G1 X131.478 Y101.318 E.0438
G1 X130.809 Y101.317 E.02629
M73 P3 R13
G1 X131.55 Y102.058 E.04118
G1 X131.006 Y102.183 E.02194
G1 X130.139 Y101.316 E.04819
G1 X129.678 Y101.315 E.01812
G1 X129.748 Y101.593 E.01127
G1 X130.462 Y102.307 E.03968
G1 X130.39 Y102.324 E.00291
G1 X130.04 Y102.553 E.01644
G1 X129.571 Y102.085 E.02604
M204 P1000
G1 E-.64 F2100
;WIPE_START
G1 F9600
M73 P3 R12
G1 X130.04 Y102.553 E-.13769
G1 X130.13 Y102.494 E-.02231
;WIPE_END
G1 Z.4 F720
G1 X134.763 Y104.603 F12000
G1 Z.2 F720
G1 E.8 F1500
M204 P600
G1 F1200
G1 X135.573 Y105.413 E.04502
G1 X135.463 Y105.971 E.02235
G1 X134.968 Y105.477 E.02748
G1 X134.968 Y105.91 E.01702
G1 X134.946 Y106.123 E.00842
G1 X135.315 Y106.492 E.02051
G1 X135.048 Y106.893 E.01893
G1 X134.732 Y106.577 E.01756
G1 X134.663 Y106.663 E.00433
G1 X134.378 Y106.892 E.01437
G1 X134.78 Y107.293 E.02231
G1 X134.585 Y107.585 E.0138
G1 X134.476 Y107.658 E.00516
G1 X134.008 Y107.19 E.02601
G1 X133.637 Y107.487 E.01868
G1 X134.075 Y107.926 E.02437
G1 X133.675 Y108.193 E.0189
G1 X133.267 Y107.785 E.02268
G1 X133.117 Y107.905 E.00755
G1 X132.861 Y108.048 E.01152
G1 X133.225 Y108.412 E.02023
G1 X132.667 Y108.523 E.02236
G1 X132.243 Y108.099 E.02357
G1 X131.379 Y107.903 E.03482
G1 X132.11 Y108.634 E.04063
G1 X131.869 Y108.682 E.00966
G1 X131.49 Y108.682 E.01489
G1 X130.513 Y107.705 E.0543
G1 X130.448 Y107.69 E.00262
G1 X130.168 Y107.581 E.01181
G1 X130.058 Y107.511 E.00512
G1 X129.785 Y107.19 E.01656
G1 X129.794 Y107.655 E.01828
G1 X130.822 Y108.683 E.05713
G1 X130.155 Y108.684 E.02621
G1 X129.571 Y108.1 E.03246
M204 P1000
G1 E-.64 F2100
;WIPE_START
G1 F9600
G1 X130.115 Y108.644 E-.16
;WIPE_END
G1 Z.4 F720
G1 X120.431 Y101.901 F12000
G1 Z.2 F720
G1 E.8 F1500
M204 P600
G1 F1200
G1 X119.845 Y101.316 E.03254
G1 X119.178 Y101.317 E.02621
G1 X120.204 Y102.343 E.05702
G1 X120.24 Y103.007 E.02613
G1 X119.999 Y102.807 E.01231
G1 X118.51 Y101.318 E.08276
G1 X118.131 Y101.318 E.01489
G1 X117.89 Y101.366 E.00966
G1 X118.406 Y101.882 E.02868
G1 X118.275 Y101.894 E.00517
G1 X117.847 Y101.991 E.01725
G1 X117.333 Y101.477 E.02857
G1 X116.775 Y101.588 E.02236
G1 X117.302 Y102.115 E.02929
G1 X116.758 Y102.239 E.02193
G1 X116.325 Y101.807 E.02404
G1 X115.925 Y102.074 E.0189
G1 X116.246 Y102.396 E.01787
G1 X116.102 Y102.458 E.00616
G1 X115.945 Y102.584 E.00791
G1 X115.863 Y102.681 E.00499
G1 X115.524 Y102.342 E.01884
G1 X115.415 Y102.415 E.00516
G1 X115.22 Y102.707 E.0138
G1 X115.618 Y103.105 E.02212
G1 X115.401 Y103.556 E.01967
G1 X114.952 Y103.107 E.02495
G1 X114.685 Y103.508 E.01893
G1 X115.184 Y104.007 E.02773
G1 X114.966 Y104.458 E.01969
G1 X114.537 Y104.029 E.02384
G1 X114.426 Y104.587 E.02236
G1 X115.066 Y105.227 E.03557
M204 P1000
G1 E-.64 F2100
;WIPE_START
G1 F9600
G1 X114.522 Y104.682 E-.16
;WIPE_END
G1 Z.4 F720
G1 X120.064 Y106.882 F12000
G1 Z.2 F720
G1 E.8 F1500
M204 P600
G1 F1200
G1 X120.223 Y107.041 E.00884
G1 X120.203 Y107.318 E.01091
G1 X120.216 Y107.702 E.0151
G1 X119.842 Y107.328 E.02079
G1 X119.47 Y107.625 E.01871
G1 X120.252 Y108.407 E.04346
G1 X120.322 Y108.685 E.01127
G1 X119.861 Y108.684 E.01812
G1 X119.091 Y107.915 E.04277
G1 X118.731 Y108.091 E.01575
G1 X118.613 Y108.105 E.00467
G1 X119.191 Y108.683 E.03212
G1 X118.522 Y108.682 E.02629
G1 X117.576 Y107.736 E.05258
M204 P1000
G1 X118.046 Y108.875 F12000
M204 P600
G1 F1200
G1 X116.984 Y107.813 E.05902
G1 X116.452 Y107.692 E.02144
G1 X116.263 Y107.629 E.00783
G1 X116.086 Y107.532 E.00793
G1 X115.798 Y107.244 E.01601
G1 X115.719 Y107.106 E.00625
G1 X115.201 Y106.03 E.04693
