( pcb2gcode 2.0.0 )
( Software-independent Gcode )

( This file uses only one drill bit. Forced by 'onedrill' option )

G94       (Millimeters per minute feed rate.)
G21       (Units == Millimeters.)
G90       (Absolute coordinates.)
G00 S10000     (RPM spindle speed.)

G00 Z3.00000 (Retract)
T1
M5      (Spindle stop.)
G04 P1.00000
(MSG, Change tool bit to drill size 1.00076 mm)
M6      (Tool change.)
M0      (Temporary machine stop.)
M3      (Spindle on clockwise.)
G0 Z3.00000
G04 P1.00000

F1000.00000
G0 X1.54586 Y4.01008
G1 Z-2.50000
G1 Z3.00000
G0 X1.54586 Y6.55008
G1 Z-2.50000
G1 Z3.00000
G0 X1.54586 Y9.09008
G1 Z-2.50000
G1 Z3.00000
G0 X1.54586 Y11.63008
G1 Z-2.50000
G1 Z3.00000
G0 X1.54586 Y14.17008
G1 Z-2.50000
G1 Z3.00000
G0 X1.54586 Y16.71008
G1 Z-2.50000
G1 Z3.00000
G0 X1.54586 Y19.25008
G1 Z-2.50000
G1 Z3.00000
G0 X1.54586 Y21.79008
G1 Z-2.50000
G1 Z3.00000
G0 X9.17094 Y23.16930
G1 Z-2.50000
G1 Z3.00000
G0 X9.17094 Y3.16934
G1 Z-2.50000
G1 Z3.00000
G0 X29.79574 Y22.04408
G1 Z-2.50000
G1 Z3.00000
G0 X29.79574 Y19.50408
G1 Z-2.50000
G1 Z3.00000
G0 X29.79574 Y16.96408
G1 Z-2.50000
G1 Z3.00000
G0 X29.79574 Y14.42408
G1 Z-2.50000
G1 Z3.00000
G0 X29.79574 Y11.88408
G1 Z-2.50000
G1 Z3.00000
G0 X29.79574 Y9.34408
G1 Z-2.50000
G1 Z3.00000
G0 X29.79574 Y6.80408
G1 Z-2.50000
G1 Z3.00000
G0 X29.79574 Y4.26408
G1 Z-2.50000
G1 Z3.00000

G00 Z3.000 ( All done -- retract )

M5      (Spindle off.)
G04 P1.000000
M9      (Coolant off.)
M2      (Program end.)

