( pcb2gcode 2.0.0 )
( Software-independent Gcode )

G94 ( Millimeters per minute feed rate. )
G21 ( Units == Millimeters. )

G90 ( Absolute coordinates. )
G00 S10000 ( RPM spindle speed. )
G01 F600.00000 ( Feedrate. )


G00 Z3.00000 (Retract to tool change height)
T0
M5      (Spindle stop.)
G04 P1.00000 (Wait for spindle to stop)
(MSG, Change tool bit to mill diameter 0.12000mm)
M6      (Tool change.)
M0      (Temporary machine stop.)
M3 ( Spindle on clockwise. )
G04 P1.00000 (Wait for spindle to get up to speed)
G04 P0 ( dwell for no time -- G64 should not smooth over this point )
G00 Z3.00000 ( retract )

G00 X0.63532 Y21.78373 ( rapid move to begin. )
G01 F300.00000
G01 Z-0.07000
G04 P0 ( dwell for no time -- G64 should not smooth over this point )
G01 F600.00000
G01 X0.63532 Y21.78373
G01 X0.65488 Y21.60082
G01 X0.71142 Y21.42574
G01 X0.81274 Y21.25025
G01 X0.93608 Y21.11375
G01 X1.08472 Y21.00535
G01 X1.26984 Y20.92292
G01 X1.45615 Y20.88467
G01 X1.63385 Y20.88467
G01 X1.82620 Y20.92455
G01 X1.95157 Y20.98002
G01 X4.21446 Y20.98002
G01 X6.59721 Y18.59727
G01 X6.72500 Y18.49352
G01 X6.86553 Y18.41970
G01 X7.01776 Y18.37472
G01 X7.16998 Y18.36004
G01 X11.17000 Y18.36004
G01 X11.32219 Y18.37472
G01 X11.47442 Y18.41970
G01 X11.61495 Y18.49352
G01 X11.73837 Y18.59331
G01 X14.38051 Y21.23504
G01 X28.88500 Y21.23504
G01 X28.89511 Y21.16168
G01 X28.94499 Y21.13501
G01 X30.65670 Y21.13616
G01 X30.69487 Y21.16168
G01 X30.70498 Y21.19501
G01 X30.70498 Y22.89501
G01 X30.68741 Y22.93745
G01 X30.64499 Y22.95500
G01 X28.94499 Y22.95500
G01 X28.89511 Y22.92836
G01 X28.88500 Y22.85503
G01 X14.04497 Y22.85503
G01 X13.89277 Y22.84034
G01 X13.72968 Y22.79087
G01 X13.59024 Y22.71502
G01 X13.47223 Y22.61779
G01 X10.83446 Y19.98003
G01 X7.50549 Y19.98003
G01 X5.12274 Y22.36277
G01 X5.00473 Y22.46001
G01 X4.86528 Y22.53585
G01 X4.70219 Y22.58533
G01 X4.54997 Y22.60001
G01 X1.95157 Y22.60001
G01 X1.82620 Y22.65548
G01 X1.64632 Y22.69404
G01 X1.44368 Y22.69404
G01 X1.26379 Y22.65548
G01 X1.08472 Y22.57469
G01 X0.93608 Y22.46628
G01 X0.81274 Y22.32978
G01 X0.71365 Y22.16013
G01 X0.65650 Y21.98528
G01 X0.63532 Y21.78373
G04 P0 ( dwell for no time -- G64 should not smooth over this point )
G00 Z3.00000 ( retract )

G00 X0.63532 Y19.24373 ( rapid move to begin. )
G01 F300.00000
G01 Z-0.07000
G04 P0 ( dwell for no time -- G64 should not smooth over this point )
G01 F600.00000
G01 X0.63532 Y19.24373
G01 X0.65488 Y19.06082
G01 X0.71142 Y18.88574
G01 X0.81274 Y18.71025
G01 X0.93608 Y18.57375
G01 X1.08472 Y18.46535
G01 X1.26984 Y18.38292
G01 X1.45615 Y18.34467
G01 X1.63385 Y18.34467
G01 X1.82620 Y18.38455
G01 X1.95157 Y18.44002
G01 X3.75444 Y18.44002
G01 X5.59721 Y16.59728
G01 X5.72500 Y16.49352
G01 X5.85467 Y16.42420
G01 X6.00623 Y16.37704
G01 X6.16998 Y16.36004
G01 X12.16999 Y16.36004
G01 X12.32219 Y16.37472
G01 X12.47441 Y16.41971
G01 X12.61495 Y16.49352
G01 X12.73837 Y16.59332
G01 X14.84050 Y18.69504
G01 X29.38837 Y18.69504
G01 X29.51377 Y18.63954
G01 X29.69366 Y18.60098
G01 X29.88383 Y18.59966
G01 X30.08205 Y18.64180
G01 X30.25525 Y18.72034
G01 X30.40834 Y18.83319
G01 X30.53460 Y18.97540
G01 X30.62632 Y19.13489
G01 X30.68510 Y19.31582
G01 X30.70465 Y19.51129
G01 X30.68510 Y19.69422
G01 X30.62632 Y19.87515
G01 X30.53460 Y20.03464
G01 X30.40834 Y20.17682
G01 X30.24438 Y20.29595
G01 X30.07618 Y20.37047
G01 X29.88383 Y20.41035
G01 X29.69366 Y20.40906
G01 X29.51985 Y20.37210
G01 X29.38845 Y20.31503
G01 X14.49910 Y20.31475
G01 X14.34124 Y20.29803
G01 X14.18968 Y20.25087
G01 X14.05023 Y20.17502
G01 X13.93659 Y20.08175
G01 X11.83446 Y17.98003
G01 X6.50549 Y17.98003
G01 X4.66272 Y19.82277
G01 X4.54471 Y19.92001
G01 X4.40526 Y19.99585
G01 X4.24217 Y20.04533
G01 X4.08995 Y20.06001
G01 X1.95157 Y20.06001
G01 X1.82620 Y20.11548
G01 X1.63385 Y20.15536
G01 X1.45615 Y20.15536
G01 X1.26984 Y20.11711
G01 X1.08472 Y20.03469
G01 X0.93608 Y19.92628
G01 X0.81274 Y19.78978
G01 X0.71365 Y19.62013
G01 X0.65650 Y19.44528
G01 X0.63532 Y19.24373
G04 P0 ( dwell for no time -- G64 should not smooth over this point )
G00 Z3.00000 ( retract )

G00 X0.63532 Y16.70373 ( rapid move to begin. )
G01 F300.00000
G01 Z-0.07000
G04 P0 ( dwell for no time -- G64 should not smooth over this point )
G01 F600.00000
G01 X0.63532 Y16.70373
G01 X0.65488 Y16.52082
G01 X0.71365 Y16.33988
G01 X0.80537 Y16.18039
G01 X0.93164 Y16.03820
G01 X1.09559 Y15.91907
G01 X1.26379 Y15.84455
G01 X1.44368 Y15.80599
G01 X1.63385 Y15.80467
G01 X1.82013 Y15.84292
G01 X2.00524 Y15.92535
G01 X2.15389 Y16.03375
G01 X2.27725 Y16.17025
G01 X2.37995 Y16.35001
G01 X3.48086 Y16.35001
G01 X4.91542 Y14.91547
G01 X5.02688 Y14.83993
G01 X5.10557 Y14.81608
G01 X13.16999 Y14.81001
G01 X13.31307 Y14.83993
G01 X13.42455 Y14.91547
G01 X15.11408 Y16.60503
G01 X28.96003 Y16.60503
G01 X29.06275 Y16.42524
G01 X29.18609 Y16.28874
G01 X29.33473 Y16.18034
G01 X29.51985 Y16.09791
G01 X29.69985 Y16.05999
G01 X29.88383 Y16.05966
G01 X30.08205 Y16.10180
G01 X30.25525 Y16.18034
G01 X30.40834 Y16.29319
G01 X30.53460 Y16.43540
G01 X30.62632 Y16.59489
G01 X30.68510 Y16.77582
G01 X30.70465 Y16.97129
G01 X30.68510 Y17.15422
G01 X30.62632 Y17.33515
G01 X30.53460 Y17.49464
G01 X30.40834 Y17.63682
G01 X30.24438 Y17.75595
G01 X30.07618 Y17.83047
G01 X29.88383 Y17.87035
G01 X29.69985 Y17.87002
G01 X29.51985 Y17.83210
G01 X29.33473 Y17.74968
G01 X29.18609 Y17.64127
G01 X29.06275 Y17.50477
G01 X28.96003 Y17.32504
G01 X14.95909 Y17.32473
G01 X14.82188 Y17.29512
G01 X14.71040 Y17.21958
G01 X13.02087 Y15.53002
G01 X5.31908 Y15.53002
G01 X3.82493 Y17.01237
G01 X3.70590 Y17.06167
G01 X3.62998 Y17.07002
G01 X2.37995 Y17.07002
G01 X2.28462 Y17.23962
G01 X2.14901 Y17.39022
G01 X2.00524 Y17.49469
G01 X1.83207 Y17.57322
G01 X1.63385 Y17.61536
G01 X1.44368 Y17.61404
G01 X1.26379 Y17.57548
G01 X1.08472 Y17.49469
G01 X0.93608 Y17.38628
G01 X0.81274 Y17.24978
G01 X0.71365 Y17.08013
G01 X0.65488 Y16.89921
G01 X0.63532 Y16.70373
G04 P0 ( dwell for no time -- G64 should not smooth over this point )
G00 Z3.00000 ( retract )

G00 X0.63532 Y14.16373 ( rapid move to begin. )
G01 F300.00000
G01 Z-0.07000
G04 P0 ( dwell for no time -- G64 should not smooth over this point )
G01 F600.00000
G01 X0.63532 Y14.16373
G01 X0.65488 Y13.98082
G01 X0.71142 Y13.80574
G01 X0.81274 Y13.63025
G01 X0.93608 Y13.49375
G01 X1.08472 Y13.38535
G01 X1.26379 Y13.30455
G01 X1.44368 Y13.26599
G01 X1.63385 Y13.26467
G01 X1.82620 Y13.30455
G01 X1.99440 Y13.37907
G01 X2.15389 Y13.49375
G01 X2.27725 Y13.63025
G01 X2.37995 Y13.81001
G01 X4.02086 Y13.81001
G01 X4.91542 Y12.91547
G01 X5.02688 Y12.83993
G01 X5.10557 Y12.81608
G01 X14.16999 Y12.81001
G01 X14.30220 Y12.83544
G01 X14.42018 Y12.91151
G01 X15.57408 Y14.06503
G01 X28.96003 Y14.06503
G01 X29.06275 Y13.88524
G01 X29.18609 Y13.74874
G01 X29.33473 Y13.64034
G01 X29.51985 Y13.55791
G01 X29.69985 Y13.51999
G01 X29.88383 Y13.51966
G01 X30.08205 Y13.56180
G01 X30.25525 Y13.64034
G01 X30.40834 Y13.75319
G01 X30.53460 Y13.89540
G01 X30.62632 Y14.05489
G01 X30.68510 Y14.23582
G01 X30.70465 Y14.43129
G01 X30.68510 Y14.61422
G01 X30.62632 Y14.79515
G01 X30.53460 Y14.95464
G01 X30.40389 Y15.10127
G01 X30.25525 Y15.20968
G01 X30.07618 Y15.29047
G01 X29.89010 Y15.33002
G01 X29.70613 Y15.33035
G01 X29.50791 Y15.28821
G01 X29.34558 Y15.21595
G01 X29.19097 Y15.10523
G01 X29.05536 Y14.95464
G01 X28.96003 Y14.78504
G01 X15.36056 Y14.77897
G01 X15.28188 Y14.75512
G01 X15.17039 Y14.67958
G01 X14.02087 Y13.53003
G01 X5.31908 Y13.53003
G01 X4.42452 Y14.42456
G01 X4.31306 Y14.50010
G01 X4.16998 Y14.53002
G01 X2.37995 Y14.53002
G01 X2.28462 Y14.69962
G01 X2.14901 Y14.85022
G01 X2.00524 Y14.95469
G01 X1.83207 Y15.03322
G01 X1.63385 Y15.07536
G01 X1.44368 Y15.07404
G01 X1.26379 Y15.03548
G01 X1.08472 Y14.95469
G01 X0.93608 Y14.84628
G01 X0.81274 Y14.70978
G01 X0.71365 Y14.54013
G01 X0.65488 Y14.35921
G01 X0.63532 Y14.16373
G04 P0 ( dwell for no time -- G64 should not smooth over this point )
G00 Z3.00000 ( retract )

G00 X0.63532 Y11.62373 ( rapid move to begin. )
G01 F300.00000
G01 Z-0.07000
G04 P0 ( dwell for no time -- G64 should not smooth over this point )
G01 F600.00000
G01 X0.63532 Y11.62373
G01 X0.65488 Y11.44082
G01 X0.71365 Y11.25988
G01 X0.80537 Y11.10039
G01 X0.93608 Y10.95375
G01 X1.08472 Y10.84535
G01 X1.26379 Y10.76455
G01 X1.44368 Y10.72599
G01 X1.63385 Y10.72467
G01 X1.83207 Y10.76681
G01 X1.99440 Y10.83907
G01 X2.14901 Y10.94979
G01 X2.28462 Y11.10039
G01 X2.37995 Y11.27001
G01 X22.53998 Y11.27001
G01 X22.61590 Y11.27837
G01 X22.73492 Y11.32767
G01 X22.94409 Y11.52503
G01 X28.96003 Y11.52503
G01 X29.06275 Y11.34524
G01 X29.18609 Y11.20874
G01 X29.33473 Y11.10034
G01 X29.51985 Y11.01791
G01 X29.69985 Y10.97999
G01 X29.88383 Y10.97966
G01 X30.08205 Y11.02180
G01 X30.25525 Y11.10034
G01 X30.40834 Y11.21319
G01 X30.53460 Y11.35540
G01 X30.62632 Y11.51489
G01 X30.68510 Y11.69582
G01 X30.70465 Y11.89129
G01 X30.68510 Y12.07422
G01 X30.62632 Y12.25515
G01 X30.53460 Y12.41464
G01 X30.40389 Y12.56127
G01 X30.25525 Y12.66968
G01 X30.07618 Y12.75047
G01 X29.89010 Y12.79002
G01 X29.70613 Y12.79035
G01 X29.50791 Y12.74821
G01 X29.34558 Y12.67595
G01 X29.19097 Y12.56523
G01 X29.05536 Y12.41464
G01 X28.96003 Y12.24504
G01 X22.79499 Y12.24504
G01 X22.71905 Y12.23668
G01 X22.60002 Y12.18738
G01 X22.39085 Y11.99002
G01 X2.37995 Y11.99002
G01 X2.27725 Y12.16978
G01 X2.15389 Y12.30628
G01 X2.00524 Y12.41469
G01 X1.82013 Y12.49711
G01 X1.63385 Y12.53536
G01 X1.45615 Y12.53536
G01 X1.25793 Y12.49322
G01 X1.08472 Y12.41469
G01 X0.93164 Y12.30183
G01 X0.80537 Y12.15962
G01 X0.71365 Y12.00013
G01 X0.65488 Y11.81921
G01 X0.63532 Y11.62373
G04 P0 ( dwell for no time -- G64 should not smooth over this point )
G00 Z3.00000 ( retract )

G00 X0.63532 Y9.08373 ( rapid move to begin. )
G01 F300.00000
G01 Z-0.07000
G04 P0 ( dwell for no time -- G64 should not smooth over this point )
G01 F600.00000
G01 X0.63532 Y9.08373
G01 X0.65488 Y8.90082
G01 X0.71365 Y8.71988
G01 X0.80537 Y8.56039
G01 X0.93608 Y8.41375
G01 X1.08472 Y8.30535
G01 X1.26379 Y8.22455
G01 X1.44368 Y8.18599
G01 X1.63385 Y8.18467
G01 X1.83207 Y8.22681
G01 X1.99440 Y8.29907
G01 X2.14901 Y8.40979
G01 X2.28462 Y8.56039
G01 X2.37995 Y8.73001
G01 X5.09000 Y8.73001
G01 X5.22221 Y8.75544
G01 X5.34456 Y8.83547
G01 X6.31908 Y9.81002
G01 X12.52087 Y9.81002
G01 X13.24477 Y9.08652
G01 X13.36275 Y9.01045
G01 X13.49496 Y8.98503
G01 X28.96003 Y8.98503
G01 X29.05536 Y8.81540
G01 X29.19097 Y8.66481
G01 X29.33473 Y8.56034
G01 X29.50791 Y8.48180
G01 X29.70613 Y8.43966
G01 X29.89010 Y8.43999
G01 X30.07618 Y8.47954
G01 X30.25525 Y8.56034
G01 X30.40389 Y8.66874
G01 X30.52723 Y8.80524
G01 X30.62632 Y8.97489
G01 X30.68510 Y9.15582
G01 X30.70465 Y9.35129
G01 X30.68510 Y9.53422
G01 X30.62632 Y9.71515
G01 X30.53460 Y9.87464
G01 X30.40834 Y10.01682
G01 X30.24438 Y10.13595
G01 X30.07618 Y10.21047
G01 X29.88383 Y10.25035
G01 X29.69985 Y10.25002
G01 X29.51985 Y10.21210
G01 X29.33473 Y10.12968
G01 X29.18609 Y10.02127
G01 X29.06275 Y9.88477
G01 X28.96003 Y9.70504
G01 X13.64408 Y9.70504
G01 X12.92018 Y10.42853
G01 X12.81307 Y10.50011
G01 X12.73438 Y10.52396
G01 X6.16998 Y10.53003
G01 X6.03775 Y10.50461
G01 X5.91977 Y10.42853
G01 X4.94087 Y9.45002
G01 X2.37995 Y9.45002
G01 X2.27725 Y9.62978
G01 X2.15389 Y9.76628
G01 X2.00524 Y9.87469
G01 X1.82013 Y9.95711
G01 X1.63385 Y9.99536
G01 X1.45615 Y9.99536
G01 X1.25793 Y9.95322
G01 X1.08472 Y9.87469
G01 X0.93164 Y9.76183
G01 X0.80537 Y9.61962
G01 X0.71365 Y9.46013
G01 X0.65488 Y9.27921
G01 X0.63532 Y9.08373
G04 P0 ( dwell for no time -- G64 should not smooth over this point )
G00 Z3.00000 ( retract )

G00 X0.63532 Y6.54373 ( rapid move to begin. )
G01 F300.00000
G01 Z-0.07000
G04 P0 ( dwell for no time -- G64 should not smooth over this point )
G01 F600.00000
G01 X0.63532 Y6.54373
G01 X0.65488 Y6.36082
G01 X0.71365 Y6.17988
G01 X0.80537 Y6.02039
G01 X0.93164 Y5.87820
G01 X1.09559 Y5.75907
G01 X1.26379 Y5.68455
G01 X1.45615 Y5.64467
G01 X1.63385 Y5.64467
G01 X1.82013 Y5.68292
G01 X2.00524 Y5.76535
G01 X2.15389 Y5.87375
G01 X2.27725 Y6.01025
G01 X2.37995 Y6.19001
G01 X4.62591 Y6.19837
G01 X4.74494 Y6.24767
G01 X4.80455 Y6.29547
G01 X6.81908 Y8.31002
G01 X12.02087 Y8.31002
G01 X13.78043 Y6.55049
G01 X13.89189 Y6.47495
G01 X14.02910 Y6.44533
G01 X28.96003 Y6.44503
G01 X29.06275 Y6.26524
G01 X29.18609 Y6.12874
G01 X29.33473 Y6.02034
G01 X29.51985 Y5.93791
G01 X29.69985 Y5.89999
G01 X29.88383 Y5.89966
G01 X30.08205 Y5.94180
G01 X30.25525 Y6.02034
G01 X30.40834 Y6.13319
G01 X30.53460 Y6.27540
G01 X30.62632 Y6.43489
G01 X30.68510 Y6.61582
G01 X30.70465 Y6.81129
G01 X30.68510 Y6.99422
G01 X30.62632 Y7.17515
G01 X30.53460 Y7.33464
G01 X30.40834 Y7.47682
G01 X30.24438 Y7.59595
G01 X30.07618 Y7.67047
G01 X29.88383 Y7.71035
G01 X29.69985 Y7.71002
G01 X29.51985 Y7.67210
G01 X29.33473 Y7.58968
G01 X29.18609 Y7.48127
G01 X29.06275 Y7.34477
G01 X28.96003 Y7.16504
G01 X14.18409 Y7.16504
G01 X12.42453 Y8.92457
G01 X12.36494 Y8.97238
G01 X12.24591 Y9.02168
G01 X6.66998 Y9.03003
G01 X6.52688 Y9.00011
G01 X6.41540 Y8.92457
G01 X4.40087 Y6.91002
G01 X2.37995 Y6.91002
G01 X2.27725 Y7.08978
G01 X2.15389 Y7.22628
G01 X2.00524 Y7.33469
G01 X1.82013 Y7.41711
G01 X1.63385 Y7.45536
G01 X1.45615 Y7.45536
G01 X1.25793 Y7.41322
G01 X1.08472 Y7.33469
G01 X0.93164 Y7.22183
G01 X0.80537 Y7.07962
G01 X0.71365 Y6.92013
G01 X0.65488 Y6.73921
G01 X0.63532 Y6.54373
G04 P0 ( dwell for no time -- G64 should not smooth over this point )
G00 Z3.00000 ( retract )

G00 X0.63499 Y3.16002 ( rapid move to begin. )
G01 F300.00000
G01 Z-0.07000
G04 P0 ( dwell for no time -- G64 should not smooth over this point )
G01 F600.00000
G01 X0.63499 Y3.16002
G01 X0.63499 Y4.86001
G01 X0.66166 Y4.90990
G01 X2.40669 Y4.91887
G01 X2.43743 Y4.90243
G01 X2.45498 Y4.86001
G01 X2.45498 Y4.37002
G01 X3.86087 Y4.37002
G01 X6.91539 Y7.42458
G01 X7.02688 Y7.50012
G01 X7.16998 Y7.53004
G01 X11.17000 Y7.53004
G01 X11.30220 Y7.50461
G01 X11.42453 Y7.42458
G01 X14.22409 Y4.62504
G01 X28.96003 Y4.62504
G01 X29.06275 Y4.80477
G01 X29.18609 Y4.94127
G01 X29.33473 Y5.04968
G01 X29.51985 Y5.13210
G01 X29.69985 Y5.17002
G01 X29.88383 Y5.17035
G01 X30.07618 Y5.13047
G01 X30.24438 Y5.05595
G01 X30.40834 Y4.93682
G01 X30.53460 Y4.79464
G01 X30.62632 Y4.63515
G01 X30.68510 Y4.45422
G01 X30.70465 Y4.27129
G01 X30.68510 Y4.07582
G01 X30.62632 Y3.89489
G01 X30.53460 Y3.73540
G01 X30.40834 Y3.59319
G01 X30.25525 Y3.48034
G01 X30.08205 Y3.40180
G01 X29.88383 Y3.35966
G01 X29.69985 Y3.35999
G01 X29.51985 Y3.39791
G01 X29.33473 Y3.48034
G01 X29.18609 Y3.58874
G01 X29.06275 Y3.72524
G01 X28.96003 Y3.90503
G01 X14.01058 Y3.91110
G01 X13.93189 Y3.93495
G01 X13.82044 Y4.01049
G01 X11.02087 Y6.81002
G01 X7.31908 Y6.81002
G01 X4.20494 Y3.70767
G01 X4.08591 Y3.65837
G01 X4.00996 Y3.65001
G01 X2.45498 Y3.65001
G01 X2.45498 Y3.16002
G01 X2.43743 Y3.11757
G01 X2.40669 Y3.10117
G01 X0.69499 Y3.10002
G01 X0.65257 Y3.11757
G01 X0.63499 Y3.16002

G04 P0 ( dwell for no time -- G64 should not smooth over this point )
G00 Z3.000 ( retract )

M5 ( Spindle off. )
G04 P1.000000
M9 ( Coolant off. )
M2 ( Program end. )

