( pcb2gcode 2.0.0 )
( Software-independent Gcode )

G94 ( Millimeters per minute feed rate. )
G21 ( Units == Millimeters. )

G90 ( Absolute coordinates. )
G00 S10000 ( RPM spindle speed. )
G01 F600.00000 ( Feedrate. )


G00 Z3.00000 (Retract to tool change height)
T0
M5      (Spindle stop.)
G04 P1.00000 (Wait for spindle to stop)
(MSG, Change tool bit to cutter diameter 0.12000mm)
M6      (Tool change.)
M0      (Temporary machine stop.)
M3 ( Spindle on clockwise. )
G04 P1.00000 (Wait for spindle to get up to speed)
G04 P0 ( dwell for no time -- G64 should not smooth over this point )
G00 Z3.00000 ( retract )

G00 X0.10997 Y0.17001 ( rapid move to begin. )
G01 Z-0.07000 F300.00000 ( plunge. )
G04 P0 ( dwell for no time -- G64 should not smooth over this point )
G01 F600.00000
G01 X0.10997 Y27.17000
G01 X0.13664 Y27.21991
G01 X0.16999 Y27.23002
G01 X34.16998 Y27.23002
G01 X34.21986 Y27.20335
G01 X34.22997 Y27.17000
G01 X34.22997 Y0.17001
G01 X34.20330 Y0.12012
G01 X34.16998 Y0.11001
G01 X0.16999 Y0.11001
G01 X0.12755 Y0.12759
G01 X0.10997 Y0.17001

G04 P0 ( dwell for no time -- G64 should not smooth over this point )
G00 Z3.000 ( retract )

M5 ( Spindle off. )
G04 P1.000000
M9 ( Coolant off. )
M2 ( Program end. )

