; generated by PrusaSlicer 2.6.0+linux-x64-GTK3 on 2023-09-19 at 11:19:10 UTC


;
;

;
;

;
;
; 

; external perimeters extrusion width = 0.45mm
; perimeters extrusion width = 0.45mm
; infill extrusion width = 0.45mm
; solid infill extrusion width = 0.45mm
; top infill extrusion width = 0.40mm
; first layer extrusion width = 0.50mm

M73 P0 R174
M201 X2500 Y2500 Z200 E2500 ; sets maximum accelerations, mm/sec^2
M203 X200 Y200 Z40 E100 ; sets maximum feedrates, mm / sec
M204 P2000 R1200 T2000 ; sets acceleration (P, T) and retract acceleration (R), mm/sec^2
M205 X8.00 Y8.00 Z2.00 E10.00 ; sets the jerk limits, mm/sec
M205 S0 T0 ; sets the minimum extruding and travel feed rate, mm/sec
;TYPE:Custom
M17 ; enable steppers
M862.3 P "MK4" ; printer model check
M862.1 P0.4 ; nozzle diameter check
M555 X67.5 Y49.5 W115 H107

G90 ; use absolute coordinates
M83 ; extruder relative mode

M140 S60 ; set bed temp

M104 S170 ; set extruder temp for bed leveling
M109 R170 ; wait for temp


M84 E ; turn off E motor

G28 ; home all without mesh bed level

G1 X42 Y-4 Z5 F4800

M302 S160 ; lower cold extrusion limit to 160C


G1 E-2 F2400 ; retraction


M84 E ; turn off E motor

G29 P9 X10 Y-4 W32 H4

M106 S100

G0 Z40 F10000

M190 S60 ; wait for bed temp

M107

;
; MBL
;
M84 E ; turn off E motor
G29 P1 ; invalidate mbl & probe print area
G29 P1 X0 Y0 W50 H20 C ; probe near purge place
G29 P3.2 ; interpolate mbl probes
G29 P3.13 ; extrapolate mbl outside probe area
G29 A ; activate mbl

; prepare for purge
M104 S215
G0 X0 Y-4 Z15 F4800 ; move away and ready for the purge
M109 S215

G92 E0
M569 S0 E ; set spreadcycle mode for extruder

;
; Extrude purge line
;
G92 E0 ; reset extruder position
G1 E2 F2400 ; deretraction after the initial one before nozzle cleaning
G0 E7 X15 Z0.2 F500 ; purge
G0 X25 E4 F500 ; purge
G0 X35 E4 F650 ; purge
G0 X45 E4 F800 ; purge
G0 X48 Z0.05 F8000 ; wipe, move close to the bed
G0 X51 Z0.2 F8000 ; wipe, move quickly away from the bed

G92 E0
M221 S100 ; set flow to 100%
G21 ; set units to millimeters
G90 ; use absolute coordinates
M83 ; use relative distances for extrusion
M900 K0.05 ; Filament gcode



M142 S36 ; set heatbreak target temp
M107
;LAYER_CHANGE
;Z:0.2
;HEIGHT:0.2
;BEFORE_LAYER_CHANGE
G92 E0.0
;0.2


G1 E-.8 F2100
G1 Z.2 F720
;AFTER_LAYER_CHANGE
;0.2
; printing object carriage.stl id:0 copy 0
G1 Z.4
G1 X166.615 Y98.183 F12000
G1 Z.2 F720
G1 E.8 F1500
M204 P600
;TYPE:Perimeter
;WIDTH:0.499999
G1 F1200
G1 X166.593 Y98.279 E.00374
G1 X166.593 Y118.721 E.77692
G1 X166.606 Y118.854 E.00508
G1 X166.724 Y119.124 E.0112
G1 X166.964 Y119.331 E.01205
G1 X167.279 Y119.407 E.01232
G1 X181.593 Y119.407 E.54402
G1 X181.593 Y127.593 E.31112
G1 X167.279 Y127.593 E.54402
G1 X167.055 Y127.63 E.00863
G1 X166.831 Y127.759 E.00982
G1 X166.661 Y127.98 E.0106
G1 X166.593 Y128.279 E.01165
G1 X166.593 Y155.593 E1.0381
G1 X68.407 Y155.593 E3.73168
G1 X68.407 Y78.876 E2.91573
G1 X92.876 Y54.407 E1.31518
G1 X166.593 Y54.407 E2.80171
G1 X166.593 Y87.947 E1.27473
G1 X166.607 Y88.862 E.03478
G1 X166.74 Y89.146 E.01192
G1 X166.984 Y89.34 E.01185
G1 X167.279 Y89.407 E.0115
G1 X181.593 Y89.407 E.54402
G1 X181.593 Y97.593 E.31112
G1 X167.279 Y97.593 E.54402
G1 X167.071 Y97.625 E.008
G1 X166.852 Y97.742 E.00944
G1 X166.662 Y97.98 E.01157
G1 X166.628 Y98.124 E.00562
M204 P1000
G1 X167.05 Y98.279 F12000
M204 P600
;TYPE:External perimeter
G1 F1200
G1 X167.05 Y118.721 E.77692
G1 X167.114 Y118.88 E.00651
G1 X167.279 Y118.95 E.00681
G1 X182.05 Y118.95 E.56139
G1 X182.05 Y128.05 E.34586
G1 X167.279 Y128.05 E.56139
G1 X167.114 Y128.12 E.00681
G1 X167.05 Y128.279 E.00651
G1 X167.05 Y156.05 E1.05547
G1 X67.95 Y156.05 E3.76642
G1 X67.95 Y78.686 E2.94032
G1 X92.686 Y53.95 E1.32953
G1 X167.05 Y53.95 E2.8263
G1 X167.05 Y88.721 E1.32152
G1 X167.121 Y88.887 E.00686
G1 X167.279 Y88.95 E.00646
G1 X182.05 Y88.95 E.56139
G1 X182.05 Y98.05 E.34586
G1 X167.279 Y98.05 E.56139
M73 P0 R173
G1 X167.121 Y98.113 E.00646
G1 X167.074 Y98.223 E.00455
M204 P1000
G1 X166.664 Y98.382 F12000
G1 E-.64 F2100
;WIPE_START
G1 F9600
G1 X167.073 Y98.993 E-.16
;WIPE_END
G1 Z.4 F720
G1 X150.165 Y104.94 F12000
G1 Z.2 F720
G1 E.8 F1500
M204 P600
;TYPE:Perimeter
G1 F1200
G1 X150.571 Y104.896 E.01552
G1 X151.215 Y104.997 E.02478
G1 X151.729 Y105.284 E.02237
G1 X151.933 Y105.464 E.01034
G1 X152.262 Y105.905 E.02091
G1 X152.462 Y106.564 E.02617
G1 X152.478 Y106.819 E.00971
G1 X152.397 Y107.367 E.02105
G1 X152.116 Y107.907 E.02314
G1 X151.941 Y108.116 E.01036
G1 X151.526 Y108.445 E.02013
G1 X151.3 Y108.547 E.00942
G1 X150.795 Y108.686 E.01991
G1 X150.584 Y108.693 E.00802
G1 X150.062 Y108.626 E.02
G1 X149.846 Y108.546 E.00875
G1 X149.385 Y108.278 E.02027
G1 X149.223 Y108.124 E.0085
G1 X148.918 Y107.72 E.01924
G1 X148.795 Y107.431 E.01194
G1 X148.678 Y106.937 E.01929
G1 X148.716 Y106.389 E.02088
G1 X148.739 Y106.319 E.0028
G1 X148.509 Y106.414 E.00946
G1 X147.98 Y106.521 E.02051
G1 X147.578 Y106.531 E.01528
G1 X147.045 Y106.451 E.02048
G1 X146.539 Y106.267 E.02046
G1 X146.079 Y105.987 E.02047
G1 X145.684 Y105.62 E.02049
G1 X145.37 Y105.183 E.02045
G1 X145.148 Y104.692 E.02048
G1 X145.028 Y104.167 E.02047
G1 X145.015 Y103.629 E.02045
G1 X145.108 Y103.098 E.02049
G1 X145.305 Y102.597 E.02046
G1 X145.597 Y102.144 E.02048
G1 X145.973 Y101.759 E.02045
G1 X146.418 Y101.455 E.02048
G1 X147.029 Y101.215 E.02495
G1 X147.812 Y101.131 E.02993
G1 X148.378 Y101.209 E.02171
G1 X148.885 Y101.393 E.0205
G1 X149.344 Y101.674 E.02045
G1 X149.739 Y102.04 E.02047
G1 X150.054 Y102.477 E.02047
G1 X150.275 Y102.968 E.02046
G1 X150.406 Y103.61 E.0249
G1 X150.395 Y104.166 E.02114
G1 X150.275 Y104.692 E.0205
G1 X150.189 Y104.886 E.00807
M204 P1000
G1 X149.83 Y104.563 F12000
M204 P600
;TYPE:External perimeter
G1 F1200
G1 X149.813 Y104.628 E.00255
;WIDTH:0.521427
G1 X149.589 Y105.077 E.01996
G1 X149.086 Y105.602 E.02893
;WIDTH:0.510342
G1 X148.561 Y105.896 E.02339
;WIDTH:0.499999
G1 X148.102 Y106.038 E.01826
G1 X147.566 Y106.074 E.02042
G1 X147.081 Y105.989 E.01871
G1 X146.666 Y105.821 E.01702
G1 X146.292 Y105.574 E.01703
G1 X145.974 Y105.258 E.01704
G1 X145.726 Y104.886 E.01699
G1 X145.556 Y104.471 E.01704
G1 X145.472 Y104.031 E.01702
G1 X145.476 Y103.584 E.01699
G1 X145.569 Y103.145 E.01706
G1 X145.748 Y102.735 E.017
G1 X146.004 Y102.367 E.01704
G1 X146.327 Y102.058 E.01699
G1 X146.712 Y101.816 E.01728
G1 X147.185 Y101.644 E.01913
G1 X147.846 Y101.586 E.02522
G1 X148.343 Y101.671 E.01916
G1 X148.758 Y101.839 E.01702
G1 X149.132 Y102.086 E.01703
G1 X149.449 Y102.402 E.01701
G1 X149.698 Y102.775 E.01704
G1 X149.869 Y103.195 E.01723
G1 X149.956 Y103.689 E.01906
G1 X149.932 Y104.188 E.01899
G1 X149.846 Y104.505 E.01248
M204 P1000
G1 X149.88 Y104.609 F12000
G1 X150.078 Y105.45
M204 P600
;WIDTH:0.524346
G1 F1200
G1 X150.205 Y105.398 E.00549
;WIDTH:0.499999
G1 X150.514 Y105.35 E.01188
G1 X151.05 Y105.423 E.02056
G1 X151.5 Y105.68 E.0197
G1 X151.861 Y106.126 E.02181
G1 X152.019 Y106.677 E.02179
G1 X151.972 Y107.183 E.01931
G1 X151.714 Y107.689 E.02159
G1 X151.656 Y107.758 E.00343
G1 X151.261 Y108.072 E.01918
G1 X150.731 Y108.232 E.02104
G1 X150.16 Y108.179 E.02179
G1 X149.655 Y107.908 E.02178
G1 X149.295 Y107.462 E.02178
G1 X149.143 Y106.977 E.01932
G1 X149.171 Y106.462 E.0196
;WIDTH:0.511887
G1 X149.387 Y105.962 E.02124
;WIDTH:0.524346
G1 X149.804 Y105.562 E.02313
G1 X150.023 Y105.473 E.00946
M204 P1000
G1 X150.085 Y105.314 F12000
G1 E-.64 F2100
;WIPE_START
G1 F9600
G1 X150.205 Y105.398 E-.04091
G1 X150.514 Y105.35 E-.06498
G1 X150.772 Y105.385 E-.05411
;WIPE_END
G1 Z.4 F720
G1 X139.681 Y91.25 F12000
G1 Z.2 F720
G1 E.8 F1500
M204 P600
;TYPE:Perimeter
;WIDTH:0.499999
G1 F1200
G1 X139.684 Y91.07 E.00684
G1 X139.78 Y90.595 E.01842
G1 X139.886 Y90.345 E.01032
G1 X140.184 Y89.909 E.02007
G1 X140.689 Y89.526 E.02409
G1 X140.923 Y89.424 E.0097
G1 X141.426 Y89.31 E.0196
G1 X141.666 Y89.309 E.00912
G1 X142.16 Y89.397 E.01907
G1 X142.382 Y89.484 E.00906
G1 X142.829 Y89.766 E.02009
G1 X143.225 Y90.262 E.02412
G1 X143.343 Y90.507 E.01034
G1 X143.467 Y90.994 E.0191
G1 X143.478 Y91.231 E.00902
G1 X143.403 Y91.757 E.02019
G1 X143.114 Y92.32 E.02405
G1 X142.988 Y92.482 E.0078
G1 X143.509 Y92.586 E.02019
G1 X143.981 Y92.779 E.01938
G1 X144.411 Y93.062 E.01956
G1 X144.798 Y93.445 E.02069
G1 X145.098 Y93.891 E.02043
G1 X145.299 Y94.372 E.01981
G1 X145.402 Y94.873 E.01944
G1 X145.408 Y95.413 E.02052
G1 X145.28 Y96.014 E.02335
G1 X145.054 Y96.521 E.0211
G1 X144.74 Y96.959 E.02048
G1 X144.346 Y97.325 E.02044
G1 X143.886 Y97.606 E.02049
G1 X143.38 Y97.791 E.02048
G1 X142.847 Y97.871 E.02048
G1 X142.31 Y97.844 E.02044
G1 X141.788 Y97.712 E.02046
G1 X141.302 Y97.478 E.0205
G1 X140.873 Y97.153 E.02046
G1 X140.516 Y96.749 E.02049
G1 X140.247 Y96.283 E.02045
G1 X140.083 Y95.798 E.01946
G1 X140.008 Y95.24 E.0214
G1 X140.048 Y94.701 E.02054
G1 X140.194 Y94.183 E.02045
G1 X140.44 Y93.703 E.0205
G1 X140.808 Y93.261 E.02186
G1 X141.08 Y93.029 E.01359
G1 X140.761 Y92.919 E.01282
G1 X140.258 Y92.582 E.02301
G1 X139.886 Y92.067 E.02415
G1 X139.78 Y91.816 E.01036
G1 X139.68 Y91.31 E.0196
M204 P1000
G1 X140.148 Y91.161 F12000
M204 P600
;TYPE:External perimeter
G1 F1200
G1 X140.228 Y90.686 E.01831
G1 X140.536 Y90.203 E.02177
G1 X140.947 Y89.903 E.01934
G1 X141.497 Y89.762 E.02158
G1 X142.064 Y89.844 E.02177
G1 X142.506 Y90.095 E.01932
G1 X142.861 Y90.538 E.02158
G1 X143.019 Y91.088 E.02175
G1 X142.972 Y91.595 E.01935
G1 X142.713 Y92.1 E.02157
;WIDTH:0.503111
G1 X142.275 Y92.47 E.02194
;WIDTH:0.516344
G1 X141.688 Y92.648 E.02415
G1 X141.093 Y92.568 E.02363
;WIDTH:0.499999
G1 X140.654 Y92.307 E.01941
G1 X140.536 Y92.209 E.00583
G1 X140.249 Y91.786 E.01943
G1 X140.132 Y91.251 E.02081
G1 X140.137 Y91.22 E.00119
M204 P1000
G1 X139.813 Y90.941 F12000
G1 E-.64 F2100
;WIPE_START
G1 F9600
G1 X140.228 Y90.686 E-.11257
G1 X140.351 Y90.494 E-.04743
;WIPE_END
G1 Z.4 F720
G1 X141.636 Y93.213 F12000
G1 Z.2 F720
G1 E.8 F1500
M204 P600
;WIDTH:0.509551
G1 F1200
G1 X141.677 Y93.185 E.00193
;WIDTH:0.516344
G1 X141.815 Y93.104 E.0063
G1 X142.295 Y92.965 E.01967
;WIDTH:0.506462
G1 X142.848 Y92.927 E.02136
;WIDTH:0.499999
G1 X143.342 Y93.011 E.01904
G1 X143.758 Y93.179 E.01705
G1 X144.132 Y93.426 E.01703
G1 X144.449 Y93.742 E.01701
G1 X144.698 Y94.114 E.01701
G1 X144.868 Y94.529 E.01704
G1 X144.952 Y94.969 E.01702
G1 X144.946 Y95.422 E.01722
G1 X144.834 Y95.912 E.0191
G1 X144.619 Y96.362 E.01895
G1 X144.289 Y96.766 E.01983
G1 X143.919 Y97.059 E.01794
G1 X143.616 Y97.229 E.0132
G1 X143.19 Y97.368 E.01703
G1 X142.745 Y97.419 E.01702
G1 X142.176 Y97.346 E.0218
G1 X141.911 Y97.272 E.01046
G1 X141.473 Y97.047 E.01871
G1 X141.066 Y96.694 E.02048
G1 X140.841 Y96.418 E.01353
G1 X140.631 Y96.022 E.01704
G1 X140.503 Y95.593 E.01701
G1 X140.463 Y95.149 E.01694
G1 X140.512 Y94.702 E.01709
G1 X140.648 Y94.275 E.01703
G1 X140.871 Y93.879 E.01727
G1 X141.204 Y93.503 E.01909
;WIDTH:0.509551
G1 X141.586 Y93.246 E.01786
M204 P1000
G1 E-.64 F2100
;WIPE_START
G1 F9600
G1 X141.677 Y93.185 E-.02277
G1 X141.815 Y93.104 E-.03325
G1 X142.295 Y92.965 E-.10385
G1 X142.296 Y92.965 E-.00013
;WIPE_END
G1 Z.4 F720
G1 X114.069 Y123.366 F12000
G1 Z.2 F720
G1 E.8 F1500
M204 P600
;TYPE:Perimeter
;WIDTH:0.499999
G1 F1200
G1 X113.29 Y122.92 E.03412
G1 X112.527 Y122.375 E.03564
G1 X111.822 Y121.758 E.03561
G1 X111.181 Y121.072 E.03568
G1 X110.612 Y120.327 E.03563
G1 X110.121 Y119.529 E.03561
G1 X109.711 Y118.685 E.03566
G1 X109.387 Y117.805 E.03564
G1 X109.152 Y116.897 E.03565
G1 X109.009 Y115.971 E.03561
G1 X108.959 Y115.048 E.03513
G1 X108.988 Y114.391 E.02499
G1 X109.128 Y113.241 E.04403
G1 X109.367 Y112.26 E.03837
G1 X109.684 Y111.378 E.03562
G1 X110.088 Y110.531 E.03567
G1 X110.411 Y109.997 E.02372
G1 X111.05 Y109.096 E.04198
G1 X111.608 Y108.467 E.03196
G1 X112.363 Y107.765 E.03918
G1 X112.791 Y107.435 E.02054
G1 X113.233 Y107.117 E.02069
G1 X114.043 Y106.645 E.03563
G1 X114.897 Y106.256 E.03567
G1 X115.551 Y106.033 E.02626
G1 X116.167 Y105.864 E.02428
G1 X116.699 Y105.742 E.02074
G1 X117.628 Y105.623 E.0356
G1 X118.565 Y105.596 E.03563
G1 X119.318 Y105.649 E.02869
G1 X119.938 Y105.736 E.02379
G1 X120.491 Y105.837 E.02137
G1 X121.328 Y106.073 E.03305
G1 X122.203 Y106.412 E.03566
G1 X122.79 Y106.709 E.025
G1 X123.636 Y107.218 E.03752
G1 X124.464 Y107.846 E.0395
G1 X125.237 Y108.577 E.04043
G1 X125.842 Y109.293 E.03563
G1 X126.373 Y110.066 E.03564
G1 X126.825 Y110.888 E.03565
G1 X127.192 Y111.751 E.03564
G1 X127.472 Y112.646 E.03564
G1 X127.661 Y113.564 E.03562
G1 X127.758 Y114.497 E.03565
G1 X127.761 Y115.435 E.03565
G1 X127.671 Y116.368 E.03562
G1 X127.489 Y117.288 E.03564
G1 X127.216 Y118.185 E.03564
G1 X126.855 Y119.05 E.03562
G1 X126.409 Y119.876 E.03568
G1 X125.884 Y120.652 E.03561
G1 X125.284 Y121.373 E.03565
G1 X124.615 Y122.03 E.03564
G1 X123.884 Y122.617 E.03563
G1 X123.098 Y123.129 E.03565
G1 X122.265 Y123.56 E.03565
G1 X121.393 Y123.906 E.03566
G1 X120.491 Y124.163 E.03565
G1 X119.569 Y124.329 E.03561
G1 X118.634 Y124.403 E.03565
G1 X117.696 Y124.383 E.03566
G1 X116.765 Y124.269 E.03565
G1 X115.85 Y124.064 E.03564
G1 X115.211 Y123.853 E.02558
G1 X114.122 Y123.394 E.04492
M204 P1000
G1 X114.304 Y122.974 F12000
M204 P600
;TYPE:External perimeter
G1 F1200
G1 X113.519 Y122.524 E.03439
G1 X112.794 Y122.004 E.03391
G1 X112.124 Y121.415 E.0339
G1 X111.516 Y120.762 E.03391
G1 X110.977 Y120.051 E.03391
G1 X110.511 Y119.29 E.03391
G1 X110.122 Y118.487 E.03391
G1 X109.816 Y117.649 E.03391
G1 X109.595 Y116.785 E.03389
G1 X109.461 Y115.902 E.03394
G1 X109.416 Y115.025 E.03338
G1 X109.444 Y114.414 E.02325
G1 X109.58 Y113.309 E.04231
G1 X109.809 Y112.373 E.03662
G1 X110.114 Y111.534 E.03393
G1 X110.5 Y110.73 E.0339
G1 X110.801 Y110.235 E.02202
G1 X111.414 Y109.372 E.04023
G1 X111.943 Y108.778 E.03023
G1 X112.665 Y108.108 E.03744
G1 X113.4 Y107.56 E.03484
G1 X114.272 Y107.041 E.03857
G1 X115.085 Y106.673 E.03392
G1 X115.696 Y106.466 E.02452
G1 X116.269 Y106.309 E.02258
G1 X116.8 Y106.188 E.0207
G1 X117.685 Y106.076 E.0339
G1 X118.577 Y106.053 E.03391
G1 X119.284 Y106.105 E.02694
G1 X119.859 Y106.186 E.02207
G1 X120.368 Y106.277 E.01965
G1 X121.205 Y106.513 E.03305
G1 X122.036 Y106.838 E.03391
G1 X122.581 Y107.116 E.02325
G1 X123.388 Y107.602 E.0358
G1 X124.179 Y108.203 E.03776
G1 X124.918 Y108.904 E.03871
G1 X125.492 Y109.587 E.03391
G1 X125.996 Y110.324 E.03393
G1 X126.424 Y111.107 E.03391
G1 X126.771 Y111.928 E.03388
G1 X127.035 Y112.781 E.03394
G1 X127.213 Y113.655 E.0339
G1 X127.303 Y114.543 E.03392
G1 X127.304 Y115.435 E.0339
G1 X127.217 Y116.323 E.03391
G1 X127.041 Y117.197 E.03388
G1 X126.779 Y118.05 E.03391
G1 X126.433 Y118.873 E.03393
G1 X126.008 Y119.657 E.03389
G1 X125.506 Y120.395 E.03392
G1 X124.933 Y121.079 E.03391
G1 X124.295 Y121.703 E.03392
G1 X123.599 Y122.26 E.03388
G1 X122.85 Y122.745 E.03391
G1 X122.056 Y123.153 E.03393
G1 X121.226 Y123.48 E.03391
G1 X120.368 Y123.723 E.03389
G1 X119.489 Y123.879 E.03393
G1 X118.6 Y123.947 E.03389
G1 X117.708 Y123.926 E.03391
G1 X116.822 Y123.816 E.03393
G1 X115.952 Y123.618 E.03391
G1 X115.357 Y123.42 E.02383
G1 X114.359 Y122.998 E.04118
M204 P1000
G1 X113.969 Y123.192 F12000
G1 E-.64 F2100
;WIPE_START
G1 F9600
G1 X113.688 Y122.62 E-.16
;WIPE_END
G1 Z.4 F720
G1 X147.838 Y113.387 F12000
G1 Z.2 F720
G1 E.8 F1500
M204 P600
;TYPE:Perimeter
G1 F1200
G1 X147.588 Y114.092 E.02843
G1 X147.149 Y114.868 E.03389
G1 X131.986 Y141.126 E1.15241
G1 X131.724 Y141.471 E.01646
G1 X131.359 Y141.83 E.01946
G1 X130.641 Y142.257 E.03175
G1 X130.117 Y142.401 E.02065
G1 X129.62 Y142.479 E.01912
G1 X128.965 Y142.426 E.02498
G1 X128.277 Y142.186 E.02769
G1 X127.798 Y141.938 E.0205
G1 X121.141 Y138.095 E.29214
G1 X120.716 Y137.788 E.01993
G1 X120.27 Y137.312 E.02479
G1 X120.155 Y137.146 E.00768
G1 X119.867 Y136.562 E.02475
G1 X119.699 Y135.727 E.03237
G1 X119.752 Y135.001 E.02767
G1 X119.937 Y134.465 E.02155
G1 X120.171 Y133.967 E.02091
G1 X135.639 Y107.181 E1.17559
G1 X135.971 Y106.768 E.02014
G1 X136.175 Y106.556 E.01118
G1 X136.614 Y106.236 E.02065
G1 X137.078 Y106.026 E.01936
G1 X137.501 Y105.895 E.01683
G1 X138.01 Y105.832 E.01949
