; generated by PrusaSlicer 2.6.0+linux-x64-GTK3 on 2023-08-31 at 10:58:21 UTC


;
;

;
;

;
;
; 

; external perimeters extrusion width = 0.45mm
; perimeters extrusion width = 0.45mm
; infill extrusion width = 0.45mm
; solid infill extrusion width = 0.45mm
; top infill extrusion width = 0.40mm
; first layer extrusion width = 0.50mm

; external perimeters extrusion width = 0.45mm
; perimeters extrusion width = 0.45mm
; infill extrusion width = 0.45mm
; solid infill extrusion width = 0.45mm
; top infill extrusion width = 0.40mm
; first layer extrusion width = 0.50mm

M73 P0 R54
M201 X2500 Y2500 Z200 E2500 ; sets maximum accelerations, mm/sec^2
M203 X200 Y200 Z40 E100 ; sets maximum feedrates, mm / sec
M204 P2000 R1200 T2000 ; sets acceleration (P, T) and retract acceleration (R), mm/sec^2
M205 X8.00 Y8.00 Z2.00 E10.00 ; sets the jerk limits, mm/sec
M205 S0 T0 ; sets the minimum extruding and travel feed rate, mm/sec
;TYPE:Custom
M17 ; enable steppers
M862.3 P "MK4" ; printer model check
M862.1 P0.4 ; nozzle diameter check
M555 X85.4035 Y80.1141 W78.9719 H44.3848

G90 ; use absolute coordinates
M83 ; extruder relative mode

M140 S60 ; set bed temp

M104 S170 ; set extruder temp for bed leveling
M109 R170 ; wait for temp


M84 E ; turn off E motor

G28 ; home all without mesh bed level

G1 X42 Y-4 Z5 F4800

M302 S160 ; lower cold extrusion limit to 160C


G1 E-2 F2400 ; retraction


M84 E ; turn off E motor

G29 P9 X10 Y-4 W32 H4

M106 S100

G0 Z40 F10000

M190 S60 ; wait for bed temp

M107

;
; MBL
;
M84 E ; turn off E motor
G29 P1 ; invalidate mbl & probe print area
G29 P1 X0 Y0 W50 H20 C ; probe near purge place
G29 P3.2 ; interpolate mbl probes
G29 P3.13 ; extrapolate mbl outside probe area
G29 A ; activate mbl

; prepare for purge
M104 S215
G0 X0 Y-4 Z15 F4800 ; move away and ready for the purge
M109 S215

G92 E0
M569 S0 E ; set spreadcycle mode for extruder

;
; Extrude purge line
;
G92 E0 ; reset extruder position
G1 E2 F2400 ; deretraction after the initial one before nozzle cleaning
G0 E7 X15 Z0.2 F500 ; purge
G0 X25 E4 F500 ; purge
G0 X35 E4 F650 ; purge
G0 X45 E4 F800 ; purge
G0 X48 Z0.05 F8000 ; wipe, move close to the bed
G0 X51 Z0.2 F8000 ; wipe, move quickly away from the bed

G92 E0
M221 S100 ; set flow to 100%
G21 ; set units to millimeters
G90 ; use absolute coordinates
M83 ; use relative distances for extrusion
M900 K0.05 ; Filament gcode



M142 S36 ; set heatbreak target temp
M107
;LAYER_CHANGE
;Z:0.2
;HEIGHT:0.2
;BEFORE_LAYER_CHANGE
G92 E0.0
;0.2


G1 E-.8 F2100
G1 Z.2 F720
;AFTER_LAYER_CHANGE
;0.2
; printing object contact-mount-mirror-1-off.stl id:1 copy 0
G1 Z.4
G1 X91.427 Y120.08 F12000
G1 Z.2 F720
G1 E.8 F1500
M204 P600
;TYPE:Perimeter
;WIDTH:0.499999
G1 F1200
G1 X91.537 Y119.955 E.00633
G1 X91.606 Y119.641 E.01222
G1 X91.559 Y119.404 E.00918
G1 X91.381 Y119.147 E.01188
G1 X90.575 Y118.415 E.04138
G1 X90.086 Y117.915 E.02658
G1 X89.621 Y117.389 E.02668
G1 X89.182 Y116.84 E.02672
G1 X88.771 Y116.271 E.02668
G1 X88.385 Y115.675 E.02699
G1 X88.036 Y115.073 E.02645
G1 X87.715 Y114.448 E.0267
G1 X87.425 Y113.808 E.0267
G1 X87.167 Y113.154 E.02672
G1 X86.943 Y112.488 E.02671
G1 X86.752 Y111.812 E.0267
G1 X86.593 Y111.121 E.02695
G1 X86.471 Y110.436 E.02644
G1 X86.383 Y109.739 E.0267
G1 X86.329 Y109.038 E.02672
G1 X86.311 Y108.336 E.02669
G1 X86.327 Y107.633 E.02673
G1 X86.379 Y106.933 E.02668
G1 X86.466 Y106.228 E.027
G1 X86.586 Y105.543 E.02643
G1 X86.742 Y104.858 E.0267
G1 X86.931 Y104.181 E.02671
G1 X87.154 Y103.515 E.02669
G1 X87.41 Y102.86 E.02673
G1 X87.698 Y102.219 E.02671
G1 X88.021 Y101.587 E.02698
G1 X88.368 Y100.984 E.02644
G1 X88.748 Y100.394 E.02667
G1 X89.158 Y99.823 E.02672
G1 X89.595 Y99.273 E.0267
G1 X90.059 Y98.745 E.02671
G1 X90.555 Y98.235 E.02704
G1 X91.069 Y97.757 E.02668
G1 X91.548 Y97.355 E.02377
G1 X91.951 Y97.044 E.01935
G1 X92.782 Y96.439 E.03907
G1 X92.946 Y96.168 E.01204
G1 X92.979 Y95.94 E.00876
G1 X92.849 Y90.984 E.18842
G1 X92.822 Y90.384 E.02283
;WIDTH:0.477095
G1 X92.801 Y90.094 E.0105
;WIDTH:0.450277
G1 X92.78 Y89.805 E.00981
;WIDTH:0.423459
G1 X92.764 Y89.237 E.01798
;WIDTH:0.461155
G1 X92.776 Y88.952 E.00992
;WIDTH:0.499999
G1 X92.788 Y88.666 E.01088
G1 X92.703 Y85.417 E.12352
G1 X106.884 Y85.045 E.53915
G1 X106.961 Y87.964 E.11098
G1 X106.996 Y88.552 E.02239
;WIDTH:0.460323
G1 X107.035 Y89.185 E.02201
;WIDTH:0.446144
G1 X107.034 Y89.734 E.01841
;WIDTH:0.473072
G1 X107.028 Y90.001 E.00955
;WIDTH:0.499999
G1 X107.021 Y90.267 E.01011
G1 X107.282 Y100.225 E.3786
G1 X100.104 Y100.417 E.27291
G1 X99.155 Y100.516 E.03626
G1 X98.601 Y100.618 E.02141
G1 X97.788 Y100.857 E.03221
G1 X97.111 Y101.127 E.0277
G1 X96.643 Y101.368 E.02001
G1 X96.138 Y101.668 E.02232
G1 X95.475 Y102.144 E.03102
G1 X94.886 Y102.665 E.02989
G1 X94.346 Y103.248 E.0302
G1 X93.871 Y103.876 E.02993
G1 X93.465 Y104.543 E.02968
G1 X93.121 Y105.258 E.03016
G1 X92.853 Y105.999 E.02995
G1 X92.66 Y106.762 E.02991
G1 X92.543 Y107.541 E.02994
G1 X92.505 Y108.327 E.02991
G1 X92.546 Y109.113 E.02991
G1 X92.663 Y109.886 E.02971
G1 X92.86 Y110.655 E.03017
G1 X93.129 Y111.392 E.02982
G1 X93.472 Y112.103 E.03
G1 X93.886 Y112.776 E.03003
G1 X94.36 Y113.401 E.02981
G1 X94.882 Y113.963 E.02915
G1 X95.395 Y114.425 E.02624
G1 X95.812 Y114.752 E.02014
G1 X96.494 Y115.188 E.03076
G1 X97.191 Y115.54 E.02968
G1 X97.928 Y115.824 E.03002
G1 X98.688 Y116.034 E.02997
G1 X99.465 Y116.166 E.02995
G1 X100.608 Y116.22 E.04349
G1 X107.697 Y116.034 E.26952
G1 X107.758 Y118.348 E.08798
G1 X107.825 Y118.625 E.01083
G1 X108.055 Y118.895 E.01348
G1 X108.244 Y118.986 E.00797
G1 X108.461 Y119.015 E.00832
G1 X109.307 Y118.993 E.03216
G1 X110.814 Y120.422 E.07893
G1 X110.827 Y120.925 E.01912
G1 X110.859 Y122.139 E.04616
G1 X90.68 Y122.669 E.76719
G1 X90.635 Y120.952 E.06528
G1 X90.981 Y120.587 E.01911
G1 X91.388 Y120.125 E.0234
M204 P1000
G1 X91.086 Y119.812 F12000
M204 P600
;TYPE:External perimeter
G1 F1200
G1 X91.149 Y119.65 E.00661
G1 X91.074 Y119.486 E.00685
G1 X90.258 Y118.745 E.04189
G1 X89.751 Y118.227 E.02755
G1 X89.271 Y117.684 E.02754
G1 X88.818 Y117.117 E.02758
G1 X88.393 Y116.529 E.02757
G1 X87.995 Y115.914 E.02784
G1 X87.635 Y115.292 E.02731
G1 X87.303 Y114.647 E.02757
G1 X87.004 Y113.986 E.02757
G1 X86.738 Y113.311 E.02757
G1 X86.506 Y112.624 E.02756
G1 X86.309 Y111.926 E.02756
G1 X86.145 Y111.212 E.02784
G1 X86.019 Y110.505 E.02729
G1 X85.928 Y109.785 E.02758
G1 X85.873 Y109.061 E.0276
G1 X85.854 Y108.336 E.02756
G1 X85.871 Y107.611 E.02756
G1 X85.924 Y106.888 E.02755
G1 X86.014 Y106.161 E.02784
G1 X86.138 Y105.453 E.02732
G1 X86.298 Y104.745 E.02759
G1 X86.494 Y104.047 E.02755
G1 X86.724 Y103.359 E.02757
G1 X86.988 Y102.683 E.02758
G1 X87.285 Y102.021 E.02758
G1 X87.619 Y101.369 E.02784
G1 X87.977 Y100.747 E.02728
G1 X88.37 Y100.137 E.02758
G1 X88.793 Y99.547 E.02759
G1 X89.244 Y98.979 E.02757
G1 X89.723 Y98.435 E.02755
G1 X90.174 Y97.972 E.02457
G1 X90.56 Y97.607 E.02019
G1 X90.975 Y97.24 E.02106
G1 X91.392 Y96.895 E.02057
G1 X92.001 Y96.439 E.02892
G1 X92.457 Y96.118 E.02119
G1 X92.522 Y95.952 E.00678
G1 X92.234 Y84.972 E.41745
G1 X107.329 Y84.576 E.5739
G1 X107.751 Y100.67 E.61188
G1 X100.139 Y100.873 E.28941
G1 X99.235 Y100.966 E.03454
G1 X98.725 Y101.057 E.01969
G1 X97.955 Y101.282 E.03049
G1 X97.202 Y101.594 E.03098
G1 X96.66 Y101.874 E.02319
G1 X96.038 Y102.279 E.02821
G1 X95.458 Y102.744 E.02825
G1 X94.928 Y103.264 E.02822
G1 X94.452 Y103.834 E.02822
G1 X94.036 Y104.449 E.02822
G1 X93.682 Y105.102 E.02823
G1 X93.396 Y105.787 E.02821
G1 X93.179 Y106.498 E.02825
G1 X93.034 Y107.226 E.02821
G1 X92.962 Y107.965 E.02822
G1 X92.964 Y108.708 E.02824
G1 X93.04 Y109.447 E.02823
G1 X93.189 Y110.174 E.0282
G1 X93.41 Y110.884 E.02826
G1 X93.705 Y111.575 E.02856
G1 X94.052 Y112.209 E.02747
G1 X94.479 Y112.833 E.02874
G1 X94.954 Y113.396 E.028
G1 X95.5 Y113.924 E.02887
G1 X96.06 Y114.368 E.02716
G1 X96.702 Y114.781 E.02901
G1 X97.358 Y115.114 E.02796
G1 X98.051 Y115.384 E.02827
G1 X98.766 Y115.583 E.02821
G1 X99.498 Y115.71 E.02824
G1 X100.596 Y115.763 E.04178
G1 X108.142 Y115.565 E.28689
G1 X108.221 Y118.383 E.10714
G1 X108.314 Y118.518 E.00623
G1 X108.449 Y118.558 E.00535
G1 X109.484 Y118.531 E.03935
G1 X111.266 Y120.221 E.09334
G1 X111.328 Y122.584 E.08984
G1 X90.235 Y123.137 E.80194
G1 X90.173 Y120.775 E.0898
G1 X91.045 Y119.856 E.04815
M204 P1000
G1 X91.256 Y119.779 F12000
G1 E-.64 F2100
;WIPE_START
G1 F9600
G1 X91.149 Y119.65 E-.04796
G1 X91.074 Y119.486 E-.03748
G1 X90.808 Y119.245 E-.07456
;WIPE_END
G1 Z.4 F720
G1 X98.408 Y96.505 F12000
G1 Z.2 F720
G1 E.8 F1500
M204 P600
;TYPE:Perimeter
G1 F1200
G1 X98.62 Y96.134 E.01624
G1 X98.72 Y96.018 E.00582
G1 X99.142 Y95.687 E.02038
G1 X99.381 Y95.567 E.01016
G1 X99.895 Y95.427 E.02025
G1 X100.26 Y95.44 E.01388
G1 X100.754 Y95.525 E.01905
G1 X101.264 Y95.811 E.02222
G1 X101.467 Y95.99 E.01029
G1 X101.785 Y96.414 E.02014
G1 X101.876 Y96.62 E.00856
G1 X102.003 Y97.121 E.01964
G1 X102.009 Y97.358 E.00901
G1 X101.938 Y97.836 E.01837
G1 X101.846 Y98.091 E.0103
G1 X101.595 Y98.503 E.01834
G1 X101.425 Y98.692 E.00966
G1 X101.088 Y98.949 E.01611
G1 X100.861 Y99.063 E.00965
G1 X100.227 Y99.223 E.02485
G1 X99.653 Y99.162 E.02194
G1 X99.398 Y99.079 E.01019
G1 X98.917 Y98.805 E.02104
G1 X98.519 Y98.343 E.02318
G1 X98.361 Y98.056 E.01245
G1 X98.21 Y97.471 E.02296
G1 X98.27 Y96.854 E.02356
G1 X98.354 Y96.599 E.0102
G1 X98.378 Y96.557 E.00184
M204 P1000
G1 X99.088 Y96.309 F12000
M204 P600
;TYPE:External perimeter
G1 F1200
G1 X99.429 Y96.042 E.01646
G1 X99.963 Y95.881 E.0212
G1 X100.531 Y95.936 E.02169
G1 X101.034 Y96.207 E.02172
G1 X101.394 Y96.651 E.02172
G1 X101.552 Y97.201 E.02175
G1 X101.486 Y97.768 E.0217
G1 X101.204 Y98.266 E.02175
G1 X100.811 Y98.586 E.01926
G1 X100.271 Y98.757 E.02153
G1 X99.707 Y98.708 E.02152
G1 X99.205 Y98.447 E.0215
G1 X98.878 Y98.06 E.01926
G1 X98.801 Y97.933 E.00564
G1 X98.665 Y97.432 E.01973
G1 X98.724 Y96.91 E.01997
G1 X98.987 Y96.409 E.02151
G1 X99.04 Y96.346 E.00313
M204 P1000
G1 X98.985 Y95.923 F12000
G1 E-.64 F2100
;WIPE_START
G1 F9600
G1 X99.429 Y96.042 E-.1026
G1 X99.693 Y95.962 E-.0574
;WIPE_END
G1 Z.4 F720
G1 X101.627 Y87.93 F12000
G1 Z.2 F720
G1 E.8 F1500
M204 P600
;TYPE:Perimeter
G1 F1200
G1 X101.656 Y87.865 E.00271
G1 X101.97 Y87.427 E.02048
G1 X102.364 Y87.06 E.02046
G1 X102.824 Y86.779 E.02049
G1 X103.313 Y86.597 E.01983
G1 X103.845 Y86.516 E.02045
G1 X104.399 Y86.54 E.02108
G1 X104.92 Y86.672 E.02043
G1 X105.406 Y86.905 E.02048
G1 X105.836 Y87.229 E.02046
G1 X106.193 Y87.632 E.02046
G1 X106.463 Y88.098 E.02047
G1 X106.616 Y88.614 E.02046
;WIDTH:0.460323
G1 X106.661 Y89.147 E.01856
;WIDTH:0.443001
G1 X106.635 Y89.677 E.01765
;WIDTH:0.4715
G1 X106.577 Y89.938 E.00953
;WIDTH:0.499999
G1 X106.519 Y90.199 E.01016
G1 X106.274 Y90.678 E.02045
G1 X105.939 Y91.1 E.02048
G1 X105.527 Y91.447 E.02047
G1 X105.054 Y91.705 E.02048
G1 X104.541 Y91.865 E.02042
G1 X103.886 Y91.916 E.02497
G1 X103.336 Y91.837 E.02112
G1 X102.83 Y91.653 E.02046
G1 X102.37 Y91.373 E.02047
G1 X101.975 Y91.008 E.02044
G1 X101.659 Y90.571 E.0205
G1 X101.437 Y90.08 E.02048
G1 X101.316 Y89.555 E.02048
G1 X101.302 Y89.017 E.02045
G1 X101.357 Y88.674 E.0132
G1 X101.435 Y88.356 E.01244
G1 X101.602 Y87.985 E.01546
M204 P1000
G1 X101.932 Y88.361 F12000
M204 P600
;TYPE:External perimeter
G1 F1200
G1 X102.034 Y88.122 E.00988
G1 X102.289 Y87.754 E.01702
G1 X102.613 Y87.444 E.01704
G1 X102.991 Y87.204 E.01702
G1 X103.415 Y87.043 E.01724
G1 X103.914 Y86.968 E.01918
G1 X104.41 Y87.003 E.0189
G1 X104.84 Y87.128 E.01702
G1 X105.236 Y87.336 E.017
G1 X105.584 Y87.619 E.01705
G1 X105.869 Y87.964 E.01701
G1 X106.08 Y88.359 E.01702
G1 X106.208 Y88.789 E.01705
G1 X106.248 Y89.235 E.01702
G1 X106.2 Y89.68 E.01701
G1 X106.064 Y90.107 E.01703
G1 X105.847 Y90.498 E.017
G1 X105.556 Y90.839 E.01704
G1 X105.203 Y91.115 E.01703
G1 X104.803 Y91.315 E.017
G1 X104.366 Y91.433 E.0172
G1 X103.859 Y91.459 E.01929
G1 X103.363 Y91.371 E.01915
G1 X102.956 Y91.207 E.01668
G1 X102.474 Y90.856 E.02266
G1 X102.264 Y90.645 E.01131
G1 X102.015 Y90.273 E.01701
G1 X101.845 Y89.859 E.01701
G1 X101.76 Y89.419 E.01703
G1 X101.764 Y88.971 E.01703
G1 X101.805 Y88.764 E.00802
G1 X101.914 Y88.418 E.01379
M204 P1000
G1 X101.767 Y88.16 F12000
G1 E-.64 F2100
;WIPE_START
G1 F9600
G1 X102.034 Y88.122 E-.06638
G1 X102.289 Y87.754 E-.09304
G1 X102.291 Y87.752 E-.00058
;WIPE_END
G1 Z.4 F720
G1 X97.956 Y91.045 F12000
G1 Z.2 F720
G1 E.8 F1500
M204 P600
;TYPE:Perimeter
G1 F1200
G1 X97.742 Y91.315 E.01309
G1 X97.329 Y91.662 E.0205
G1 X96.809 Y91.933 E.02229
G1 X96.21 Y92.104 E.02368
G1 X95.672 Y92.131 E.02047
G1 X95.139 Y92.052 E.02048
G1 X94.633 Y91.869 E.02045
G1 X94.173 Y91.588 E.02049
G1 X93.777 Y91.223 E.02047
G1 X93.462 Y90.786 E.02047
G1 X93.25 Y90.291 E.02047
;WIDTH:0.477095
G1 X93.204 Y90.027 E.00967
;WIDTH:0.450309
G1 X93.157 Y89.763 E.00908
;WIDTH:0.423523
G1 X93.144 Y89.232 E.01681
;WIDTH:0.461155
G1 X93.171 Y88.967 E.00926
;WIDTH:0.499999
G1 X93.198 Y88.702 E.01012
G1 X93.394 Y88.2 E.02048
G1 X93.685 Y87.747 E.02046
G1 X94.06 Y87.361 E.02045
G1 X94.505 Y87.057 E.02048
G1 X95.001 Y86.847 E.02047
G1 X95.648 Y86.731 E.02498
G1 X96.201 Y86.755 E.02104
G1 X96.723 Y86.887 E.02046
G1 X97.209 Y87.12 E.02048
G1 X97.639 Y87.444 E.02046
G1 X97.996 Y87.847 E.02046
G1 X98.266 Y88.313 E.02047
G1 X98.438 Y88.824 E.02049
G1 X98.506 Y89.358 E.02046
G1 X98.467 Y89.896 E.0205
G1 X98.322 Y90.414 E.02044
G1 X98.077 Y90.894 E.02048
G1 X97.994 Y90.998 E.00506
M204 P1000
G1 X97.534 Y90.849 F12000
M204 P600
;TYPE:External perimeter
G1 F1200
G1 X97.358 Y91.054 E.01027
G1 X97 Y91.333 E.01725
G1 X96.548 Y91.551 E.01907
G1 X96.062 Y91.664 E.01896
G1 X95.615 Y91.671 E.01699
G1 X95.174 Y91.589 E.01705
G1 X94.759 Y91.422 E.017
G1 X94.385 Y91.176 E.01701
G1 X94.067 Y90.86 E.01704
G1 X93.818 Y90.488 E.01701
G1 X93.661 Y90.117 E.01531
G1 X93.563 Y89.634 E.01873
G1 X93.566 Y89.186 E.01703
G1 X93.659 Y88.748 E.01702
G1 X93.837 Y88.337 E.01702
G1 X94.092 Y87.969 E.01702
G1 X94.509 Y87.599 E.02119
G1 X94.794 Y87.419 E.01281
G1 X95.218 Y87.259 E.01722
G1 X95.716 Y87.183 E.01915
G1 X96.212 Y87.218 E.0189
G1 X96.642 Y87.344 E.01703
G1 X97.039 Y87.551 E.01702
G1 X97.387 Y87.834 E.01705
G1 X97.743 Y88.309 E.02256
G1 X97.882 Y88.575 E.01141
G1 X98.011 Y89.004 E.01703
G1 X98.051 Y89.45 E.01702
G1 X98.003 Y89.895 E.01701
G1 X97.867 Y90.322 E.01703
G1 X97.573 Y90.803 E.02143
M204 P1000
G1 X97.645 Y91.095 F12000
G1 E-.64 F2100
;WIPE_START
G1 F9600
G1 X97.358 Y91.054 E-.06868
G1 X97.011 Y91.324 E-.09132
;WIPE_END
G1 Z.4 F720
G1 X106.848 Y91.526 F12000
G1 Z.2 F720
G1 E.8 F1500
M204 P600
;TYPE:Solid infill
;WIDTH:0.500789
G1 F1200
G1 X106.451 Y91.129 E.02138
G1 X106.248 Y91.371 E.01203
G1 X106.146 Y91.471 E.00544
G1 X106.654 Y91.98 E.02738
G1 X106.672 Y92.645 E.02533
G1 X105.79 Y91.763 E.04749
G1 X105.608 Y91.883 E.0083
G1 X105.38 Y92 E.00976
G1 X106.689 Y93.31 E.07051
G1 X106.707 Y93.975 E.02533
G1 X104.918 Y92.186 E.09632
G1 X104.643 Y92.263 E.01087
G1 X104.386 Y92.302 E.0099
G1 X106.724 Y94.64 E.12588
G1 X106.742 Y95.305 E.02533
G1 X103.51 Y92.073 E.17402
M204 P1000
G1 E-.64 F2100
;WIPE_START
G1 F9600
G1 X104.054 Y92.617 E-.16
;WIPE_END
G1 Z.4 F720
G1 X106.709 Y86.206 F12000
G1 Z.2 F720
G1 E.8 F1500
M204 P600
G1 F1200
G1 X105.982 Y85.48 E.03912
G1 X105.351 Y85.496 E.02403
G1 X106.515 Y86.66 E.06267
G1 X106.532 Y87.324 E.02529
G1 X104.72 Y85.513 E.09753
G1 X104.089 Y85.53 E.02403
G1 X104.759 Y86.199 E.03605
G1 X104.437 Y86.13 E.01254
G1 X104.015 Y86.103 E.0161
G1 X103.458 Y85.546 E.02999
G1 X102.827 Y85.563 E.02403
G1 X103.43 Y86.166 E.03247
G1 X103.229 Y86.194 E.00773
G1 X102.917 Y86.3 E.01255
G1 X102.197 Y85.579 E.03879
G1 X101.566 Y85.596 E.02403
G1 X102.471 Y86.501 E.04873
G1 X102.083 Y86.76 E.01776
G1 X100.935 Y85.612 E.06181
G1 X100.304 Y85.629 E.02403
G1 X101.746 Y87.071 E.07764
G1 X101.547 Y87.293 E.01135
G1 X101.455 Y87.428 E.00622
G1 X99.673 Y85.645 E.09597
G1 X99.042 Y85.662 E.02403
G1 X101.21 Y87.83 E.11673
G1 X101.022 Y88.29 E.01892
G1 X98.411 Y85.679 E.14058
G1 X97.78 Y85.695 E.02403
G1 X100.912 Y88.827 E.16863
G1 X100.895 Y88.91 E.00323
