; generated by PrusaSlicer 2.6.0+linux-x64-GTK3 on 2023-10-03 at 11:35:17 UTC


;
;

;
;

;
;
; 

; external perimeters extrusion width = 0.45mm
; perimeters extrusion width = 0.45mm
; infill extrusion width = 0.45mm
; solid infill extrusion width = 0.45mm
; top infill extrusion width = 0.40mm
; support material extrusion width = 0.37mm
; first layer extrusion width = 0.50mm

M73 P0 R106
M201 X2500 Y2500 Z200 E2500 ; sets maximum accelerations, mm/sec^2
M203 X200 Y200 Z40 E100 ; sets maximum feedrates, mm / sec
M204 P2000 R1200 T2000 ; sets acceleration (P, T) and retract acceleration (R), mm/sec^2
M205 X8.00 Y8.00 Z2.00 E10.00 ; sets the jerk limits, mm/sec
M205 S0 T0 ; sets the minimum extruding and travel feed rate, mm/sec
;TYPE:Custom
M17 ; enable steppers
M862.3 P "MK4" ; printer model check
M862.1 P0.4 ; nozzle diameter check
M555 X86.5893 Y67.7336 W76.8214 H70.5327

G90 ; use absolute coordinates
M83 ; extruder relative mode

M140 S60 ; set bed temp

M104 S170 ; set extruder temp for bed leveling
M109 R170 ; wait for temp


M84 E ; turn off E motor

G28 ; home all without mesh bed level

G1 X42 Y-4 Z5 F4800

M302 S160 ; lower cold extrusion limit to 160C


G1 E-2 F2400 ; retraction


M84 E ; turn off E motor

G29 P9 X10 Y-4 W32 H4

M106 S100

G0 Z40 F10000

M190 S60 ; wait for bed temp

M107

;
; MBL
;
M84 E ; turn off E motor
G29 P1 ; invalidate mbl & probe print area
G29 P1 X0 Y0 W50 H20 C ; probe near purge place
G29 P3.2 ; interpolate mbl probes
G29 P3.13 ; extrapolate mbl outside probe area
G29 A ; activate mbl

; prepare for purge
M104 S215
G0 X0 Y-4 Z15 F4800 ; move away and ready for the purge
M109 S215

G92 E0
M569 S0 E ; set spreadcycle mode for extruder

;
; Extrude purge line
;
G92 E0 ; reset extruder position
G1 E2 F2400 ; deretraction after the initial one before nozzle cleaning
G0 E7 X15 Z0.2 F500 ; purge
G0 X25 E4 F500 ; purge
G0 X35 E4 F650 ; purge
G0 X45 E4 F800 ; purge
G0 X48 Z0.05 F8000 ; wipe, move close to the bed
G0 X51 Z0.2 F8000 ; wipe, move quickly away from the bed

G92 E0
M221 S100 ; set flow to 100%
G21 ; set units to millimeters
G90 ; use absolute coordinates
M83 ; use relative distances for extrusion
M900 K0.05 ; Filament gcode



M142 S36 ; set heatbreak target temp
M107
;LAYER_CHANGE
;Z:0.2
;HEIGHT:0.2
;BEFORE_LAYER_CHANGE
G92 E0.0
;0.2


G1 E-.8 F2100
G1 Z.2 F720
;AFTER_LAYER_CHANGE
;0.2
; printing object ptfe-support.stl id:0 copy 0
G1 Z.4
G1 X125.293 Y88.518 F12000
G1 Z.2 F720
G1 E.8 F1500
M204 P600
;TYPE:Support material
;WIDTH:0.5
G1 F1200
G1 X126.986 Y88.599 E.06442
G1 X128.617 Y89.085 E.06468
G1 X129.15 Y89.272 E.02147
G1 X129.677 Y89.486 E.02162
G1 X131.632 Y90.391 E.08188
G1 X131.787 Y93.746 E.12765
G1 X128.392 Y95.707 E.14901
G1 X130.642 Y99.604 E.17102
G1 X134.03 Y97.648 E.14868
G1 X136.865 Y99.447 E.12761
G1 X136.674 Y101.59 E.08177
G1 X136.596 Y102.155 E.02168
G1 X136.491 Y102.712 E.02154
G1 X136.36 Y103.264 E.02156
G1 X136.202 Y103.808 E.02153
G1 X136.019 Y104.342 E.02145
G1 X135.883 Y104.684 E.01399
G1 X135.846 Y104.859 E.0068
G1 X135.597 Y105.476 E.02529
G1 X135.37 Y105.92 E.01895
G1 X135.161 Y106.162 E.01215
G1 X134.601 Y107.13 E.0425
G1 X133.868 Y107.97 E.04237
G1 X133.675 Y108.3 E.01453
G1 X133.553 Y108.405 E.00612
G1 X133.154 Y109.272 E.03627
G1 X132.064 Y109.681 E.04425
G1 X131.839 Y109.873 E.01124
G1 X131.521 Y110.039 E.01363
G1 X129.208 Y111.665 E.10746
G1 X128.861 Y111.106 E.02501
G1 X128.498 Y111.21 E.01435
G1 X128.498 Y114.19 E.11326
G1 X124.234 Y109.934 E.22897
G1 X121.496 Y110.049 E.10415
G1 X119.774 Y110.952 E.0739
G1 X118.007 Y109.709 E.08211
G1 X117.566 Y109.366 E.02123
G1 X117.109 Y108.973 E.02291
G1 X116.738 Y108.622 E.01941
G1 X116.392 Y108.372 E.01622
G1 X114.572 Y105.949 E.11517
G1 X114.467 Y105.484 E.01812
G1 X114.191 Y104.878 E.02531
G1 X113.981 Y104.351 E.02156
G1 X113.797 Y103.816 E.0215
G1 X113.638 Y103.27 E.02161
G1 X113.507 Y102.719 E.02153
G1 X113.402 Y102.163 E.02151
G1 X113.324 Y101.601 E.02156
G1 X113.131 Y99.46 E.0817
G1 X115.956 Y97.642 E.12768
G1 X119.354 Y99.604 E.14913
G1 X121.604 Y95.707 E.17102
G1 X118.218 Y93.752 E.1486
G1 X118.355 Y90.396 E.12766
G1 X120.308 Y89.49 E.08182
G1 X121.047 Y89.201 E.03016
G1 X121.372 Y89.087 E.01309
G1 X121.915 Y88.925 E.02154
G1 X122.466 Y88.79 E.02156
G1 X123.022 Y88.681 E.02153
M73 P0 R105
G1 X123.583 Y88.599 E.02155
G1 X124.147 Y88.544 E.02154
G1 X124.712 Y88.517 E.0215
G1 X125.224 Y88.518 E.01946
M204 P1000
G1 E-.64 F2100
;WIPE_START
G1 F9600
G1 X124.712 Y88.517 E-.1064
G1 X124.454 Y88.529 E-.0536
;WIPE_END
G1 Z.4 F720
G1 X136.427 Y101.873 F12000
G1 Z.2 F720
G1 E.8 F1500
M204 P600
G1 F1200
G1 X136.427 Y99.656 E.08426
G1 X135.856 Y99.294 E.0257
G1 X135.856 Y103.524 E.16077
G1 X135.633 Y104.199 E.02702
G1 X135.487 Y104.565 E.01498
G1 X135.451 Y104.739 E.00675
G1 X135.284 Y105.151 E.0169
G1 X135.284 Y98.931 E.2364
G1 X134.713 Y98.568 E.02572
G1 X134.713 Y106.111 E.28668
G1 X134.264 Y106.89 E.03417
G1 X134.142 Y107.031 E.00709
G1 X134.142 Y98.206 E.33541
G1 X134.02 Y98.129 E.00548
G1 X133.57 Y98.388 E.01973
G1 X133.57 Y107.686 E.35338
G1 X133.533 Y107.728 E.00213
G1 X133.354 Y108.033 E.01344
G1 X133.216 Y108.152 E.00693
G1 X132.999 Y108.625 E.01978
G1 X132.999 Y98.718 E.37653
G1 X132.428 Y99.048 E.02507
G1 X132.428 Y109.105 E.38223
G1 X131.856 Y109.32 E.02322
G1 X131.856 Y99.378 E.37786
G1 X131.285 Y99.708 E.02507
G1 X131.285 Y109.702 E.37984
G1 X130.713 Y110.104 E.02657
G1 X130.713 Y100.038 E.38257
G1 X130.491 Y100.166 E.00974
G1 X130.142 Y99.562 E.02651
G1 X130.142 Y110.505 E.4159
G1 X129.571 Y110.907 E.02654
G1 X129.571 Y98.572 E.46881
G1 X128.999 Y97.582 E.04346
G1 X128.999 Y110.639 E.49625
G1 X128.428 Y110.802 E.02257
G1 X128.428 Y96.181 E.55569
M204 P1000
G1 E-.64 F2100
;WIPE_START
G1 F9600
G1 X128.428 Y96.951 E-.16
;WIPE_END
G1 Z.4 F720
G1 X131.285 Y93.799 F12000
G1 Z.2 F720
G1 E.8 F1500
M204 P600
G1 F1200
G1 X131.285 Y91.793 E.07624
G1 X131.232 Y90.659 E.04315
G1 X130.713 Y90.419 E.02173
G1 X130.713 Y93.891 E.13196
G1 X130.142 Y94.221 E.02507
G1 X130.142 Y90.154 E.15457
G1 X129.571 Y89.89 E.02391
G1 X129.571 Y94.551 E.17715
G1 X128.999 Y94.881 E.0251
G1 X128.999 Y89.655 E.19862
G1 X128.428 Y89.458 E.02296
G1 X128.428 Y95.448 E.22766
M204 P1000
G1 X127.857 Y113.259 F12000
M204 P600
G1 F1200
G1 X127.857 Y89.288 E.91105
G1 X127.285 Y89.118 E.02268
G1 X127.285 Y112.398 E.88479
G1 X126.714 Y111.828 E.03066
G1 X126.714 Y88.998 E.86768
G1 X126.143 Y88.97 E.02173
G1 X126.143 Y111.258 E.84708
G1 X125.571 Y110.688 E.03069
G1 X125.571 Y88.943 E.82645
G1 X125 Y88.929 E.02171
G1 X125 Y110.117 E.80528
G1 X124.429 Y109.547 E.03066
G1 X124.429 Y88.943 E.78308
G1 X123.857 Y88.986 E.0218
G1 X123.857 Y109.538 E.78111
G1 X123.286 Y109.562 E.02172
G1 X123.286 Y89.058 E.77928
G1 X122.715 Y89.16 E.02205
G1 X122.715 Y109.586 E.77632
G1 X122.143 Y109.61 E.02176
G1 X122.143 Y89.293 E.77217
G1 X121.572 Y89.457 E.02258
G1 X121.572 Y95.213 E.21876
G1 X121.001 Y94.883 E.02507
G1 X121.001 Y89.654 E.19874
G1 X120.429 Y89.887 E.02347
G1 X120.429 Y94.553 E.17734
G1 X119.858 Y94.223 E.02507
G1 X119.858 Y90.152 E.15472
G1 X119.287 Y90.417 E.02392
G1 X119.287 Y93.894 E.13215
G1 X118.715 Y93.564 E.0251
G1 X118.715 Y90.456 E.11812
M204 P1000
G1 E-.64 F2100
;WIPE_START
G1 F9600
G1 X118.715 Y91.226 E-.16
;WIPE_END
G1 Z.4 F720
G1 X121.572 Y109.84 F12000
G1 Z.2 F720
G1 E.8 F1500
M204 P600
G1 F1200
G1 X121.572 Y96.586 E.50374
G1 X121.001 Y97.575 E.0434
G1 X121.001 Y109.844 E.4663
G1 X120.429 Y110.144 E.02455
G1 X120.429 Y98.565 E.44008
G1 X119.858 Y99.555 E.04344
G1 X119.858 Y110.444 E.41385
G1 X119.806 Y110.471 E.00223
G1 X119.287 Y110.106 E.02411
G1 X119.287 Y100.04 E.38257
G1 X118.715 Y99.71 E.0251
G1 X118.715 Y109.705 E.37987
G1 X118.144 Y109.294 E.02674
G1 X118.144 Y99.38 E.37679
G1 X117.572 Y99.051 E.02508
G1 X117.572 Y108.83 E.37166
G1 X117.001 Y108.304 E.02951
G1 X117.001 Y98.721 E.36421
G1 X116.43 Y98.391 E.02507
G1 X116.43 Y107.736 E.35517
G1 X115.858 Y106.976 E.03615
G1 X115.858 Y98.194 E.33377
G1 X115.287 Y98.561 E.0258
G1 X115.287 Y106.215 E.2909
G1 X114.954 Y105.772 E.02106
G1 X114.859 Y105.352 E.01637
G1 X114.716 Y105.038 E.01311
G1 X114.716 Y98.929 E.23218
G1 X114.144 Y99.297 E.02585
G1 X114.144 Y103.538 E.16118
G1 X114.036 Y103.165 E.01476
G1 X113.909 Y102.633 E.02079
G1 X113.808 Y102.096 E.02077
G1 X113.732 Y101.554 E.0208
G1 X113.573 Y99.786 E.06747
G1 X113.573 Y99.42 E.01391
M204 P1000
G1 E-.64 F2100
;WIPE_START
G1 F9600
G1 X113.573 Y99.786 E-.07606
G1 X113.609 Y100.188 E-.08394
;WIPE_END
G1 Z.4 F720
G1 X135.087 Y129.172 F12000
G1 Z.2 F720
G1 E.8 F1500
M204 P600
;TYPE:Perimeter
;WIDTH:0.499999
G1 F1200
G1 X135.087 Y137.359 E.31116
G1 X114.901 Y137.359 E.76719
G1 X114.901 Y129.173 E.31112
G1 X118.467 Y129.172 E.13553
G1 X118.345 Y129.254 E.00559
G1 X117.964 Y129.638 E.02056
G1 X117.682 Y130.072 E.01967
G1 X117.492 Y130.555 E.01973
G1 X117.401 Y131.067 E.01976
G1 X117.413 Y131.584 E.01965
G1 X117.528 Y132.09 E.01972
G1 X117.741 Y132.565 E.01978
G1 X118.044 Y132.986 E.01971
G1 X118.424 Y133.339 E.01971
G1 X118.866 Y133.61 E.0197
G1 X119.351 Y133.787 E.01962
G1 X119.864 Y133.866 E.01973
G1 X120.384 Y133.84 E.01979
G1 X120.887 Y133.713 E.01972
G1 X121.354 Y133.488 E.0197
G1 X121.768 Y133.176 E.0197
G1 X122.111 Y132.787 E.01971
G1 X122.371 Y132.338 E.01972
G1 X122.537 Y131.847 E.0197
G1 X122.602 Y131.331 E.01977
G1 X122.564 Y130.815 E.01966
G1 X122.424 Y130.316 E.0197
G1 X122.188 Y129.854 E.01972
G1 X121.865 Y129.448 E.01972
G1 X121.536 Y129.169 E.01639
G1 X127.787 Y129.173 E.23758
G1 X128.433 Y129.184 E.02456
G1 X127.977 Y129.624 E.02408
G1 X127.682 Y130.072 E.02039
G1 X127.491 Y130.557 E.01981
G1 X127.401 Y131.068 E.01972
G1 X127.414 Y131.601 E.02026
G1 X127.528 Y132.09 E.01908
G1 X127.741 Y132.565 E.01978
G1 X128.042 Y132.985 E.01964
G1 X128.423 Y133.339 E.01977
G1 X128.866 Y133.61 E.01974
G1 X129.351 Y133.787 E.01962
G1 X129.864 Y133.866 E.01973
G1 X130.384 Y133.84 E.01979
G1 X130.887 Y133.713 E.01972
G1 X131.354 Y133.488 E.0197
G1 X131.768 Y133.176 E.0197
G1 X132.111 Y132.787 E.01971
G1 X132.371 Y132.338 E.01972
G1 X132.537 Y131.847 E.0197
G1 X132.602 Y131.331 E.01977
G1 X132.564 Y130.815 E.01966
G1 X132.424 Y130.316 E.0197
G1 X132.188 Y129.854 E.01972
G1 X131.865 Y129.448 E.01972
G1 X131.531 Y129.166 E.01661
G1 X135.027 Y129.172 E.13287
M204 P1000
G1 X135.544 Y128.716 F12000
M204 P600
;TYPE:External perimeter
G1 F1200
G1 X135.544 Y130.454 E.06605
G1 X135.544 Y137.816 E.2798
G1 X114.444 Y137.816 E.80193
G1 X114.444 Y128.716 E.34586
G1 X118.889 Y128.715 E.16894
;WIDTH:0.520557
G1 X120.244 Y128.694 E.05382
;WIDTH:0.500399
G1 X120.811 Y128.702 E.02157
;WIDTH:0.499999
G1 X121.813 Y128.716 E.03809
G1 X128.805 Y128.713 E.26574
;WIDTH:0.520122
G1 X130.26 Y128.694 E.05774
;WIDTH:0.500812
G1 X130.807 Y128.707 E.02083
;WIDTH:0.499999
G1 X135.484 Y128.716 E.17776
M204 P1000
G1 E-.64 F2100
;WIPE_START
G1 F9600
G1 X135.511 Y129.485 E-.16
;WIPE_END
G1 Z.4 F720
G1 X130.003 Y129.156 F12000
G1 Z.2 F720
G1 E.8 F1500
M204 P600
;WIDTH:0.520122
G1 F1200
G1 X130.119 Y129.149 E.00461
;WIDTH:0.502305
G1 X130.747 Y129.259 E.02435
;WIDTH:0.499999
G1 X131.182 Y129.472 E.01841
G1 X131.515 Y129.742 E.01629
G1 X131.787 Y130.073 E.01628
G1 X131.987 Y130.451 E.01625
G1 X132.109 Y130.861 E.01626
G1 X132.147 Y131.285 E.01618
G1 X132.1 Y131.712 E.01633
G1 X131.969 Y132.12 E.01629
G1 X131.761 Y132.493 E.01623
G1 X131.483 Y132.818 E.01625
G1 X131.145 Y133.082 E.0163
G1 X130.763 Y133.273 E.01623
G1 X130.35 Y133.384 E.01625
G1 X129.921 Y133.412 E.01634
G1 X129.497 Y133.354 E.01626
G1 X129.094 Y133.214 E.01621
G1 X128.726 Y132.996 E.01626
G1 X128.407 Y132.709 E.01631
G1 X128.108 Y132.272 E.02012
G1 X127.941 Y131.859 E.01693
G1 X127.864 Y131.441 E.01615
G1 X127.853 Y131.135 E.01164
G1 X127.921 Y130.713 E.01625
G1 X128.072 Y130.311 E.01632
G1 X128.304 Y129.944 E.0165
G1 X128.678 Y129.569 E.02013
G1 X129.044 Y129.342 E.01637
;WIDTH:0.520122
G1 X129.451 Y129.187 E.01728
G1 X129.943 Y129.159 E.01955
M204 P1000
G1 X130.051 Y129.049 F12000
G1 E-.64 F2100
;WIPE_START
G1 F9600
G1 X130.119 Y129.149 E-.03663
G1 X130.704 Y129.251 E-.12337
;WIPE_END
G1 Z.4 F720
G1 X117.933 Y131.824 F12000
G1 Z.2 F720
G1 E.8 F1500
M204 P600
;WIDTH:0.499999
G1 F1200
G1 X117.87 Y131.561 E.01028
G1 X117.853 Y131.135 E.0162
G1 X117.921 Y130.711 E.01632
G1 X118.072 Y130.311 E.01625
G1 X118.298 Y129.949 E.01622
G1 X118.6 Y129.634 E.01659
G1 X119.026 Y129.35 E.01946
;WIDTH:0.520557
G1 X119.451 Y129.187 E.01808
G1 X120.237 Y129.152 E.03125
;WIDTH:0.500398
G1 X120.747 Y129.259 E.01982
;WIDTH:0.499999
G1 X121.182 Y129.472 E.01841
G1 X121.515 Y129.742 E.01629
G1 X121.787 Y130.073 E.01628
G1 X121.987 Y130.451 E.01625
G1 X122.109 Y130.861 E.01626
G1 X122.134 Y131.42 E.02127
G1 X122.064 Y131.829 E.01577
G1 X121.92 Y132.211 E.01552
G1 X121.761 Y132.493 E.0123
G1 X121.483 Y132.818 E.01625
G1 X121.145 Y133.082 E.0163
G1 X120.763 Y133.273 E.01623
G1 X120.35 Y133.384 E.01625
G1 X119.921 Y133.412 E.01634
G1 X119.497 Y133.354 E.01626
G1 X119.094 Y133.214 E.01621
G1 X118.726 Y132.996 E.01626
G1 X118.408 Y132.71 E.01625
G1 X118.177 Y132.405 E.01454
G1 X117.971 Y131.977 E.01805
G1 X117.947 Y131.882 E.00372
M204 P1000
G1 X117.671 Y131.761 F12000
G1 E-.64 F2100
;WIPE_START
G1 F9600
G1 X117.87 Y131.561 E-.0686
G1 X117.853 Y131.135 E-.0886
G1 X117.855 Y131.122 E-.0028
;WIPE_END
G1 Z.4 F720
G1 X127.436 Y130.113 F12000
G1 Z.2 F720
G1 E.8 F1500
M204 P600
;TYPE:Solid infill
;WIDTH:0.508297
G1 F1200
G1 X126.907 Y129.584 E.02895
G1 X126.249 Y129.584 E.02546
G1 X127.099 Y130.435 E.04654
G1 X127.052 Y130.619 E.00735
G1 X126.996 Y130.99 E.01452
G1 X125.591 Y129.584 E.07692
G1 X124.932 Y129.584 E.0255
G1 X127.278 Y131.93 E.12838
M204 P1000
G1 E-.64 F2100
;WIPE_START
G1 F9600
G1 X126.734 Y131.386 E-.16
;WIPE_END
G1 Z.4 F720
G1 X133.938 Y129.376 F12000
G1 Z.2 F720
G1 E.8 F1500
M204 P600
G1 F1200
G1 X134.676 Y130.113 E.04036
G1 X134.676 Y130.772 E.0255
G1 X133.485 Y129.581 E.06518
G1 X132.825 Y129.58 E.02554
G1 X134.676 Y131.43 E.10127
G1 X134.676 Y132.088 E.02546
G1 X132.832 Y130.244 E.10091
G1 X132.953 Y130.647 E.01628
G1 X133.002 Y131.072 E.01655
G1 X134.676 Y132.746 E.09161
G1 X134.676 Y133.404 E.02546
G1 X132.976 Y131.705 E.093
G1 X132.962 Y131.838 E.00518
G1 X132.846 Y132.233 E.01593
G1 X134.676 Y134.062 E.10012
G1 X134.676 Y134.72 E.02546
G1 X132.647 Y132.692 E.11101
G1 X132.545 Y132.879 E.00824
G1 X132.391 Y133.094 E.01023
G1 X134.676 Y135.379 E.12505
G1 X134.676 Y136.037 E.02546
G1 X132.081 Y133.443 E.14198
G1 X131.72 Y133.74 E.01809
G1 X134.676 Y136.695 E.16174
G1 X134.676 Y136.948 E.00979
G1 X134.271 Y136.948 E.01567
G1 X131.301 Y133.978 E.16253
G1 X131.007 Y134.106 E.01241
G1 X130.823 Y134.158 E.0074
G1 X133.612 Y136.948 E.15265
G1 X132.954 Y136.948 E.02546
G1 X130.267 Y134.261 E.14705
G1 X129.945 Y134.283 E.01249
G1 X129.592 Y134.244 E.01374
G1 X132.296 Y136.948 E.14798
G1 X131.638 Y136.948 E.02546
G1 X124.274 Y129.584 E.40299
G1 X123.616 Y129.584 E.02546
G1 X130.98 Y136.948 E.40299
G1 X130.322 Y136.948 E.02546
G1 X122.958 Y129.585 E.40297
G1 X122.501 Y129.585 E.01768
G1 X122.751 Y130.035 E.01992
G1 X129.664 Y136.948 E.37831
G1 X129.005 Y136.948 E.0255
G1 X122.989 Y130.931 E.32925
G1 X123.012 Y131.162 E.00898
G1 X123.012 Y131.362 E.00774
G1 X122.989 Y131.59 E.00887
G1 X128.347 Y136.948 E.29322
G1 X127.689 Y136.948 E.02546
G1 X122.876 Y132.135 E.26339
G1 X122.772 Y132.456 E.01306
G1 X122.691 Y132.608 E.00666
G1 X127.031 Y136.948 E.23751
G1 X126.373 Y136.948 E.02546
G1 X122.447 Y133.022 E.21485
G1 X122.146 Y133.379 E.01807
G1 X125.715 Y136.948 E.19531
G1 X125.057 Y136.948 E.02546
G1 X121.791 Y133.683 E.1787
M73 P1 R105
G1 X121.55 Y133.85 E.01135
G1 X121.385 Y133.935 E.00718
G1 X124.398 Y136.948 E.16489
G1 X123.74 Y136.948 E.02546
G1 X120.922 Y134.129 E.15424
G1 X120.522 Y134.238 E.01604
G1 X120.383 Y134.249 E.0054
G1 X123.082 Y136.948 E.1477
G1 X122.424 Y136.948 E.02546
G1 X119.503 Y134.027 E.15985
M204 P1000
G1 E-.64 F2100
;WIPE_START
G1 F9600
G1 X120.047 Y134.571 E-.16
;WIPE_END
G1 Z.4 F720
G1 X116.829 Y129.378 F12000
G1 Z.2 F720
G1 E.8 F1500
M204 P600
G1 F1200
