; generated by Slic3r 1.3.0 on 2024-02-23 at 15:53:03

; external perimeters extrusion width = 0.44mm (1.19mm^3/s)
; perimeters extrusion width = 0.56mm (3.10mm^3/s)
; infill extrusion width = 0.50mm (3.66mm^3/s)
; solid infill extrusion width = 0.56mm (1.03mm^3/s)
; top infill extrusion width = 0.56mm (0.83mm^3/s)

M107
M83 ; relative extruder moves

; Filament gcode

G21 ; set units to millimeters
G90 ; use absolute coordinates
M83 ; use relative distances for extrusion
G1 Z0.250 F3000.000
G1 E-2.00000 F2400.00000
G1 X82.767 Y83.394 F3000.000
G1 E2.00000 F2400.00000
G1 F1200
G1 X84.360 Y81.801 E0.10451
G1 X86.104 Y80.534 E0.10005
G1 X88.112 Y79.511 E0.10451
G1 X90.163 Y78.845 E0.10005
G1 X92.389 Y78.492 E0.10456
G1 X93.466 Y78.407 E0.05013
G1 X109.072 Y78.407 E0.72402
G1 X111.378 Y78.804 E0.10854
G1 X113.418 Y79.950 E0.10854
G1 X114.957 Y81.712 E0.10854
G1 X115.819 Y83.887 E0.10854
G1 X115.965 Y85.300 E0.06589
G1 X115.965 Y99.700 E0.66805
G1 X115.568 Y102.006 E0.10854
G1 X114.422 Y104.046 E0.10854
G1 X112.660 Y105.585 E0.10854
G1 X110.485 Y106.446 E0.10854
G1 X109.072 Y106.593 E0.06589
G1 X93.466 Y106.593 E0.72402
G1 X92.387 Y106.508 E0.05018
G1 X90.163 Y106.155 E0.10451
G1 X88.112 Y105.489 E0.10005
G1 X86.104 Y104.466 E0.10451
G1 X84.360 Y103.199 E0.10005
G1 X82.767 Y101.606 E0.10451
G1 X81.492 Y99.846 E0.10083
G1 X80.477 Y97.854 E0.10371
G1 X79.810 Y95.804 E0.10003
G1 X79.458 Y93.578 E0.10452
G1 X79.458 Y91.422 E0.10005
G1 X79.810 Y89.196 E0.10453
G1 X80.477 Y87.146 E0.10003
G1 X81.499 Y85.138 E0.10452
G1 X82.732 Y83.443 E0.09725
G1 X83.083 Y83.710 F3000.000
G1 F1200
G1 X84.675 Y82.117 E0.10451
G1 X86.307 Y80.931 E0.09357
G1 X88.314 Y79.909 E0.10451
G1 X90.232 Y79.285 E0.09357
G1 X92.458 Y78.933 E0.10455
G1 X93.466 Y78.854 E0.04688
G1 X109.072 Y78.854 E0.72402
G1 X111.299 Y79.251 E0.10494
G1 X113.252 Y80.392 E0.10494
G1 X114.690 Y82.139 E0.10494
G1 X115.519 Y85.300 E0.15162
G1 X115.519 Y99.700 E0.66805
G1 X115.122 Y101.927 E0.10494
G1 X113.980 Y103.880 E0.10494
G1 X112.234 Y105.318 E0.10494
G1 X109.072 Y106.146 E0.15162
G1 X93.466 Y106.146 E0.72402
G1 X92.457 Y106.067 E0.04693
G1 X90.232 Y105.715 E0.10451
G1 X88.314 Y105.091 E0.09357
G1 X86.307 Y104.069 E0.10451
G1 X84.675 Y102.883 E0.09357
G1 X83.083 Y101.290 E0.10451
G1 X81.897 Y99.659 E0.09356
G1 X80.874 Y97.652 E0.10451
G1 X80.251 Y95.734 E0.09355
G1 X79.899 Y93.508 E0.10452
G1 X79.899 Y91.492 E0.09357
G1 X80.251 Y89.266 E0.10453
G1 X80.874 Y87.348 E0.09355
G1 X81.897 Y85.341 E0.10452
G1 X83.047 Y83.758 E0.09077
G1 E-2.00000 F2400.00000
G1 X91.988 Y87.420 F3000.000
G1 E2.00000 F2400.00000
G1 F1200
G1 X90.786 Y87.858 E0.05939
G1 X89.359 Y89.054 E0.08637
G1 X88.429 Y90.667 E0.08637
G1 X88.105 Y92.500 E0.08637
G1 X88.429 Y94.333 E0.08637
G1 X89.359 Y95.946 E0.08637
G1 X90.786 Y97.142 E0.08637
G1 X92.535 Y97.779 E0.08637
G1 X94.397 Y97.779 E0.08637
G1 X96.146 Y97.142 E0.08637
G1 X97.337 Y96.143 E0.07214
G1 X107.929 Y96.143 E0.49141
G1 X107.929 Y98.557 E0.11202
G1 X93.556 Y98.557 E0.66684
G1 X91.598 Y98.247 E0.09194
G1 X89.914 Y97.389 E0.08771
G1 X88.577 Y96.052 E0.08771
G1 X87.718 Y94.367 E0.08771
G1 X87.423 Y92.500 E0.08771
G1 X87.718 Y90.633 E0.08771
G1 X88.577 Y88.948 E0.08771
G1 X89.914 Y87.611 E0.08771
G1 X91.598 Y86.753 E0.08771
G1 X93.556 Y86.443 E0.09194
G1 X107.929 Y86.443 E0.66684
G1 X107.929 Y88.857 E0.11202
G1 X97.337 Y88.857 E0.49141
G1 X96.146 Y87.858 E0.07214
G1 X94.397 Y87.221 E0.08637
G1 X92.535 Y87.221 E0.08637
G1 X92.045 Y87.399 E0.02419
G1 X92.198 Y87.819 F3000.000
G1 F1200
G1 X91.012 Y88.250 E0.05852
G1 X89.707 Y89.346 E0.07906
G1 X88.855 Y90.822 E0.07906
G1 X88.559 Y92.500 E0.07906
G1 X88.855 Y94.178 E0.07906
G1 X89.707 Y95.654 E0.07906
G1 X91.012 Y96.750 E0.07906
G1 X92.614 Y97.333 E0.07906
G1 X94.318 Y97.333 E0.07906
G1 X95.919 Y96.750 E0.07906
G1 X97.175 Y95.696 E0.07602
G1 X108.376 Y95.696 E0.51966
G1 X108.376 Y99.004 E0.15343
G1 X93.521 Y99.004 E0.68918
G1 X91.459 Y98.677 E0.09685
G1 X89.648 Y97.755 E0.09427
G1 X88.211 Y96.318 E0.09427
G1 X87.289 Y94.507 E0.09427
G1 X86.971 Y92.500 E0.09427
G1 X87.289 Y90.493 E0.09427
G1 X88.211 Y88.682 E0.09427
G1 X89.648 Y87.245 E0.09427
G1 X91.459 Y86.323 E0.09427
G1 X93.521 Y85.996 E0.09685
G1 X108.376 Y85.996 E0.68918
G1 X108.376 Y89.304 E0.15343
G1 X97.175 Y89.304 E0.51966
G1 X95.919 Y88.250 E0.07602
G1 X94.318 Y87.667 E0.07906
G1 X92.614 Y87.667 E0.07906
G1 X92.254 Y87.798 E0.01776
G1 X92.407 Y88.218 F3000.000
G1 F1200
G1 X91.239 Y88.643 E0.05765
G1 X90.054 Y89.637 E0.07176
G1 X89.280 Y90.977 E0.07176
G1 X89.012 Y92.500 E0.07176
G1 X89.280 Y94.023 E0.07176
G1 X90.054 Y95.363 E0.07176
G1 X91.239 Y96.357 E0.07176
G1 X92.692 Y96.886 E0.07176
G1 X94.239 Y96.886 E0.07176
G1 X95.693 Y96.357 E0.07176
G1 X96.878 Y95.363 E0.07176
G1 X96.943 Y95.250 E0.00605
G1 X108.822 Y95.250 E0.55112
G1 X108.822 Y99.450 E0.19485
G1 X93.485 Y99.450 E0.71151
G1 X91.319 Y99.107 E0.10176
G1 X89.382 Y98.120 E0.10083
G1 X87.846 Y96.583 E0.10083
G1 X86.859 Y94.647 E0.10083
G1 X86.519 Y92.500 E0.10083
G1 X86.859 Y90.353 E0.10083
G1 X87.846 Y88.417 E0.10083
G1 X89.382 Y86.880 E0.10083
G1 X91.319 Y85.893 E0.10083
G1 X93.485 Y85.550 E0.10176
G1 X108.822 Y85.550 E0.71151
G1 X108.822 Y89.750 E0.19485
G1 X96.943 Y89.750 E0.55112
G1 X96.878 Y89.637 E0.00605
G1 X95.693 Y88.643 E0.07176
G1 X94.239 Y88.114 E0.07176
G1 X92.692 Y88.114 E0.07176
G1 X92.463 Y88.197 E0.01132
G1 X92.127 Y87.932 F3000.000
G1 X92.218 Y86.987 F3000.000
G1 F1200
G1 X91.717 Y87.117 E0.01110
G1 X90.644 Y87.583 E0.02510
G1 F1200
G1 X90.457 Y87.704 E0.00265
G1 F1200
G1 X90.136 Y87.916 E0.00810
G1 X89.128 Y88.840 E0.02870
G1 F1200
G1 X88.991 Y89.014 E0.00298
G1 F1200
G1 X88.875 Y89.165 E0.00452
G1 X88.129 Y90.539 E0.03715
G1 F1200
G1 X88.086 Y90.657 E0.00197
G1 F1200
G1 X88.058 Y90.743 E0.00192
G1 X87.764 Y92.500 E0.03785
G1 X88.058 Y94.257 E0.03785
G1 X88.115 Y94.429 E0.00384
G1 F1200
G1 X88.502 Y95.148 E0.01282
G1 F1200
G1 X88.875 Y95.835 E0.01857
G1 X89.107 Y96.137 E0.00903
G1 F1200
G1 X89.464 Y96.468 E0.00654
G1 F1200
G1 X90.136 Y97.084 E0.01951
G1 X90.618 Y97.403 E0.01239
G1 F1200
G1 X91.001 Y97.572 E0.00500
G1 F1200
G1 X91.717 Y97.883 E0.01689
G1 X92.218 Y98.013 E0.01121
G1 F1200
G1 X92.496 Y98.082 E0.00467
G1 X93.041 Y98.125 E0.00892
G1 F1200
G1 X93.586 Y98.168 E0.01339
G1 X94.436 Y98.168 E0.02079
G1 F1200
G1 X94.670 Y98.132 E0.00711
G1 F1200
G1 X95.021 Y98.070 E0.01368
G1 F1200
G1 X95.197 Y98.039 E0.00833
G1 X95.437 Y97.986 F3000.000
G1 F1200
G1 X95.784 Y97.638 E0.02312
G1 X96.546 Y97.361 E0.03818
G1 X97.515 Y96.548 E0.05955
G1 X95.778 Y98.285 E0.11562
G1 X96.419 Y98.285 E0.03016
G1 X98.288 Y96.415 E0.12445
G1 X98.929 Y96.415 E0.03016
G1 X97.060 Y98.285 E0.12445
G1 X97.700 Y98.285 E0.03016
G1 X99.569 Y96.415 E0.12445
G1 X100.210 Y96.415 E0.03016
G1 X98.341 Y98.285 E0.12445
G1 X98.982 Y98.285 E0.03016
G1 X100.851 Y96.415 E0.12445
G1 X101.491 Y96.415 E0.03016
G1 X99.622 Y98.285 E0.12445
G1 X100.263 Y98.285 E0.03016
G1 X102.132 Y96.415 E0.12445
G1 X102.772 Y96.415 E0.03016
G1 X100.903 Y98.285 E0.12445
G1 X101.544 Y98.285 E0.03016
G1 X103.413 Y96.415 E0.12445
G1 X104.054 Y96.415 E0.03016
G1 X102.185 Y98.285 E0.12445
G1 X102.825 Y98.285 E0.03016
G1 X104.694 Y96.415 E0.12445
G1 X105.335 Y96.415 E0.03016
G1 X103.466 Y98.285 E0.12445
G1 X104.106 Y98.285 E0.03016
G1 X105.976 Y96.415 E0.12445
G1 X106.616 Y96.415 E0.03016
G1 X104.747 Y98.285 E0.12445
G1 X105.388 Y98.285 E0.03016
G1 X107.257 Y96.415 E0.12445
G1 X107.657 Y96.415 E0.01883
G1 X107.657 Y96.656 E0.01133
G1 X106.028 Y98.285 E0.10843
G1 X106.669 Y98.285 E0.03016
G1 X107.657 Y97.297 E0.06578
G1 X107.657 Y97.937 E0.03016
G1 X107.309 Y98.285 E0.02313
G1 E-2.00000 F2400.00000
G1 X108.072 Y98.700 F3000.000
G1 X106.722 Y97.350 F3000.000
G1 X97.717 Y97.350 F3000.000
G1 X96.395 Y97.828 F3000.000
G1 X94.371 Y98.168 F3000.000
G1 X92.560 Y98.087 F3000.000
G1 X91.717 Y97.883 F3000.000
G1 X90.136 Y97.084 F3000.000
G1 X88.875 Y95.835 F3000.000
G1 X88.058 Y94.257 F3000.000
G1 X87.767 Y92.500 F3000.000
G1 X88.094 Y90.633 F3000.000
G1 X89.067 Y88.915 F3000.000
G1 X90.564 Y87.633 F3000.000
G1 X92.405 Y86.939 F3000.000
G1 X94.559 Y86.848 F3000.000
G1 X96.395 Y87.172 F3000.000
G1 X97.717 Y87.650 F3000.000
G1 X106.722 Y87.650 F3000.000
G1 X108.072 Y89.000 F3000.000
G1 X107.309 Y88.585 F3000.000
G1 E2.00000 F2400.00000
G1 F1200
G1 X107.657 Y88.237 E0.02294
G1 X107.657 Y87.602 E0.02967
G1 X106.674 Y88.585 E0.06489
G1 X106.039 Y88.585 E0.02967
G1 X107.657 Y86.967 E0.10684
G1 X107.657 Y86.715 E0.01173
G1 X107.273 Y86.715 E0.01794
G1 X105.403 Y88.585 E0.12343
G1 X104.768 Y88.585 E0.02967
G1 X106.637 Y86.715 E0.12343
G1 X106.002 Y86.715 E0.02967
G1 X104.133 Y88.585 E0.12343
G1 X103.497 Y88.585 E0.02967
G1 X105.367 Y86.715 E0.12343
G1 X104.731 Y86.715 E0.02967
G1 X102.862 Y88.585 E0.12343
G1 X102.227 Y88.585 E0.02967
G1 X104.096 Y86.715 E0.12343
G1 X103.461 Y86.715 E0.02967
G1 X101.591 Y88.585 E0.12343
G1 X100.956 Y88.585 E0.02967
G1 X102.825 Y86.715 E0.12343
G1 X102.190 Y86.715 E0.02967
G1 X100.321 Y88.585 E0.12343
G1 X99.685 Y88.585 E0.02967
G1 X101.555 Y86.715 E0.12343
G1 X100.919 Y86.715 E0.02967
G1 X99.050 Y88.585 E0.12343
G1 X98.415 Y88.585 E0.02967
G1 X100.284 Y86.715 E0.12343
G1 X99.649 Y86.715 E0.02967
G1 X97.779 Y88.585 E0.12343
G1 X97.326 Y88.585 E0.02118
G1 X97.227 Y88.502 E0.00602
G1 X99.013 Y86.715 E0.11795
G1 X98.378 Y86.715 E0.02967
G1 X96.882 Y88.212 E0.09881
G1 X96.536 Y87.922 E0.02106
G1 X97.743 Y86.715 E0.07967
G1 X97.107 Y86.715 E0.02967
G1 X96.188 Y87.635 E0.06072
G1 X95.722 Y87.465 E0.02315
G1 X96.472 Y86.715 E0.04952
G1 X95.837 Y86.715 E0.02967
G1 X95.489 Y87.063 E0.02293
G1 X95.197 Y86.961 F3000.000
G1 F1200
G1 X94.846 Y86.899 E0.01665
G1 F1200
G1 X94.494 Y86.837 E0.01368
G1 F1200
G1 X93.586 Y86.832 E0.02725
G1 X93.314 Y86.853 E0.00821
G1 F1200
G1 X92.768 Y86.896 E0.01339
G1 F1200
G1 X92.496 Y86.918 E0.00425
G1 X92.218 Y86.987 E0.00446
G1 Z0.450 F3000.000
G1 X92.405 Y86.939 F3000.000
G1 X91.717 Y87.117 F3000.000
G1 X90.136 Y87.916 F3000.000
G1 X88.879 Y89.160 F3000.000
G1 X88.057 Y90.743 F3000.000
G1 X87.767 Y92.500 F3000.000
G1 X88.058 Y94.257 F3000.000
G1 X89.067 Y96.085 F3000.000
G1 X89.470 Y95.852 F3000.000
G1 X89.802 Y96.384 F3000.000
G1 F480
G1 X90.759 Y97.187 E0.05374
G1 X93.634 Y98.234 E0.13151
G1 X93.563 Y98.506 E0.01212
G1 X91.614 Y98.198 E0.08483
G1 X89.944 Y97.347 E0.08059
G1 X88.619 Y96.021 E0.08059
G1 X87.768 Y94.351 E0.08059
G1 X87.475 Y92.500 E0.08059
G1 X87.768 Y90.649 E0.08059
G1 X88.619 Y88.979 E0.08059
G1 X89.944 Y87.653 E0.08059
G1 X91.614 Y86.802 E0.08059
G1 X93.563 Y86.494 E0.08483
G1 X93.634 Y86.766 E0.01212
G1 X90.759 Y87.813 E0.13151
G1 X89.319 Y89.021 E0.08082
G1 X88.380 Y90.649 E0.08082
G1 X88.053 Y92.500 E0.08082
G1 X88.380 Y94.351 E0.08082
G1 X89.319 Y95.979 E0.08082
G1 X89.756 Y96.345 E0.02450
G1 X89.470 Y95.852 F3000.000
G1 X89.067 Y96.085 F3000.000
G1 X88.160 Y94.518 F3000.000
G1 X87.767 Y92.500 F3000.000
G1 X88.058 Y90.743 F3000.000
G1 X88.875 Y89.165 F3000.000
G1 X90.104 Y87.945 F3000.000
G1 X91.721 Y87.115 F3000.000
G1 X92.607 Y86.901 F3000.000
G1 X94.381 Y86.833 F3000.000
G1 X96.395 Y87.172 F3000.000
G1 X96.279 Y86.494 F3000.000
G1 F480
G1 X108.008 Y86.494 E0.50428
G1 X108.008 Y88.806 E0.09939
G1 X97.356 Y88.806 E0.45799
G1 X96.172 Y87.813 E0.06644
G1 X94.406 Y87.170 E0.08082
G1 X93.968 Y87.170 E0.01880
G1 X93.968 Y86.494 E0.02904
G1 X96.219 Y86.494 E0.09678
G1 X96.395 Y87.172 F3000.000
G1 X94.381 Y86.833 F3000.000
G1 X92.607 Y86.901 F3000.000
G1 X91.721 Y87.115 F3000.000
G1 X90.104 Y87.945 F3000.000
G1 X89.067 Y88.915 F3000.000
G1 X88.094 Y90.633 F3000.000
G1 X87.767 Y92.500 F3000.000
G1 X88.058 Y94.257 F3000.000
G1 X88.875 Y95.835 F3000.000
G1 X90.567 Y97.363 F3000.000
G1 X92.607 Y98.099 F3000.000
G1 X94.564 Y98.151 F3000.000
G1 X96.395 Y97.828 F3000.000
G1 X97.717 Y97.350 F3000.000
G1 X106.852 Y97.350 F3000.000
G1 X103.556 Y98.506 F3000.000
G1 F480
G1 X93.968 Y98.506 E0.41222
G1 X93.968 Y97.830 E0.02904
G1 X94.406 Y97.830 E0.01880
G1 X96.172 Y97.187 E0.08082
G1 X97.356 Y96.194 E0.06644
G1 X108.008 Y96.194 E0.45799
G1 X108.008 Y98.506 E0.09939
G1 X103.616 Y98.506 E0.18884
G1 X103.616 Y99.023 F3000.000
G1 F1800
G1 X93.519 Y99.023 E0.43412
G1 X91.453 Y98.696 E0.08995
G1 X89.637 Y97.770 E0.08763
G1 X88.195 Y96.329 E0.08763
G1 X87.270 Y94.513 E0.08763
G1 X86.951 Y92.500 E0.08763
G1 X87.270 Y90.487 E0.08763
G1 X88.195 Y88.671 E0.08763
G1 X89.637 Y87.230 E0.08763
G1 X91.453 Y86.304 E0.08763
G1 X93.519 Y85.977 E0.08995
G1 X108.525 Y85.977 E0.64519
G1 X108.525 Y89.323 E0.14386
G1 X97.168 Y89.323 E0.48832
G1 X95.909 Y88.267 E0.07061
G1 X94.314 Y87.687 E0.07298
G1 X93.451 Y87.687 E0.03712
G1 X93.451 Y87.383 E0.01305
G1 X91.022 Y88.267 E0.11115
G1 X89.722 Y89.358 E0.07298
G1 X88.873 Y90.828 E0.07298
G1 X88.578 Y92.500 E0.07298
G1 X88.873 Y94.172 E0.07298
G1 X89.722 Y95.642 E0.07298
G1 X91.022 Y96.733 E0.07298
G1 X93.451 Y97.617 E0.11115
G1 X93.451 Y97.313 E0.01305
G1 X94.314 Y97.313 E0.03712
G1 X95.909 Y96.733 E0.07298
G1 X97.168 Y95.677 E0.07061
G1 X108.525 Y95.677 E0.48832
G1 X108.525 Y99.023 E0.14386
G1 X103.676 Y99.023 E0.20849
G1 X103.676 Y99.480 F3000.000
G1 F900
G1 X93.483 Y99.480 E0.33654
G1 X91.310 Y99.136 E0.07265
G1 X89.365 Y98.145 E0.07208
G1 X87.821 Y96.601 E0.07208
G1 X86.830 Y94.656 E0.07208
G1 X86.488 Y92.500 E0.07208
G1 X86.830 Y90.344 E0.07208
G1 X87.821 Y88.399 E0.07208
G1 X89.365 Y86.855 E0.07208
G1 X91.310 Y85.864 E0.07208
G1 X93.483 Y85.520 E0.07265
G1 X108.982 Y85.520 E0.51174
G1 X108.982 Y89.780 E0.14065
G1 X96.925 Y89.780 E0.39808
G1 X96.854 Y89.657 E0.00470
G1 X95.677 Y88.669 E0.05072
G1 X94.234 Y88.144 E0.05072
G1 X92.994 Y88.144 E0.04093
G1 X92.994 Y88.036 E0.00356
G1 X91.254 Y88.669 E0.06114
G1 X90.077 Y89.657 E0.05072
G1 X89.309 Y90.987 E0.05072
G1 X89.042 Y92.500 E0.05072
G1 X89.309 Y94.013 E0.05072
G1 X90.077 Y95.343 E0.05072
G1 X91.254 Y96.331 E0.05072
G1 X92.994 Y96.964 E0.06114
G1 X92.994 Y96.856 E0.00356
G1 X94.234 Y96.856 E0.04093
G1 X95.677 Y96.331 E0.05072
G1 X96.854 Y95.343 E0.05072
G1 X96.925 Y95.220 E0.00470
G1 X108.982 Y95.220 E0.39808
G1 X108.982 Y99.480 E0.14065
G1 X103.736 Y99.480 E0.17322
G1 X103.403 Y99.187 F3000.000
G1 X107.692 Y96.912 F3000.000
G1 F600
G1 X107.290 Y96.510 E0.02566
G1 X106.523 Y96.510 E0.03460
G1 X107.692 Y97.680 E0.07459
G1 X107.692 Y98.190 E0.02302
G1 X107.435 Y98.190 E0.01158
G1 X105.755 Y96.510 E0.10715
G1 X104.988 Y96.510 E0.03460
G1 X106.668 Y98.190 E0.10715
G1 X105.901 Y98.190 E0.03460
G1 X104.221 Y96.510 E0.10715
G1 X103.454 Y96.510 E0.03460
G1 X105.134 Y98.190 E0.10715
G1 X104.367 Y98.190 E0.03460
G1 X102.687 Y96.510 E0.10715
G1 X101.920 Y96.510 E0.03460
G1 X103.600 Y98.190 E0.10715
G1 X102.832 Y98.190 E0.03460
G1 X101.153 Y96.510 E0.10715
G1 X100.386 Y96.510 E0.03460
G1 X102.065 Y98.190 E0.10715
G1 X101.298 Y98.190 E0.03460
G1 X99.618 Y96.510 E0.10715
G1 X98.851 Y96.510 E0.03460
G1 X100.531 Y98.190 E0.10715
G1 X99.764 Y98.190 E0.03460
G1 X98.084 Y96.510 E0.10715
G1 X97.329 Y96.522 E0.03407
G1 X98.997 Y98.190 E0.10640
G1 X98.230 Y98.190 E0.03460
G1 X96.912 Y96.872 E0.08407
G1 X96.495 Y97.222 E0.02456
G1 X97.463 Y98.190 E0.06175
G1 X96.696 Y98.190 E0.03460
G1 X96.293 Y97.788 E0.02567
G1 X95.955 Y97.905 F3000.000
G1 F600
G1 X95.627 Y97.963 E0.01494
G1 F600
G1 X95.299 Y98.021 E0.01236
G1 F600
G1 X94.971 Y98.079 E0.00978
G1 F600
G1 X94.643 Y98.137 E0.00720
G1 F600
G1 X94.451 Y98.168 E0.00270
G1 F600
G1 X94.227 Y98.168 E0.00215
G1 X92.097 Y97.982 F3000.000
G1 F600
G1 X91.717 Y97.883 E0.00192
G1 X91.169 Y97.645 E0.00291
G1 X90.379 Y97.245 F3000.000
G1 F600
G1 X90.136 Y97.084 E0.00130
G1 X89.616 Y96.608 E0.00314
G1 X88.992 Y95.988 F3000.000
G1 F600
G1 X88.875 Y95.835 E0.00105
G1 X88.482 Y95.112 E0.00449
G1 X88.087 Y94.344 F3000.000
G1 F600
G1 X88.058 Y94.257 E0.00032
G1 X87.889 Y93.250 E0.00353
G1 X87.889 Y91.750 F3000.000
G1 F600
G1 X88.058 Y90.743 E0.00353
G1 X88.087 Y90.656 E0.00032
G1 X88.482 Y89.888 F3000.000
G1 F600
G1 X88.875 Y89.165 E0.00449
G1 X88.992 Y89.012 E0.00105
G1 X89.616 Y88.392 F3000.000
G1 F600
G1 X90.136 Y87.916 E0.00314
G1 X90.379 Y87.755 E0.00130
